;FLAVOR:Marlin
;TIME:2774
;Filament used: 3.37452m
;Layer height: 0.2
;MINX:12.64
;MINY:81.22
;MINZ:0.2
;MAXX:207.36
;MAXY:138.78
;MAXZ:2
;TARGET_MACHINE.NAME:Creality Ender-3 V3 SE
;Generated with Cura_SteamEngine 5.6.0
M140 S60
M105
M190 S60
M104 S210
M105
M109 S210
M82 ;absolute extrusion mode
M220 S100 ;Reset Feedrate
M221 S100 ;Reset Flowrate

G28 ;Home

M420 S1; Enable mesh leveling

G92 E0 ;Reset Extruder
G1 Z2.0 F3000 ;Move Z Axis up
G1 X10.1 Y20 Z0.28 F5000.0 ;Move to start position
M109 S[material_print_temperature_layer_0]
G1 X10.1 Y145.0 Z0.28 F1500.0 E15 ;Draw the first line
G1 X10.4 Y145.0 Z0.28 F5000.0 ;Move to side a little
G1 X10.4 Y20 Z0.28 F1500.0 E30 ;Draw the second line
G92 E0  ;Reset Extruder
G1 E-1.0000 F1800 ;Retract a bit
G1 Z2.0 F3000 ;Move Z Axis up
G1 E0.0000 F1800 

G92 E0
G92 E0
G1 F2400 E-0.8
;LAYER_COUNT:10
;LAYER:0
M107
G0 F9000 X21.189 Y81.509 Z0.2
;TYPE:SKIRT
G1 F2400 E0
G1 F1800 X22.156 Y81.331 E0.0327
G1 X23.295 Y81.235 E0.07072
G1 X23.952 Y81.22 E0.09258
G1 X195.664 Y81.22 E5.80374
G1 X196.544 Y81.233 E5.83301
G1 X197.516 Y81.292 E5.8654
G1 X198.479 Y81.438 E5.8978
G1 X199.426 Y81.669 E5.93022
G1 X200.314 Y81.969 E5.96139
G1 X201.206 Y82.359 E5.99377
G1 X202.089 Y82.846 E6.02731
G1 X202.84 Y83.348 E6.05736
G1 X203.655 Y84.006 E6.0922
G1 X204.353 Y84.684 E6.12456
G1 X204.989 Y85.421 E6.15694
G1 X205.559 Y86.211 E6.18934
G1 X206.021 Y86.987 E6.21938
G1 X206.475 Y87.929 E6.25416
G1 X206.804 Y88.807 E6.28534
G1 X207.073 Y89.779 E6.31889
G1 X207.25 Y90.745 E6.35155
G1 X207.345 Y91.875 E6.38927
G1 X207.36 Y92.55 E6.41172
G1 X207.359 Y127.18 E7.56352
G1 X207.348 Y127.943 E7.5889
G1 X207.291 Y128.916 E7.62132
G1 X207.146 Y129.879 E7.65371
G1 X206.917 Y130.825 E7.68608
G1 X206.606 Y131.749 E7.71851
G1 X206.214 Y132.64 E7.75089
G1 X205.746 Y133.492 E7.78322
G1 X205.224 Y134.273 E7.81446
G1 X204.591 Y135.058 E7.848
G1 X203.966 Y135.709 E7.87802
G1 X203.177 Y136.397 E7.91284
G1 X202.417 Y136.947 E7.94404
G1 X201.55 Y137.464 E7.97761
G1 X200.672 Y137.886 E8.01001
G1 X199.761 Y138.228 E8.04238
G1 X198.822 Y138.489 E8.07479
G1 X197.856 Y138.667 E8.10746
G1 X196.705 Y138.765 E8.14588
G1 X196.03 Y138.78 E8.16834
G1 X24.204 Y138.779 E13.8833
G1 X23.471 Y138.768 E13.90768
G1 X22.499 Y138.711 E13.94006
G1 X21.536 Y138.565 E13.97246
G1 X20.59 Y138.336 E14.00483
G1 X19.666 Y138.024 E14.03727
G1 X18.776 Y137.632 E14.06961
G1 X17.953 Y137.181 E14.10083
G1 X17.114 Y136.62 E14.1344
G1 X16.41 Y136.054 E14.16444
G1 X15.657 Y135.329 E14.19921
G1 X15.02 Y134.593 E14.23158
G1 X14.49 Y133.862 E14.26161
G1 X13.954 Y132.965 E14.29637
G1 X13.532 Y132.087 E14.32877
G1 X13.19 Y131.175 E14.36116
G1 X12.93 Y130.237 E14.39354
G1 X12.752 Y129.268 E14.42631
G1 X12.654 Y128.089 E14.46566
G1 X12.64 Y127.438 E14.48731
G1 X12.641 Y92.745 E15.64121
G1 X12.652 Y92.045 E15.66449
G1 X12.71 Y91.072 E15.69691
G1 X12.856 Y90.109 E15.72931
G1 X13.086 Y89.163 E15.76169
G1 X13.399 Y88.24 E15.7941
G1 X13.791 Y87.35 E15.82645
G1 X14.261 Y86.497 E15.85884
G1 X14.804 Y85.689 E15.89122
G1 X15.371 Y84.985 E15.92129
G1 X16.096 Y84.233 E15.95603
G1 X16.832 Y83.596 E15.9884
G1 X17.564 Y83.066 E16.01846
G1 X18.461 Y82.531 E16.0532
G1 X19.339 Y82.11 E16.08559
G1 X20.252 Y81.768 E16.11801
G1 X21.189 Y81.509 E16.15035
G0 F9000 X21.262 Y81.902
G1 F1800 X22.19 Y81.73 E16.18174
G1 X23.329 Y81.634 E16.21976
G1 X23.961 Y81.62 E16.24078
G1 X195.658 Y81.62 E21.95145
G1 X196.52 Y81.632 E21.98012
G1 X197.457 Y81.688 E22.01134
G1 X198.385 Y81.827 E22.04255
G1 X199.298 Y82.048 E22.07379
G1 X200.154 Y82.336 E22.10383
G1 X201.046 Y82.726 E22.13621
G1 X201.867 Y83.179 E22.1674
G1 X202.618 Y83.681 E22.19744
G1 X203.377 Y84.293 E22.22987
G1 X204.051 Y84.946 E22.26109
G1 X204.665 Y85.655 E22.29228
G1 X205.215 Y86.416 E22.32351
G1 X205.677 Y87.192 E22.35355
G1 X206.1 Y88.069 E22.38593
G1 X206.429 Y88.947 E22.41712
G1 X206.68 Y89.852 E22.44835
G1 X206.851 Y90.779 E22.47971
G1 X206.946 Y91.909 E22.51742
G1 X206.96 Y92.55 E22.53875
G1 X206.959 Y127.175 E23.69038
G1 X206.949 Y127.92 E23.71516
G1 X206.895 Y128.857 E23.74638
G1 X206.757 Y129.786 E23.77762
G1 X206.538 Y130.698 E23.80881
G1 X206.24 Y131.588 E23.84003
G1 X205.863 Y132.448 E23.87126
G1 X205.413 Y133.27 E23.90243
G1 X204.891 Y134.051 E23.93367
G1 X204.302 Y134.781 E23.96487
G1 X203.677 Y135.432 E23.99489
G1 X202.942 Y136.073 E24.02732
G1 X202.182 Y136.623 E24.05852
G1 X201.376 Y137.104 E24.08974
G1 X200.531 Y137.512 E24.12095
G1 X199.653 Y137.843 E24.15216
G1 X198.749 Y138.096 E24.18338
G1 X197.822 Y138.268 E24.21474
G1 X196.671 Y138.366 E24.25316
G1 X196.03 Y138.38 E24.27449
G1 X24.21 Y138.379 E29.98924
G1 X23.494 Y138.369 E30.01306
G1 X22.558 Y138.315 E30.04424
G1 X21.629 Y138.176 E30.07549
G1 X20.717 Y137.957 E30.10668
G1 X19.827 Y137.658 E30.13791
G1 X18.968 Y137.281 E30.16911
G1 X18.145 Y136.83 E30.20032
G1 X17.365 Y136.308 E30.23154
G1 X16.661 Y135.742 E30.26158
G1 X15.959 Y135.067 E30.29398
G1 X15.344 Y134.358 E30.32519
G1 X14.814 Y133.627 E30.35522
G1 X14.314 Y132.791 E30.38762
G1 X13.906 Y131.946 E30.41883
G1 X13.575 Y131.068 E30.45004
G1 X13.323 Y130.164 E30.48125
G1 X13.151 Y129.235 E30.51268
G1 X13.053 Y128.056 E30.55203
G1 X13.04 Y127.438 E30.57259
G1 X13.041 Y92.751 E31.72628
G1 X13.051 Y92.068 E31.749
G1 X13.106 Y91.131 E31.78022
G1 X13.245 Y90.203 E31.81143
G1 X13.465 Y89.291 E31.84263
G1 X13.765 Y88.401 E31.87387
G1 X14.142 Y87.542 E31.90507
G1 X14.593 Y86.72 E31.93626
G1 X15.116 Y85.94 E31.96749
G1 X15.683 Y85.236 E31.99756
G1 X16.358 Y84.535 E32.02992
G1 X17.067 Y83.92 E32.06114
G1 X17.799 Y83.39 E32.0912
G1 X18.635 Y82.891 E32.12358
G1 X19.48 Y82.484 E32.15477
G1 X20.359 Y82.153 E32.18601
G1 X21.262 Y81.902 E32.21719
G0 F9000 X21.336 Y82.295
G1 F1800 X22.224 Y82.129 E32.24723
G1 X23.363 Y82.033 E32.28525
G1 X23.97 Y82.02 E32.30544
G1 X195.653 Y82.02 E38.01564
G1 X196.497 Y82.031 E38.04372
G1 X197.399 Y82.084 E38.07377
G1 X198.292 Y82.216 E38.10379
G1 X199.17 Y82.427 E38.13383
G1 X200.026 Y82.715 E38.16387
G1 X200.853 Y83.077 E38.19389
G1 X201.645 Y83.512 E38.22395
G1 X202.396 Y84.014 E38.25399
G1 X203.099 Y84.581 E38.28403
G1 X203.749 Y85.208 E38.31407
G1 X204.341 Y85.89 E38.34411
G1 X204.871 Y86.621 E38.37414
G1 X205.333 Y87.397 E38.40418
G1 X205.726 Y88.21 E38.43421
G1 X206.044 Y89.055 E38.46424
G1 X206.287 Y89.925 E38.49428
G1 X206.452 Y90.813 E38.52432
G1 X206.547 Y91.943 E38.56204
G1 X206.56 Y92.55 E38.58223
G1 X206.559 Y127.17 E39.7337
G1 X206.55 Y127.897 E39.75788
G1 X206.499 Y128.799 E39.78793
G1 X206.368 Y129.693 E39.81798
G1 X206.159 Y130.571 E39.848
G1 X205.873 Y131.428 E39.87805
G1 X205.512 Y132.256 E39.90809
G1 X205.08 Y133.048 E39.9381
G1 X204.579 Y133.8 E39.96815
G1 X204.013 Y134.504 E39.9982
G1 X203.388 Y135.155 E40.02821
G1 X202.707 Y135.749 E40.05827
G1 X201.976 Y136.28 E40.08832
G1 X201.202 Y136.744 E40.11833
G1 X200.389 Y137.138 E40.14838
G1 X199.545 Y137.458 E40.1784
G1 X198.675 Y137.703 E40.20847
G1 X197.788 Y137.869 E40.23848
G1 X196.637 Y137.967 E40.2769
G1 X196.03 Y137.98 E40.29709
G1 X24.215 Y137.979 E46.01168
G1 X23.517 Y137.97 E46.0349
G1 X22.616 Y137.919 E46.06492
G1 X21.722 Y137.787 E46.09497
G1 X20.844 Y137.578 E46.12499
G1 X19.987 Y137.291 E46.15505
G1 X19.16 Y136.93 E46.18506
G1 X18.367 Y136.497 E46.21512
G1 X17.616 Y135.996 E46.24514
G1 X16.912 Y135.43 E46.27519
G1 X16.261 Y134.804 E46.30522
G1 X15.668 Y134.123 E46.33526
G1 X15.138 Y133.392 E46.36529
G1 X14.674 Y132.617 E46.39533
G1 X14.28 Y131.804 E46.42538
G1 X13.96 Y130.96 E46.4554
G1 X13.716 Y130.09 E46.48546
G1 X13.55 Y129.202 E46.5155
G1 X13.453 Y128.047 E46.55405
G1 X13.44 Y127.438 E46.57431
G1 X13.441 Y92.756 E47.72784
G1 X13.45 Y92.091 E47.74996
G1 X13.502 Y91.189 E47.78001
G1 X13.634 Y90.296 E47.81004
G1 X13.844 Y89.418 E47.84006
G1 X14.131 Y88.561 E47.87012
G1 X14.493 Y87.734 E47.90015
G1 X14.926 Y86.942 E47.93017
G1 X15.428 Y86.191 E47.96021
G1 X15.995 Y85.487 E47.99028
G1 X16.621 Y84.837 E48.02029
G1 X17.302 Y84.244 E48.05033
G1 X18.034 Y83.714 E48.08039
G1 X18.809 Y83.251 E48.11041
G1 X19.622 Y82.858 E48.14045
G1 X20.467 Y82.538 E48.1705
G1 X21.336 Y82.295 E48.20051
G1 F2400 E47.40051
;MESH:ribbon-panel-rev-1.0.stl
G0 F9000 X26.585 Y93.885
G0 X28.862 Y97.619
;TYPE:WALL-INNER
G1 F2400 E48.20051
G1 F1800 X28.507 Y97.878 E48.21513
G1 X28.034 Y98.075 E48.23217
G1 X27.436 Y98.184 E48.25239
G1 X26.78 Y98.051 E48.27465
G1 X26.376 Y97.868 E48.2894
G1 X25.902 Y97.493 E48.3095
G1 X25.628 Y97.132 E48.32458
G1 X25.386 Y96.563 E48.34514
G1 X25.307 Y95.872 E48.36827
G1 X25.452 Y95.293 E48.38813
G1 X25.744 Y94.756 E48.40846
G1 X26.125 Y94.361 E48.42671
G1 X26.653 Y94.055 E48.44701
G1 X27.082 Y93.937 E48.46181
G1 X27.489 Y93.905 E48.47539
G1 X27.934 Y93.956 E48.49028
G1 X28.512 Y94.18 E48.5109
G1 X29.021 Y94.586 E48.53256
G1 X29.172 Y94.766 E48.54037
G1 X29.415 Y95.207 E48.55712
G1 X29.554 Y95.697 E48.57406
G1 X29.575 Y96.128 E48.58841
G1 X29.511 Y96.565 E48.6031
G1 X29.266 Y97.177 E48.62503
G1 X28.862 Y97.619 E48.64494
G1 F2400 E47.84494
G0 F9000 X28.59 Y98.034
G0 X35.563 Y104.835
G0 X36.274 Y115.677
G1 F2400 E48.64494
G1 F1800 X36.016 Y115.586 E48.65404
G1 X35.845 Y115.42 E48.66197
G1 X35.743 Y115.146 E48.67169
G1 X35.743 Y104.854 E49.01401
G1 X35.847 Y104.577 E49.02385
G1 X36.057 Y104.39 E49.0332
G1 X36.274 Y104.323 E49.04075
G1 X188.799 Y104.322 E54.11375
G1 X189.1 Y104.439 E54.1245
G1 X189.245 Y104.594 E54.13155
G1 X189.34 Y104.83 E54.14002
G1 X189.34 Y115.161 E54.48363
G1 X189.178 Y115.492 E54.49588
G1 X189.027 Y115.608 E54.50222
G1 X188.795 Y115.678 E54.51028
G1 X36.274 Y115.677 E59.58315
G1 F2400 E58.78315
G0 F9000 X35.856 Y115.694
G0 X29.572 Y123.065
G0 X28.866 Y125.56
G1 F2400 E59.58315
G1 F1800 X28.508 Y125.818 E59.59782
G1 X28.04 Y126.014 E59.6147
G1 X27.439 Y126.124 E59.63502
G1 X26.78 Y125.992 E59.65737
G1 X26.325 Y125.787 E59.67397
G1 X26.132 Y125.648 E59.68188
G1 X25.701 Y125.184 E59.70295
G1 X25.401 Y124.638 E59.72367
G1 X25.308 Y123.812 E59.75131
G1 X25.453 Y123.231 E59.77123
G1 X25.744 Y122.696 E59.79149
G1 X26.122 Y122.302 E59.80965
G1 X26.651 Y121.996 E59.82997
G1 X27.082 Y121.874 E59.84487
G1 X27.505 Y121.841 E59.85898
G1 X27.94 Y121.897 E59.87357
G1 X28.529 Y122.134 E59.89469
G1 X29.119 Y122.609 E59.91988
G1 X29.406 Y123.138 E59.9399
G1 X29.553 Y123.633 E59.95707
G1 X29.575 Y124.067 E59.97153
G1 X29.513 Y124.501 E59.98611
G1 X29.282 Y125.087 E60.00706
G1 X28.866 Y125.56 E60.02801
G1 F2400 E59.22801
G0 F9000 X28.942 Y125.627
G0 X29.347 Y125.286
G0 X108.105 Y125.293
G0 X109.989 Y126.124
G1 F2400 E60.02801
G1 F1800 X109.33 Y125.992 E60.05036
G1 X108.875 Y125.787 E60.06696
G1 X108.682 Y125.648 E60.07487
G1 X108.251 Y125.184 E60.09593
G1 X108.007 Y124.739 E60.11281
G1 X107.938 Y124.522 E60.12039
G1 X107.854 Y123.825 E60.14374
G1 X108.008 Y123.221 E60.16447
G1 X108.297 Y122.702 E60.18423
G1 X108.676 Y122.308 E60.20241
G1 X109.199 Y121.996 E60.22267
G1 X109.632 Y121.877 E60.2376
G1 X110.039 Y121.845 E60.25118
G1 X110.486 Y121.896 E60.26614
G1 X111.081 Y122.135 E60.28747
G1 X111.663 Y122.6 E60.31225
G1 X111.964 Y123.146 E60.33298
G1 X112.104 Y123.636 E60.34993
G1 X112.125 Y124.067 E60.36429
G1 X112.063 Y124.501 E60.37887
G1 X111.832 Y125.087 E60.39982
G1 X111.416 Y125.56 E60.42077
G1 X111.058 Y125.818 E60.43544
G1 X110.59 Y126.014 E60.45232
G1 X109.989 Y126.124 E60.47264
G1 F2400 E59.67264
G0 F9000 X109.969 Y126.222
G0 X111.897 Y125.286
G0 X190.655 Y125.293
G0 X191.232 Y125.648
G1 F2400 E60.47264
G1 F1800 X190.801 Y125.184 E60.49371
G1 X190.557 Y124.739 E60.51058
G1 X190.488 Y124.522 E60.51816
G1 X190.404 Y123.825 E60.54151
G1 X190.558 Y123.221 E60.56224
G1 X190.847 Y122.702 E60.582
G1 X191.232 Y122.297 E60.60058
G1 X191.752 Y121.995 E60.62058
G1 X192.181 Y121.878 E60.63537
G1 X192.603 Y121.84 E60.64947
G1 X193.042 Y121.899 E60.6642
G1 X193.607 Y122.118 E60.68435
G1 X194.121 Y122.526 E60.70618
G1 X194.272 Y122.706 E60.71399
G1 X194.512 Y123.142 E60.73055
G1 X194.654 Y123.636 E60.74764
G1 X194.672 Y124.042 E60.76116
G1 X194.614 Y124.498 E60.77645
G1 X194.42 Y124.986 E60.79392
G1 X194.114 Y125.412 E60.81136
G1 X193.797 Y125.693 E60.82545
G1 X193.427 Y125.91 E60.83972
G1 X192.992 Y126.049 E60.85491
G1 X192.467 Y126.11 E60.87249
G1 X191.88 Y125.992 E60.8924
G1 X191.425 Y125.787 E60.909
G1 X191.232 Y125.648 E60.91691
G1 F2400 E60.11691
G0 F9000 X192.368 Y125.919
G0 X193.9 Y125.842
G0 X193.898 Y126.999
G0 X195.76 Y127.18
G1 F2400 E60.91691
G1 F1800 X195.76 Y92.82 E62.05973
G1 X24.24 Y92.82 E67.76451
G1 X24.241 Y127.179 E68.90729
G1 X195.76 Y127.18 E74.61204
G1 F2400 E73.81204
G0 F9000 X195.56 Y97.611
G0 X194.426 Y97.384
G0 X191.478 Y97.869
G1 F2400 E74.61204
G1 F1800 X190.998 Y97.491 E74.63236
G1 X190.729 Y97.124 E74.64749
G1 X190.489 Y96.548 E74.66824
G1 X190.402 Y95.889 E74.69035
G1 X190.552 Y95.293 E74.71079
G1 X190.843 Y94.759 E74.73102
G1 X191.224 Y94.361 E74.74935
G1 X191.753 Y94.055 E74.76967
G1 X192.182 Y93.937 E74.78447
G1 X192.589 Y93.905 E74.79805
G1 X193.034 Y93.956 E74.81295
G1 X193.612 Y94.18 E74.83357
G1 X194.127 Y94.591 E74.85548
G1 X194.272 Y94.766 E74.86304
G1 X194.512 Y95.202 E74.87959
G1 X194.654 Y95.696 E74.89669
G1 X194.672 Y96.102 E74.91021
G1 X194.614 Y96.56 E74.92556
G1 X194.408 Y97.077 E74.94407
G1 X194.293 Y97.261 E74.95129
G1 X193.893 Y97.699 E74.97102
G1 X193.43 Y97.966 E74.98879
G1 X193.02 Y98.106 E75.0032
G1 X192.49 Y98.173 E75.02097
G1 X191.869 Y98.044 E75.04207
G1 X191.478 Y97.869 E75.05631
G0 F9000 X191.686 Y97.522
;TYPE:WALL-OUTER
G1 F1800 X191.311 Y97.228 E75.07216
G1 X191.077 Y96.926 E75.08487
G1 X190.877 Y96.452 E75.10198
G1 X190.809 Y95.912 E75.12008
G1 X190.922 Y95.463 E75.13548
G1 X191.17 Y94.995 E75.1531
G1 X191.474 Y94.678 E75.16771
G1 X191.933 Y94.42 E75.18522
G1 X192.251 Y94.331 E75.1962
G1 X192.615 Y94.306 E75.20834
G1 X192.962 Y94.357 E75.22
G1 X193.408 Y94.53 E75.23591
G1 X193.904 Y94.926 E75.25702
G1 X194.148 Y95.381 E75.2742
G1 X194.257 Y95.785 E75.28811
G1 X194.272 Y96.102 E75.29867
G1 X194.226 Y96.441 E75.31005
G1 X194.023 Y96.964 E75.32871
G1 X193.639 Y97.385 E75.34766
G1 X193.245 Y97.607 E75.3627
G1 X192.913 Y97.716 E75.37432
G1 X192.483 Y97.764 E75.38871
G1 X192 Y97.666 E75.40511
G1 X191.686 Y97.522 E75.41659
G1 F2400 E74.61659
G0 F9000 X190.989 Y97.611
G0 X191.382 Y98.017
G0 X192.15 Y121.7
G0 X191.552 Y125.405
G1 F2400 E75.41659
G1 F1800 X191.117 Y124.928 E75.43807
G1 X190.889 Y124.513 E75.45382
G1 X190.814 Y123.85 E75.47601
G1 X190.927 Y123.388 E75.49183
G1 X191.171 Y122.937 E75.50888
G1 X191.473 Y122.619 E75.52347
G1 X191.91 Y122.368 E75.54023
G1 X192.27 Y122.269 E75.55265
G1 X192.615 Y122.246 E75.56415
G1 X192.962 Y122.297 E75.57581
G1 X193.408 Y122.47 E75.59172
G1 X193.904 Y122.865 E75.61281
G1 X194.148 Y123.321 E75.63001
G1 X194.257 Y123.725 E75.64393
G1 X194.272 Y124.042 E75.65449
G1 X194.226 Y124.381 E75.66587
G1 X194.052 Y124.813 E75.68136
G1 X193.803 Y125.152 E75.69535
G1 X193.543 Y125.378 E75.7068
G1 X193.248 Y125.547 E75.71811
G1 X192.923 Y125.655 E75.7295
G1 X192.498 Y125.708 E75.74375
G1 X191.983 Y125.599 E75.76126
G1 X191.552 Y125.405 E75.77698
G1 F2400 E74.97698
G0 F9000 X191.43 Y125.677
G0 X192.388 Y125.922
G0 X193.9 Y125.842
G0 X193.898 Y126.999
G0 X196.16 Y127.58
G1 F2400 E75.77698
G1 F1800 X196.16 Y92.42 E76.9464
G1 X23.84 Y92.42 E82.67779
G1 X23.841 Y127.579 E83.84718
G1 X196.16 Y127.58 E89.57854
G1 F2400 E88.77854
G0 F9000 X195.89 Y127.31
G0 X110.638 Y127
G0 X110.497 Y126.214
G0 X109.991 Y125.717
G1 F2400 E89.57854
G1 F1800 X109.433 Y125.599 E89.5975
G1 X109.002 Y125.405 E89.61323
G1 X108.567 Y124.928 E89.6347
G1 X108.339 Y124.513 E89.65045
G1 X108.264 Y123.85 E89.67264
G1 X108.377 Y123.388 E89.68846
G1 X108.621 Y122.937 E89.70551
G1 X108.924 Y122.618 E89.72015
G1 X109.383 Y122.36 E89.73766
G1 X109.701 Y122.271 E89.74864
G1 X110.065 Y122.246 E89.76078
G1 X110.412 Y122.297 E89.77244
G1 X110.858 Y122.472 E89.78838
G1 X111.351 Y122.868 E89.80941
G1 X111.581 Y123.279 E89.82507
G1 X111.7 Y123.68 E89.83899
G1 X111.72 Y124.071 E89.85201
G1 X111.665 Y124.42 E89.86376
G1 X111.485 Y124.875 E89.88003
G1 X111.127 Y125.275 E89.89789
G1 X110.841 Y125.475 E89.90949
G1 X110.495 Y125.62 E89.92197
