;FLAVOR:Marlin
;TIME:16541
;Filament used: 20.7565m
;Layer height: 0.2
;MINX:4.25
;MINY:43.65
;MINZ:0.2
;MAXX:215.75
;MAXY:176.35
;MAXZ:12
;TARGET_MACHINE.NAME:Creality Ender-3 V3 SE
;Generated with Cura_SteamEngine 5.6.0
M140 S60
M105
M190 S60
M104 S210
M105
M109 S210
M82 ;absolute extrusion mode
M220 S100 ;Reset Feedrate
M221 S100 ;Reset Flowrate

G28 ;Home

M420 S1; Enable mesh leveling

G92 E0 ;Reset Extruder
G1 Z2.0 F3000 ;Move Z Axis up
G1 X10.1 Y20 Z0.28 F5000.0 ;Move to start position
M109 S[material_print_temperature_layer_0]
G1 X10.1 Y145.0 Z0.28 F1500.0 E15 ;Draw the first line
G1 X10.4 Y145.0 Z0.28 F5000.0 ;Move to side a little
G1 X10.4 Y20 Z0.28 F1500.0 E30 ;Draw the second line
G92 E0  ;Reset Extruder
G1 E-1.0000 F1800 ;Retract a bit
G1 Z2.0 F3000 ;Move Z Axis up
G1 E0.0000 F1800 

G92 E0
G92 E0
G1 F2400 E-0.8
;LAYER_COUNT:60
;LAYER:0
M107
G0 F9000 X11.862 Y44.198 Z0.2
;TYPE:SKIRT
G1 F2400 E0
G1 F1800 X12.799 Y43.939 E0.03233
G1 X13.766 Y43.761 E0.06504
G1 X14.905 Y43.665 E0.10305
G1 X15.562 Y43.65 E0.12491
G1 X204.054 Y43.65 E6.39418
G1 X204.934 Y43.663 E6.42345
G1 X205.906 Y43.722 E6.45584
G1 X206.869 Y43.868 E6.48824
G1 X207.816 Y44.099 E6.52066
G1 X208.704 Y44.399 E6.55183
G1 X209.596 Y44.789 E6.58421
G1 X210.479 Y45.276 E6.61775
G1 X211.23 Y45.778 E6.6478
G1 X212.045 Y46.436 E6.68264
G1 X212.743 Y47.114 E6.715
G1 X213.379 Y47.851 E6.74738
G1 X213.949 Y48.641 E6.77978
G1 X214.411 Y49.417 E6.80982
G1 X214.865 Y50.359 E6.8446
G1 X215.194 Y51.237 E6.87578
G1 X215.463 Y52.209 E6.90933
G1 X215.64 Y53.175 E6.94199
G1 X215.735 Y54.305 E6.97971
G1 X215.75 Y54.98 E7.00216
G1 X215.749 Y164.75 E10.65313
G1 X215.738 Y165.513 E10.67851
G1 X215.681 Y166.486 E10.71093
G1 X215.536 Y167.449 E10.74332
G1 X215.307 Y168.395 E10.77569
G1 X214.996 Y169.319 E10.80812
G1 X214.604 Y170.21 E10.84049
G1 X214.136 Y171.062 E10.87282
G1 X213.614 Y171.843 E10.90407
G1 X212.981 Y172.628 E10.93761
G1 X212.356 Y173.279 E10.96762
G1 X211.567 Y173.967 E11.00244
G1 X210.807 Y174.517 E11.03364
G1 X209.94 Y175.034 E11.06722
G1 X209.062 Y175.456 E11.09962
G1 X208.151 Y175.798 E11.13198
G1 X207.212 Y176.059 E11.1644
G1 X206.246 Y176.237 E11.19707
G1 X205.095 Y176.335 E11.23549
G1 X204.42 Y176.35 E11.25795
G1 X15.814 Y176.349 E17.53101
G1 X15.081 Y176.338 E17.55539
G1 X14.109 Y176.281 E17.58777
G1 X13.146 Y176.135 E17.62017
G1 X12.2 Y175.906 E17.65254
G1 X11.276 Y175.594 E17.68498
G1 X10.386 Y175.202 E17.71732
G1 X9.563 Y174.751 E17.74854
G1 X8.724 Y174.19 E17.78211
G1 X8.02 Y173.624 E17.81215
G1 X7.267 Y172.899 E17.84692
G1 X6.63 Y172.163 E17.87929
G1 X6.1 Y171.432 E17.90932
G1 X5.564 Y170.535 E17.94408
G1 X5.142 Y169.657 E17.97648
G1 X4.8 Y168.745 E18.00888
G1 X4.54 Y167.807 E18.04125
G1 X4.362 Y166.838 E18.07402
G1 X4.264 Y165.659 E18.11337
G1 X4.25 Y165.008 E18.13502
G1 X4.251 Y55.175 E21.78808
G1 X4.262 Y54.475 E21.81137
G1 X4.32 Y53.502 E21.84379
G1 X4.466 Y52.539 E21.87618
G1 X4.696 Y51.593 E21.90857
G1 X5.009 Y50.67 E21.94098
G1 X5.401 Y49.78 E21.97333
G1 X5.871 Y48.927 E22.00572
G1 X6.414 Y48.119 E22.0381
G1 X6.981 Y47.415 E22.06816
G1 X7.706 Y46.663 E22.10291
G1 X8.442 Y46.026 E22.13528
G1 X9.174 Y45.496 E22.16534
G1 X10.071 Y44.961 E22.20008
G1 X10.949 Y44.54 E22.23246
G1 X11.862 Y44.198 E22.26489
G0 F9000 X11.969 Y44.583
G1 F1800 X12.872 Y44.332 E22.29606
G1 X13.8 Y44.16 E22.32745
G1 X14.939 Y44.064 E22.36547
G1 X15.571 Y44.05 E22.3865
G1 X204.048 Y44.05 E28.65527
G1 X204.91 Y44.062 E28.68394
G1 X205.847 Y44.118 E28.71516
G1 X206.775 Y44.257 E28.74637
G1 X207.688 Y44.478 E28.77761
G1 X208.544 Y44.766 E28.80765
G1 X209.436 Y45.156 E28.84003
G1 X210.257 Y45.609 E28.87122
G1 X211.008 Y46.111 E28.90126
G1 X211.767 Y46.723 E28.93369
G1 X212.441 Y47.376 E28.96491
G1 X213.055 Y48.085 E28.9961
G1 X213.605 Y48.846 E29.02733
G1 X214.067 Y49.622 E29.05737
G1 X214.49 Y50.499 E29.08975
G1 X214.819 Y51.377 E29.12094
G1 X215.07 Y52.282 E29.15218
G1 X215.241 Y53.209 E29.18353
G1 X215.336 Y54.339 E29.22124
G1 X215.35 Y54.98 E29.24257
G1 X215.349 Y164.745 E32.89337
G1 X215.339 Y165.49 E32.91815
G1 X215.285 Y166.427 E32.94937
G1 X215.147 Y167.356 E32.9806
G1 X214.928 Y168.268 E33.0118
G1 X214.63 Y169.158 E33.04302
G1 X214.253 Y170.018 E33.07425
G1 X213.803 Y170.84 E33.10542
G1 X213.281 Y171.621 E33.13666
G1 X212.692 Y172.351 E33.16786
G1 X212.067 Y173.002 E33.19787
G1 X211.332 Y173.643 E33.23031
G1 X210.572 Y174.193 E33.26151
G1 X209.766 Y174.674 E33.29273
G1 X208.921 Y175.082 E33.32394
G1 X208.043 Y175.413 E33.35515
G1 X207.139 Y175.666 E33.38637
G1 X206.212 Y175.838 E33.41773
G1 X205.061 Y175.936 E33.45615
G1 X204.42 Y175.95 E33.47748
G1 X15.82 Y175.949 E39.75034
G1 X15.104 Y175.939 E39.77415
G1 X14.168 Y175.885 E39.80534
G1 X13.239 Y175.746 E39.83658
G1 X12.327 Y175.527 E39.86777
G1 X11.437 Y175.228 E39.899
G1 X10.578 Y174.851 E39.9302
G1 X9.755 Y174.4 E39.96142
G1 X8.975 Y173.878 E39.99263
G1 X8.271 Y173.312 E40.02268
G1 X7.569 Y172.637 E40.05507
G1 X6.954 Y171.928 E40.08629
G1 X6.424 Y171.197 E40.11632
G1 X5.924 Y170.361 E40.14872
G1 X5.516 Y169.516 E40.17993
G1 X5.185 Y168.638 E40.21113
G1 X4.933 Y167.734 E40.24235
G1 X4.761 Y166.805 E40.27377
G1 X4.663 Y165.626 E40.31312
G1 X4.65 Y165.008 E40.33368
G1 X4.651 Y55.181 E43.98654
G1 X4.661 Y54.498 E44.00926
G1 X4.716 Y53.561 E44.04048
G1 X4.855 Y52.633 E44.07169
G1 X5.075 Y51.721 E44.10289
G1 X5.375 Y50.831 E44.13413
G1 X5.752 Y49.972 E44.16533
G1 X6.203 Y49.15 E44.19651
G1 X6.726 Y48.37 E44.22775
G1 X7.293 Y47.666 E44.25781
G1 X7.968 Y46.965 E44.29018
G1 X8.677 Y46.35 E44.3214
G1 X9.409 Y45.82 E44.35146
G1 X10.245 Y45.321 E44.38384
G1 X11.09 Y44.914 E44.41503
G1 X11.969 Y44.583 E44.44627
G0 F9000 X12.946 Y44.725
G1 F1800 X13.834 Y44.559 E44.47632
G1 X14.973 Y44.463 E44.51434
G1 X15.58 Y44.45 E44.53453
G1 X204.043 Y44.45 E50.80284
G1 X204.887 Y44.461 E50.83091
G1 X205.789 Y44.514 E50.86096
G1 X206.682 Y44.646 E50.89099
G1 X207.56 Y44.857 E50.92102
G1 X208.416 Y45.145 E50.95106
G1 X209.243 Y45.507 E50.98108
G1 X210.035 Y45.942 E51.01114
G1 X210.786 Y46.444 E51.04118
G1 X211.489 Y47.011 E51.07122
G1 X212.139 Y47.638 E51.10126
G1 X212.731 Y48.32 E51.1313
G1 X213.261 Y49.051 E51.16133
G1 X213.723 Y49.827 E51.19137
G1 X214.116 Y50.64 E51.2214
G1 X214.434 Y51.485 E51.25143
G1 X214.677 Y52.355 E51.28147
G1 X214.842 Y53.243 E51.31151
G1 X214.937 Y54.373 E51.34923
G1 X214.95 Y54.98 E51.36942
G1 X214.949 Y164.74 E55.02006
G1 X214.94 Y165.467 E55.04424
G1 X214.889 Y166.369 E55.07429
G1 X214.758 Y167.263 E55.10434
G1 X214.549 Y168.141 E55.13436
G1 X214.263 Y168.998 E55.16441
G1 X213.902 Y169.826 E55.19445
G1 X213.47 Y170.618 E55.22446
G1 X212.969 Y171.37 E55.25451
G1 X212.403 Y172.074 E55.28455
G1 X211.778 Y172.725 E55.31457
G1 X211.097 Y173.319 E55.34463
G1 X210.366 Y173.85 E55.37468
G1 X209.592 Y174.314 E55.40469
G1 X208.779 Y174.708 E55.43474
G1 X207.935 Y175.028 E55.46476
G1 X207.065 Y175.273 E55.49482
G1 X206.178 Y175.439 E55.52484
G1 X205.027 Y175.537 E55.56326
G1 X204.42 Y175.55 E55.58345
G1 X15.825 Y175.549 E61.85615
G1 X15.127 Y175.54 E61.87936
G1 X14.226 Y175.489 E61.90938
G1 X13.332 Y175.357 E61.93944
G1 X12.454 Y175.148 E61.96946
G1 X11.597 Y174.861 E61.99951
G1 X10.77 Y174.5 E62.02953
G1 X9.977 Y174.067 E62.05958
G1 X9.226 Y173.566 E62.0896
G1 X8.522 Y173 E62.11965
G1 X7.871 Y172.374 E62.14969
G1 X7.278 Y171.693 E62.17972
G1 X6.748 Y170.962 E62.20975
G1 X6.284 Y170.187 E62.2398
G1 X5.89 Y169.374 E62.26985
G1 X5.57 Y168.53 E62.29987
G1 X5.326 Y167.66 E62.32992
G1 X5.16 Y166.772 E62.35997
G1 X5.063 Y165.617 E62.39852
G1 X5.05 Y165.008 E62.41878
G1 X5.051 Y55.186 E66.07147
G1 X5.06 Y54.521 E66.09359
G1 X5.112 Y53.619 E66.12364
G1 X5.244 Y52.726 E66.15367
G1 X5.454 Y51.848 E66.18369
G1 X5.741 Y50.991 E66.21375
G1 X6.103 Y50.164 E66.24378
G1 X6.536 Y49.372 E66.2738
G1 X7.038 Y48.621 E66.30384
G1 X7.605 Y47.917 E66.33391
G1 X8.231 Y47.267 E66.36392
G1 X8.912 Y46.674 E66.39396
G1 X9.644 Y46.144 E66.42402
G1 X10.419 Y45.681 E66.45404
G1 X11.232 Y45.288 E66.48408
G1 X12.077 Y44.968 E66.51413
G1 X12.946 Y44.725 E66.54414
G1 F2400 E65.74414
;MESH:drill-hole-template-v1.stl
G0 F9000 X45.577 Y71.118
G0 X48.29 Y73.919
;TYPE:WALL-INNER
G1 F2400 E66.54414
G1 F1800 X47.687 Y74.009 E66.56442
G1 X47.158 Y73.912 E66.58231
G1 X46.747 Y73.746 E66.59705
G1 X46.349 Y73.473 E66.6131
G1 X45.984 Y73.088 E66.63075
G1 X45.751 Y72.609 E66.64846
G1 X45.637 Y72.104 E66.66568
G1 X45.644 Y71.649 E66.68082
G1 X45.75 Y71.175 E66.69697
G1 X45.981 Y70.699 E66.71457
G1 X46.36 Y70.297 E66.73295
G1 X46.763 Y70.024 E66.74914
G1 X47.167 Y69.866 E66.76356
G1 X47.677 Y69.784 E66.78074
G1 X48.199 Y69.843 E66.79822
G1 X48.677 Y70.01 E66.81506
G1 X49.096 Y70.294 E66.83189
G1 X49.478 Y70.696 E66.85034
G1 X49.706 Y71.175 E66.86798
G1 X49.819 Y71.664 E66.88467
G1 X49.823 Y72.105 E66.89934
G1 X49.711 Y72.603 E66.91632
G1 X49.483 Y73.072 E66.93367
G1 X49.136 Y73.452 E66.95078
G1 X48.679 Y73.765 E66.9692
G1 X48.29 Y73.919 E66.98312
G1 F2400 E66.18312
G0 F9000 X47.798 Y74.095
G0 X47.671 Y97.544
G0 X48.693 Y101.698
G1 F2400 E66.98312
G1 F1800 X48.309 Y101.849 E66.99684
G1 X47.696 Y101.949 E67.0175
G1 X47.173 Y101.856 E67.03517
G1 X46.793 Y101.71 E67.04871
G1 X46.343 Y101.413 E67.06664
G1 X45.978 Y101.016 E67.08458
G1 X45.75 Y100.543 E67.10204
G1 X45.639 Y100.039 E67.11921
G1 X45.637 Y99.617 E67.13324
G1 X45.751 Y99.109 E67.15056
G1 X45.977 Y98.646 E67.1677
G1 X46.332 Y98.261 E67.18511
G1 X46.742 Y97.976 E67.20172
G1 X47.158 Y97.808 E67.21664
G1 X47.679 Y97.726 E67.23419
G1 X48.188 Y97.78 E67.25121
G1 X48.686 Y97.955 E67.26877
G1 X49.116 Y98.246 E67.28603
G1 X49.48 Y98.636 E67.30378
G1 X49.704 Y99.11 E67.32122
G1 X49.823 Y99.61 E67.33831
G1 X49.823 Y100.047 E67.35284
G1 X49.711 Y100.543 E67.36976
G1 X49.478 Y101.024 E67.38753
G1 X49.113 Y101.416 E67.40535
G1 X48.693 Y101.698 E67.42217
G1 F2400 E66.62217
G0 F9000 X48.733 Y101.792
G0 X47.705 Y102.13
G0 X29.681 Y117.41
G0 X28.79 Y119.219
G1 F2400 E67.42217
G1 F1800 X28.378 Y119.495 E67.43867
G1 X27.996 Y119.648 E67.45235
G1 X27.371 Y119.75 E67.47342
G1 X26.833 Y119.653 E67.4916
G1 X26.445 Y119.496 E67.50552
G1 X26.026 Y119.216 E67.52228
G1 X25.659 Y118.818 E67.54029
G1 X25.435 Y118.348 E67.55761
G1 X25.32 Y117.848 E67.57467
G1 X25.316 Y117.416 E67.58904
G1 X25.433 Y116.915 E67.60615
G1 X25.659 Y116.436 E67.62377
G1 X26.025 Y116.05 E67.64146
G1 X26.441 Y115.761 E67.65831
G1 X26.828 Y115.611 E67.67211
G1 X27.357 Y115.526 E67.68993
G1 X27.881 Y115.579 E67.70745
G1 X28.366 Y115.755 E67.72461
G1 X28.791 Y116.047 E67.74176
G1 X29.149 Y116.426 E67.7591
G1 X29.386 Y116.907 E67.77693
G1 X29.501 Y117.426 E67.79461
G1 X29.496 Y117.873 E67.80948
G1 X29.393 Y118.325 E67.8249
G1 X29.155 Y118.829 E67.84344
G1 X28.79 Y119.219 E67.86121
G1 F2400 E67.06121
G0 F9000 X29.129 Y119.003
G0 X28.464 Y119.654
G0 X27.933 Y121.525
G0 X28.789 Y125.336
G1 F2400 E67.86121
G1 F1800 X28.362 Y125.623 E67.87832
G1 X27.97 Y125.779 E67.89235
G1 X27.366 Y125.869 E67.91266
G1 X26.838 Y125.772 E67.93052
G1 X26.452 Y125.624 E67.94427
G1 X26.03 Y125.333 E67.96132
G1 X25.669 Y124.944 E67.97897
G1 X25.435 Y124.468 E67.99661
G1 X25.32 Y123.968 E68.01367
G1 X25.316 Y123.536 E68.02804
G1 X25.433 Y123.035 E68.04515
G1 X25.657 Y122.565 E68.06247
G1 X26.02 Y122.174 E68.08022
G1 X26.442 Y121.885 E68.09723
G1 X26.84 Y121.724 E68.11151
G1 X27.362 Y121.644 E68.12907
G1 X27.895 Y121.702 E68.1469
G1 X28.376 Y121.884 E68.16401
G1 X28.786 Y122.163 E68.1805
G1 X29.168 Y122.574 E68.19917
G1 X29.389 Y123.035 E68.21617
G1 F1782.2 X29.511 Y123.548 E68.23388
G1 F1743.3 X29.511 Y123.951 E68.24772
G1 F1739.1 X29.388 Y124.471 E68.26612
G1 F1782.2 X29.169 Y124.926 E68.28308
G1 F1800 X28.789 Y125.336 E68.30167
G0 F9000 X29.719 Y123.569
G0 X30.316 Y125.228
G0 X31.507 Y125.619
G0 X31.995 Y125.705
G0 X32.553 Y125.621
G0 X33.873 Y124.98
G0 X33.42 Y125.33
G1 F1800 X32.999 Y125.614 E68.31856
G1 X32.591 Y125.779 E68.3332
G1 X31.984 Y125.869 E68.35361
G1 X31.43 Y125.763 E68.37237
G1 X31.082 Y125.625 E68.38482
G1 X30.654 Y125.337 E68.40198
G1 X30.273 Y124.927 E68.4206
G1 F1782.2 X30.051 Y124.471 E68.43763
G1 F1739.1 X29.929 Y123.952 E68.45599
G1 F1743.3 X29.929 Y123.546 E68.46993
G1 F1782.2 X30.048 Y123.036 E68.48752
G1 F1800 X30.271 Y122.575 E68.50455
G1 X30.642 Y122.165 E68.52295
G1 X31.071 Y121.877 E68.54013
G1 X31.456 Y121.729 E68.55385
G1 X31.962 Y121.65 E68.57088
G1 X32.509 Y121.701 E68.58916
G1 X32.994 Y121.879 E68.60634
G1 X33.415 Y122.166 E68.62329
G1 X33.77 Y122.547 E68.64061
G1 X34.008 Y123.03 E68.65851
G1 X34.123 Y123.535 E68.67574
G1 X34.119 Y123.973 E68.69031
G1 X34.009 Y124.459 E68.70688
G1 X33.782 Y124.94 E68.72457
G1 X33.42 Y125.33 E68.74227
G1 F2400 E67.94227
G0 F9000 X33.873 Y124.98
G0 X33.539 Y125.461
G0 X32.553 Y137.224
G0 X33.42 Y141.026
G1 F2400 E68.74227
G1 F1800 X32.996 Y141.32 E68.75943
G1 X32.586 Y141.479 E68.77406
G1 X32.002 Y141.568 E68.79371
G1 X31.455 Y141.471 E68.81218
G1 X31.072 Y141.323 E68.82584
G1 X30.647 Y141.038 E68.84286
G1 X30.272 Y140.626 E68.86139
G1 F1782.2 X30.051 Y140.171 E68.87838
G1 F1739.1 X29.929 Y139.652 E68.89673
G1 F1743.3 X29.929 Y139.246 E68.91068
G1 F1782.2 X30.048 Y138.737 E68.92824
G1 F1800 X30.271 Y138.274 E68.94533
G1 X30.652 Y137.864 E68.96395
G1 X31.077 Y137.577 E68.981
G1 X31.452 Y137.43 E68.9944
G1 X31.973 Y137.344 E69.01196
G1 X32.512 Y137.401 E69.02999
G1 X32.996 Y137.585 E69.04721
G1 X33.391 Y137.85 E69.06303
G1 X33.774 Y138.25 E69.08145
G1 X34.01 Y138.748 E69.09978
G1 X34.117 Y139.213 E69.11565
G1 X34.122 Y139.639 E69.12982
G1 X34.013 Y140.157 E69.14743
G1 X33.78 Y140.641 E69.16529
G1 X33.42 Y141.026 E69.18282
G0 F9000 X33.481 Y141.112
G0 X31.995 Y141.405
G0 X30.442 Y141.062
G0 X29.719 Y139.269
G0 X28.789 Y141.036
G1 F1800 X28.378 Y141.315 E69.19935
G1 X27.996 Y141.468 E69.21303
G1 X27.371 Y141.57 E69.23409
G1 X26.833 Y141.473 E69.25228
G1 X26.445 Y141.316 E69.2662
G1 X26.026 Y141.036 E69.28296
G1 X25.659 Y140.638 E69.30097
G1 X25.435 Y140.168 E69.31828
G1 X25.32 Y139.668 E69.33535
G1 X25.316 Y139.236 E69.34972
G1 X25.433 Y138.735 E69.36683
G1 X25.659 Y138.256 E69.38444
G1 X26.025 Y137.87 E69.40214
G1 X26.446 Y137.579 E69.41916
G1 X26.838 Y137.428 E69.43313
G1 X27.356 Y137.344 E69.45058
G1 X27.883 Y137.403 E69.46822
G1 X28.36 Y137.576 E69.4851
G1 X28.786 Y137.863 E69.50218
G1 X29.168 Y138.274 E69.52084
G1 X29.389 Y138.735 E69.53785
G1 F1782.2 X29.511 Y139.248 E69.55556
G1 F1743.3 X29.511 Y139.651 E69.5694
G1 F1739.1 X29.388 Y140.171 E69.5878
G1 F1782.2 X29.169 Y140.626 E69.60476
G1 F1800 X28.789 Y141.036 E69.62335
G1 F2400 E68.82335
G0 F9000 X28.012 Y141.655
G0 X27.933 Y143.345
G0 X29.161 Y146.76
G1 F2400 E69.62335
G1 F1800 X28.78 Y147.163 E69.6418
G1 X28.357 Y147.446 E69.65872
G1 X27.965 Y147.6 E69.67273
G1 X27.372 Y147.688 E69.69267
G1 X26.847 Y147.594 E69.71041
G1 X26.452 Y147.439 E69.72452
G1 X26.03 Y147.153 E69.74148
G1 X25.669 Y146.764 E69.75913
G1 X25.435 Y146.288 E69.77677
G1 X25.32 Y145.788 E69.79384
G1 X25.316 Y145.356 E69.80821
G1 X25.433 Y144.855 E69.82532
G1 X25.657 Y144.385 E69.84263
G1 X26.02 Y143.994 E69.86038
G1 X26.442 Y143.705 E69.87739
G1 X26.84 Y143.544 E69.89167
G1 X27.362 Y143.464 E69.90924
G1 X27.895 Y143.522 E69.92707
G1 X28.376 Y143.704 E69.94417
G1 X28.79 Y143.981 E69.96074
G1 X29.16 Y144.384 E69.97894
G1 X29.388 Y144.853 E69.99628
G1 X29.504 Y145.358 E70.01351
G1 X29.502 Y145.758 E70.02682
G1 X29.393 Y146.278 E70.04449
G1 X29.161 Y146.76 E70.06228
G1 F2400 E69.26228
G0 F9000 X29.252 Y146.803
G0 X29.685 Y145.337
G0 X80.708 Y102.129
G0 X81.315 Y101.858
G1 F2400 E70.06228
G1 F1800 X80.715 Y101.948 E70.08246
G1 X80.194 Y101.856 E70.10006
G1 X79.788 Y101.698 E70.11455
G1 X79.364 Y101.409 E70.13161
G1 X79.012 Y101.029 E70.14884
G1 X78.775 Y100.558 E70.16638
G1 X78.657 Y100.052 E70.18366
G1 X78.657 Y99.614 E70.19823
G1 X78.767 Y99.134 E70.21461
G1 X78.991 Y98.654 E70.23223
G1 X79.344 Y98.268 E70.24962
G1 X79.762 Y97.976 E70.26658
G1 X80.178 Y97.808 E70.2815
G1 X80.699 Y97.726 E70.29905
G1 X81.208 Y97.78 E70.31607
G1 X81.706 Y97.955 E70.33363
G1 X82.136 Y98.246 E70.3509
G1 X82.5 Y98.636 E70.36864
G1 X82.724 Y99.11 E70.38608
G1 X82.843 Y99.61 E70.40317
