;FLAVOR:Marlin
;TIME:16023
;Filament used: 27.3808m
;Layer height: 0.28
;MINX:4.29
;MINY:38.58
;MINZ:0.28
;MAXX:215.71
;MAXY:181.42
;MAXZ:12.04
;TARGET_MACHINE.NAME:Creality Ender-3 V3 SE
;Generated with Cura_SteamEngine 5.6.0
M140 S60
M105
M190 S60
M104 S210
M105
M109 S210
M82 ;absolute extrusion mode
M220 S100 ;Reset Feedrate
M221 S100 ;Reset Flowrate

G28 ;Home

M420 S1; Enable mesh leveling

G92 E0 ;Reset Extruder
G1 Z2.0 F3000 ;Move Z Axis up
G1 X10.1 Y20 Z0.28 F5000.0 ;Move to start position
M109 S[material_print_temperature_layer_0]
G1 X10.1 Y145.0 Z0.28 F1500.0 E15 ;Draw the first line
G1 X10.4 Y145.0 Z0.28 F5000.0 ;Move to side a little
G1 X10.4 Y20 Z0.28 F1500.0 E30 ;Draw the second line
G92 E0  ;Reset Extruder
G1 E-1.0000 F1800 ;Retract a bit
G1 Z2.0 F3000 ;Move Z Axis up
G1 E0.0000 F1800 

G92 E0
G92 E0
G1 F2400 E-0.8
;LAYER_COUNT:43
;LAYER:0
M107
G0 F9000 X11.902 Y39.128 Z0.28
;TYPE:SKIRT
G1 F2400 E0
G1 F1800 X12.839 Y38.869 E0.04527
G1 X13.806 Y38.691 E0.09105
G1 X14.945 Y38.595 E0.14428
G1 X15.602 Y38.58 E0.17488
G1 X204.014 Y38.58 E8.94813
G1 X204.894 Y38.593 E8.98911
G1 X205.866 Y38.652 E9.03445
G1 X206.829 Y38.798 E9.07981
G1 X207.776 Y39.029 E9.1252
G1 X208.664 Y39.329 E9.16884
G1 X209.556 Y39.719 E9.21417
G1 X210.439 Y40.206 E9.26113
G1 X211.19 Y40.708 E9.30319
G1 X212.005 Y41.366 E9.35196
G1 X212.703 Y42.044 E9.39728
G1 X213.339 Y42.781 E9.4426
G1 X213.909 Y43.571 E9.48797
G1 X214.371 Y44.347 E9.53002
G1 X214.825 Y45.289 E9.57871
G1 X215.154 Y46.167 E9.62237
G1 X215.423 Y47.139 E9.66933
G1 X215.6 Y48.105 E9.71506
G1 X215.695 Y49.235 E9.76787
G1 X215.71 Y49.91 E9.7993
G1 X215.709 Y169.82 E15.38282
G1 X215.698 Y170.583 E15.41835
G1 X215.641 Y171.556 E15.46373
G1 X215.496 Y172.519 E15.50908
G1 X215.267 Y173.465 E15.5544
G1 X214.956 Y174.389 E15.5998
G1 X214.564 Y175.28 E15.64512
G1 X214.096 Y176.132 E15.69039
G1 X213.574 Y176.913 E15.73413
G1 X212.941 Y177.698 E15.78109
G1 X212.316 Y178.349 E15.82311
G1 X211.527 Y179.037 E15.87185
G1 X210.767 Y179.587 E15.91554
G1 X209.9 Y180.104 E15.96254
G1 X209.022 Y180.526 E16.0079
G1 X208.111 Y180.868 E16.05321
G1 X207.172 Y181.129 E16.09859
G1 X206.206 Y181.307 E16.14433
G1 X205.055 Y181.405 E16.19812
G1 X204.38 Y181.42 E16.22956
G1 X15.854 Y181.419 E25.00812
G1 X15.121 Y181.408 E25.04226
G1 X14.149 Y181.351 E25.08759
G1 X13.186 Y181.205 E25.13295
G1 X12.24 Y180.976 E25.17827
G1 X11.316 Y180.664 E25.22368
G1 X10.426 Y180.272 E25.26897
G1 X9.603 Y179.821 E25.31266
G1 X8.764 Y179.26 E25.35966
G1 X8.06 Y178.694 E25.40172
G1 X7.307 Y177.969 E25.4504
G1 X6.67 Y177.233 E25.49572
G1 X6.14 Y176.502 E25.53776
G1 X5.604 Y175.605 E25.58642
G1 X5.182 Y174.727 E25.63178
G1 X4.84 Y173.815 E25.67714
G1 X4.58 Y172.877 E25.72246
G1 X4.402 Y171.908 E25.76834
G1 X4.304 Y170.729 E25.82342
G1 X4.29 Y170.078 E25.85374
G1 X4.291 Y50.105 E31.44019
G1 X4.302 Y49.405 E31.47279
G1 X4.36 Y48.432 E31.51818
G1 X4.506 Y47.469 E31.56353
G1 X4.736 Y46.523 E31.60886
G1 X5.049 Y45.6 E31.65425
G1 X5.441 Y44.71 E31.69953
G1 X5.911 Y43.857 E31.74488
G1 X6.454 Y43.049 E31.79021
G1 X7.021 Y42.345 E31.8323
G1 X7.746 Y41.593 E31.88094
G1 X8.482 Y40.956 E31.92626
G1 X9.214 Y40.426 E31.96835
G1 X10.111 Y39.891 E32.01698
G1 X10.989 Y39.47 E32.06232
G1 X11.902 Y39.128 E32.10772
G0 F9000 X12.009 Y39.513
G1 F1800 X12.912 Y39.262 E32.15136
G1 X13.84 Y39.09 E32.19531
G1 X14.979 Y38.994 E32.24853
G1 X15.611 Y38.98 E32.27797
G1 X204.008 Y38.98 E41.05052
G1 X204.87 Y38.992 E41.09066
G1 X205.807 Y39.048 E41.13437
G1 X206.735 Y39.187 E41.17806
G1 X207.648 Y39.408 E41.22181
G1 X208.504 Y39.696 E41.26386
G1 X209.396 Y40.086 E41.30919
G1 X210.217 Y40.539 E41.35285
G1 X210.968 Y41.041 E41.39492
G1 X211.727 Y41.653 E41.44032
G1 X212.401 Y42.306 E41.48402
G1 X213.015 Y43.015 E41.52769
G1 X213.565 Y43.776 E41.57141
G1 X214.027 Y44.552 E41.61346
G1 X214.45 Y45.429 E41.6588
G1 X214.779 Y46.307 E41.70246
G1 X215.03 Y47.212 E41.74619
G1 X215.201 Y48.139 E41.79009
G1 X215.296 Y49.269 E41.84289
G1 X215.31 Y49.91 E41.87274
G1 X215.309 Y169.815 E47.45602
G1 X215.299 Y170.56 E47.49072
G1 X215.245 Y171.497 E47.53442
G1 X215.107 Y172.426 E47.57815
G1 X214.888 Y173.338 E47.62183
G1 X214.59 Y174.228 E47.66553
G1 X214.213 Y175.088 E47.70925
G1 X213.763 Y175.91 E47.75289
G1 X213.241 Y176.691 E47.79663
G1 X212.652 Y177.421 E47.84031
G1 X212.027 Y178.072 E47.88233
G1 X211.292 Y178.713 E47.92774
G1 X210.532 Y179.263 E47.97142
G1 X209.726 Y179.744 E48.01513
G1 X208.881 Y180.152 E48.05882
G1 X208.003 Y180.483 E48.10252
G1 X207.099 Y180.736 E48.14623
G1 X206.172 Y180.908 E48.19013
G1 X205.021 Y181.006 E48.24392
G1 X204.38 Y181.02 E48.27377
G1 X15.86 Y181.019 E57.05205
G1 X15.144 Y181.009 E57.0854
G1 X14.208 Y180.955 E57.12905
G1 X13.279 Y180.816 E57.17279
G1 X12.367 Y180.597 E57.21647
G1 X11.477 Y180.298 E57.26019
G1 X10.618 Y179.921 E57.30387
G1 X9.795 Y179.47 E57.34757
G1 X9.015 Y178.948 E57.39127
G1 X8.311 Y178.382 E57.43333
G1 X7.609 Y177.707 E57.47868
G1 X6.994 Y176.998 E57.52238
G1 X6.464 Y176.267 E57.56443
G1 X5.964 Y175.431 E57.60978
G1 X5.556 Y174.586 E57.65348
G1 X5.225 Y173.708 E57.69717
G1 X4.973 Y172.804 E57.74087
G1 X4.801 Y171.875 E57.78486
G1 X4.703 Y170.696 E57.83995
G1 X4.69 Y170.078 E57.86873
G1 X4.691 Y50.111 E63.4549
G1 X4.701 Y49.428 E63.48671
G1 X4.756 Y48.491 E63.53041
G1 X4.895 Y47.563 E63.57411
G1 X5.115 Y46.651 E63.61779
G1 X5.415 Y45.761 E63.66152
G1 X5.792 Y44.902 E63.7052
G1 X6.243 Y44.08 E63.74886
G1 X6.766 Y43.3 E63.79259
G1 X7.333 Y42.596 E63.83468
G1 X8.008 Y41.895 E63.88
G1 X8.717 Y41.28 E63.9237
G1 X9.449 Y40.75 E63.96578
G1 X10.285 Y40.251 E64.01112
G1 X11.13 Y39.844 E64.05479
G1 X12.009 Y39.513 E64.09853
G0 F9000 X12.117 Y39.898
G1 F1800 X12.986 Y39.655 E64.14054
G1 X13.874 Y39.489 E64.18261
G1 X15.013 Y39.393 E64.23583
G1 X15.62 Y39.38 E64.2641
G1 X204.003 Y39.38 E73.036
G1 X204.847 Y39.391 E73.07531
G1 X205.749 Y39.444 E73.11738
G1 X206.642 Y39.576 E73.15942
G1 X207.52 Y39.787 E73.20146
G1 X208.376 Y40.075 E73.24352
G1 X209.203 Y40.437 E73.28555
G1 X209.995 Y40.872 E73.32763
G1 X210.746 Y41.374 E73.36969
G1 X211.449 Y41.941 E73.41175
G1 X212.099 Y42.568 E73.4538
G1 X212.691 Y43.25 E73.49585
G1 X213.221 Y43.981 E73.5379
G1 X213.683 Y44.757 E73.57995
G1 X214.076 Y45.57 E73.622
G1 X214.394 Y46.415 E73.66404
G1 X214.637 Y47.285 E73.7061
G1 X214.802 Y48.173 E73.74815
G1 X214.897 Y49.303 E73.80096
G1 X214.91 Y49.91 E73.82923
G1 X214.909 Y169.81 E79.41227
G1 X214.9 Y170.537 E79.44613
G1 X214.849 Y171.439 E79.4882
G1 X214.718 Y172.333 E79.53027
G1 X214.509 Y173.211 E79.5723
G1 X214.223 Y174.068 E79.61437
G1 X213.862 Y174.896 E79.65643
G1 X213.43 Y175.688 E79.69843
G1 X212.929 Y176.44 E79.74051
G1 X212.363 Y177.144 E79.78257
G1 X211.738 Y177.795 E79.82459
G1 X211.057 Y178.389 E79.86667
G1 X210.326 Y178.92 E79.90874
G1 X209.552 Y179.384 E79.95076
G1 X208.739 Y179.778 E79.99283
G1 X207.895 Y180.098 E80.03486
G1 X207.025 Y180.343 E80.07695
G1 X206.138 Y180.509 E80.11897
G1 X204.987 Y180.607 E80.17276
G1 X204.38 Y180.62 E80.20103
G1 X15.865 Y180.619 E88.97908
G1 X15.167 Y180.61 E89.01158
G1 X14.266 Y180.559 E89.0536
G1 X13.372 Y180.427 E89.09568
G1 X12.494 Y180.218 E89.13771
G1 X11.637 Y179.931 E89.17979
G1 X10.81 Y179.57 E89.22181
G1 X10.017 Y179.137 E89.26388
G1 X9.266 Y178.636 E89.30592
G1 X8.562 Y178.07 E89.34798
G1 X7.911 Y177.444 E89.39003
G1 X7.318 Y176.763 E89.43208
G1 X6.788 Y176.032 E89.47412
G1 X6.324 Y175.257 E89.51619
G1 X5.93 Y174.444 E89.55825
G1 X5.61 Y173.6 E89.60028
G1 X5.366 Y172.73 E89.64236
G1 X5.2 Y171.842 E89.68442
G1 X5.103 Y170.687 E89.73839
G1 X5.09 Y170.078 E89.76676
G1 X5.091 Y50.116 E95.35269
G1 X5.1 Y49.451 E95.38366
G1 X5.152 Y48.549 E95.42573
G1 X5.284 Y47.656 E95.46776
G1 X5.494 Y46.778 E95.5098
G1 X5.781 Y45.921 E95.55188
G1 X6.143 Y45.094 E95.59392
G1 X6.576 Y44.302 E95.63595
G1 X7.078 Y43.551 E95.67801
G1 X7.645 Y42.847 E95.7201
G1 X8.271 Y42.197 E95.76212
G1 X8.952 Y41.604 E95.80417
G1 X9.684 Y41.074 E95.84625
G1 X10.459 Y40.611 E95.88829
G1 X11.272 Y40.218 E95.93034
G1 X12.117 Y39.898 E95.97241
G1 F2400 E95.17241
;MESH:drill-hole-template-v5.stl
G0 F9000 X25.631 Y64.958
G0 X28.023 Y68.658
;TYPE:WALL-INNER
G1 F2400 E95.97241
G1 F1800 X27.321 Y68.894 E96.0069
G1 X26.78 Y68.914 E96.03211
G1 X26.283 Y68.825 E96.05562
G1 X25.656 Y68.507 E96.08835
G1 X25.269 Y68.08 E96.11519
G1 X24.98 Y67.552 E96.14321
G1 X24.857 Y67.039 E96.16778
G1 X24.857 Y66.452 E96.19511
G1 X25.053 Y65.909 E96.22199
G1 X25.328 Y65.458 E96.24659
G1 X25.733 Y65.108 E96.27151
G1 X26.264 Y64.829 E96.29945
G1 X26.909 Y64.712 E96.32997
G1 X27.502 Y64.793 E96.35784
G1 X27.911 Y64.946 E96.37817
G1 X28.316 Y65.224 E96.40105
G1 X28.639 Y65.564 E96.42288
G1 X28.922 Y66.092 E96.45078
G1 X29.043 Y66.597 E96.47496
G1 X29.043 Y67.183 E96.50224
G1 X28.854 Y67.709 E96.52827
G1 X28.57 Y68.182 E96.55396
G1 X28.023 Y68.658 E96.58772
G1 F2400 E95.78772
G0 F9000 X27.253 Y68.996
G0 X26.801 Y69.101
G0 X26.896 Y92.467
G0 X28.03 Y96.596
G1 F2400 E96.58772
G1 F1800 X27.327 Y96.832 E96.62225
G1 X26.78 Y96.854 E96.64775
G1 X26.283 Y96.765 E96.67126
G1 X25.656 Y96.447 E96.70399
G1 X25.269 Y96.02 E96.73083
G1 X24.98 Y95.492 E96.75885
G1 X24.857 Y94.979 E96.78342
G1 X24.857 Y94.392 E96.81075
G1 X25.053 Y93.849 E96.83763
G1 X25.328 Y93.398 E96.86223
G1 X25.733 Y93.048 E96.88715
G1 X26.266 Y92.768 E96.91519
G1 X26.908 Y92.652 E96.94557
G1 X27.517 Y92.733 E96.97418
G1 X27.916 Y92.894 E96.99421
G1 X28.336 Y93.176 E97.01777
G1 X28.637 Y93.5 E97.03836
G1 X28.927 Y94.032 E97.06657
G1 X29.043 Y94.541 E97.09088
G1 X29.037 Y95.144 E97.11896
G1 X28.846 Y95.673 E97.14515
G1 X28.571 Y96.119 E97.16955
G1 X28.03 Y96.596 E97.20313
G1 F2400 E96.40313
G0 F9000 X39.431 Y123.067
G0 X41.235 Y127.074
G1 F2400 E97.20313
G1 F1800 X40.521 Y127.314 E97.23821
G1 X39.986 Y127.334 E97.26314
G1 X39.486 Y127.247 E97.28677
G1 X38.862 Y126.933 E97.3193
G1 X38.47 Y126.501 E97.34646
G1 X38.175 Y125.972 E97.37466
G1 X38.058 Y125.433 E97.40034
G1 X38.062 Y124.861 E97.42698
G1 X38.247 Y124.349 E97.45233
G1 X38.539 Y123.87 E97.47845
G1 X38.932 Y123.523 E97.50286
G1 X39.47 Y123.247 E97.53102
G1 X40.114 Y123.134 E97.56146
G1 X40.71 Y123.211 E97.58945
G1 X41.118 Y123.371 E97.60985
G1 X41.526 Y123.652 E97.63292
G1 X41.836 Y123.979 E97.6539
G1 X42.126 Y124.511 E97.68212
G1 X42.242 Y125.016 E97.70624
G1 X42.243 Y125.604 E97.73362
G1 X42.047 Y126.151 E97.76068
G1 X41.782 Y126.584 E97.78432
G1 X41.235 Y127.074 E97.81852
G1 F2400 E97.01852
G0 F9000 X41.302 Y127.151
G0 X40.547 Y127.494
G0 X29.09 Y146.371
G0 X28.588 Y148.517
G1 F2400 E97.81852
G1 F1800 X28.044 Y149.004 E97.85251
G1 X27.318 Y149.254 E97.88827
G1 X26.789 Y149.275 E97.91292
G1 X26.302 Y149.192 E97.93592
G1 X25.672 Y148.879 E97.96868
G1 X25.269 Y148.44 E97.99643
G1 X24.98 Y147.912 E98.02446
G1 X24.857 Y147.399 E98.04902
G1 X24.857 Y146.812 E98.07635
G1 X25.053 Y146.269 E98.10323
G1 X25.328 Y145.818 E98.12783
G1 X25.733 Y145.468 E98.15276
G1 X26.266 Y145.188 E98.18079
G1 X26.894 Y145.074 E98.21051
G1 X27.499 Y145.152 E98.23892
G1 X27.911 Y145.308 E98.25943
G1 X28.334 Y145.594 E98.28321
G1 X28.637 Y145.923 E98.30403
G1 X28.921 Y146.438 E98.33142
G1 X29.039 Y146.956 E98.35616
G1 X29.045 Y147.538 E98.38326
G1 X28.851 Y148.075 E98.40984
G1 X28.588 Y148.517 E98.43379
G1 F2400 E97.63379
G0 F9000 X28.964 Y148.057
G0 X28.718 Y148.651
G0 X27.562 Y156.977
G0 X28.575 Y160.538
G1 F2400 E98.43379
G1 F1800 X28.02 Y161.02 E98.46802
G1 X27.318 Y161.249 E98.50241
G1 X26.798 Y161.278 E98.52666
G1 X26.307 Y161.193 E98.54986
G1 X25.664 Y160.876 E98.58324
G1 X25.269 Y160.44 E98.61064
G1 X24.98 Y159.912 E98.63866
G1 X24.857 Y159.399 E98.66323
G1 X24.857 Y158.812 E98.69056
G1 X25.053 Y158.269 E98.71744
G1 X25.327 Y157.819 E98.74198
G1 X25.725 Y157.473 E98.76653
G1 X26.273 Y157.184 E98.79538
G1 X26.91 Y157.073 E98.82549
G1 X27.497 Y157.148 E98.85304
G1 X27.916 Y157.314 E98.87403
G1 X28.337 Y157.596 E98.89762
G1 X28.643 Y157.937 E98.91896
G1 X28.923 Y158.444 E98.94593
G1 X29.042 Y158.957 E98.97045
G1 X29.039 Y159.559 E98.99848
G1 X28.845 Y160.087 E99.02467
G1 X28.575 Y160.538 E99.04915
G1 F2400 E98.24915
G0 F9000 X28.644 Y160.611
G0 X29.227 Y159.57
G0 X38.744 Y155.011
G0 X41.777 Y154.536
G1 F2400 E99.04915
G1 F1800 X41.236 Y155.009 E99.08261
G1 X40.545 Y155.247 E99.11664
G1 X40.005 Y155.28 E99.14183
G1 X39.472 Y155.185 E99.16704
G1 X38.857 Y154.867 E99.19928
G1 X38.479 Y154.453 E99.22539
G1 X38.177 Y153.917 E99.25403
G1 X38.056 Y153.4 E99.27876
G1 X38.063 Y152.798 E99.30679
G1 X38.249 Y152.285 E99.3322
G1 X38.513 Y151.84 E99.35629
G1 X38.933 Y151.468 E99.38242
G1 X39.479 Y151.184 E99.41108
G1 X40.101 Y151.071 E99.44051
G1 X40.717 Y151.153 E99.46945
G1 X41.116 Y151.314 E99.48949
G1 X41.523 Y151.589 E99.51236
G1 X41.835 Y151.918 E99.53347
G1 X42.127 Y152.453 E99.56185
G1 X42.242 Y152.955 E99.58583
G1 X42.243 Y153.538 E99.61298
G1 X42.051 Y154.074 E99.63949
G1 X41.777 Y154.536 E99.6645
G1 F2400 E98.8645
G0 F9000 X42.216 Y154.147
G0 X60 Y153.968
G0 X63.236 Y155.009
G1 F2400 E99.6645
G1 F1800 X62.545 Y155.247 E99.69853
G1 X62.004 Y155.28 E99.72377
G1 X61.471 Y155.183 E99.749
G1 X60.859 Y154.869 E99.78103
G1 X60.46 Y154.433 E99.80855
G1 X60.171 Y153.904 E99.83662
G1 X60.058 Y153.4 E99.86067
G1 X60.058 Y152.817 E99.88781
G1 X60.249 Y152.286 E99.91409
G1 X60.535 Y151.813 E99.93983
G1 X60.933 Y151.467 E99.96438
G1 X61.48 Y151.183 E99.99308
G1 X62.1 Y151.072 E100.02241
G1 X62.709 Y151.155 E100.05103
G1 X63.107 Y151.309 E100.0709
G1 X63.548 Y151.611 E100.09579
G1 X63.837 Y151.928 E100.11577
G1 X64.126 Y152.45 E100.14355
G1 X64.239 Y152.956 E100.16769
G1 X64.242 Y153.542 E100.19498
G1 X64.052 Y154.073 E100.22124
G1 X63.776 Y154.533 E100.24622
G1 X63.236 Y155.009 E100.27974
G1 F2400 E99.47974
G0 F9000 X63.902 Y154.523
G0 X64.217 Y154.146
G0 X78.039 Y153.967
G0 X81.276 Y155.009
G1 F2400 E100.27974
G1 F1800 X80.585 Y155.247 E100.31377
G1 X80.044 Y155.28 E100.33901
G1 X79.511 Y155.183 E100.36423
G1 X78.9 Y154.87 E100.3962
G1 X78.501 Y154.435 E100.42368
G1 X78.219 Y153.91 E100.45143
G1 X78.099 Y153.385 E100.47651
G1 X78.1 Y152.806 E100.50347
G1 X78.288 Y152.287 E100.52918
G1 X78.568 Y151.824 E100.55437
G1 X78.97 Y151.465 E100.57947
G1 X79.51 Y151.186 E100.60777
G1 X80.137 Y151.072 E100.63744
G1 X80.752 Y151.151 E100.66632
G1 X81.148 Y151.31 E100.68619
G1 X81.579 Y151.598 E100.71032
G1 X81.876 Y151.921 E100.73076
G1 X82.165 Y152.446 E100.75866
G1 X82.282 Y152.955 E100.78298
G1 X82.283 Y153.55 E100.81069
G1 X82.076 Y154.106 E100.83831
G1 X81.815 Y154.537 E100.86177
G1 X81.276 Y155.009 E100.89513
G1 F2400 E100.09513
G0 F9000 X82.237 Y154.19
G0 X104.796 Y155.019
G0 X106.044 Y155.28
G1 F2400 E100.89513
G1 F1800 X105.511 Y155.183 E100.92036
G1 X104.899 Y154.869 E100.95239
G1 X104.499 Y154.431 E100.98001
G1 X104.218 Y153.907 E101.0077
G1 X104.098 Y153.402 E101.03187
G1 X104.097 Y152.81 E101.05943
G1 X104.307 Y152.247 E101.08741
G1 X104.57 Y151.817 E101.11088
G1 X104.965 Y151.473 E101.13527
G1 X105.521 Y151.183 E101.16447
G1 X106.142 Y151.071 E101.19386
G1 X106.757 Y151.153 E101.22275
G1 X107.156 Y151.314 E101.24278
G1 X107.578 Y151.597 E101.26644
G1 X107.879 Y151.926 E101.2872
G1 X108.166 Y152.451 E101.31507
G1 X108.282 Y152.957 E101.33924
G1 X108.279 Y153.559 E101.36727
G1 X108.094 Y154.069 E101.39253
G1 X107.817 Y154.536 E101.41781
G1 X107.276 Y155.009 E101.45128
G1 X106.585 Y155.247 E101.48531
G1 X106.044 Y155.28 E101.51055
G1 F2400 E100.71055
G0 F9000 X106.514 Y155.355
G0 X107.69 Y154.432
G0 X107.941 Y154.018
G0 X108.122 Y153.516
G0 X108.122 Y152.978
G0 X108.013 Y152.506
G0 X107.743 Y152.013
G0 X107.521 Y151.774
G0 X106.153 Y150.89
G0 X106.01 Y127.515
G0 X106.034 Y127.339
G1 F2400 E101.51055
G1 F1800 X105.521 Y127.247 E101.53481
G1 X104.921 Y126.944 E101.56611
G1 X104.502 Y126.495 E101.59471
G1 X104.214 Y125.969 E101.62263
G1 X104.098 Y125.46 E101.64694
G1 X104.1 Y124.864 E101.67469
G1 X104.308 Y124.306 E101.70242
G1 X104.571 Y123.877 E101.72586
G1 X104.967 Y123.528 E101.75043
G1 X105.513 Y123.245 E101.77907
G1 X106.124 Y123.134 E101.80799
G1 X106.75 Y123.211 E101.83736
G1 X107.156 Y123.37 E101.85766
G1 X107.579 Y123.658 E101.88149
