;FLAVOR:Marlin
;TIME:396
;Filament used: 0.267179m
;Layer height: 0.2
;MINX:77.2
;MINY:89.148
;MINZ:0.2
;MAXX:142.8
;MAXY:130.852
;MAXZ:4.2
;TARGET_MACHINE.NAME:Creality Ender-3 V3 SE
;Generated with Cura_SteamEngine 5.6.0
M140 S60
M105
M190 S60
M104 S210
M105
M109 S210
M82 ;absolute extrusion mode
M220 S100 ;Reset Feedrate
M221 S100 ;Reset Flowrate

G28 ;Home

M420 S1; Enable mesh leveling

G92 E0 ;Reset Extruder
G1 Z2.0 F3000 ;Move Z Axis up
G1 X10.1 Y20 Z0.28 F5000.0 ;Move to start position
M109 S[material_print_temperature_layer_0]
G1 X10.1 Y145.0 Z0.28 F1500.0 E15 ;Draw the first line
G1 X10.4 Y145.0 Z0.28 F5000.0 ;Move to side a little
G1 X10.4 Y20 Z0.28 F1500.0 E30 ;Draw the second line
G92 E0  ;Reset Extruder
G1 E-1.0000 F1800 ;Retract a bit
G1 Z2.0 F3000 ;Move Z Axis up
G1 E0.0000 F1800 

G92 E0
G92 E0
G1 F2400 E-0.8
;LAYER_COUNT:21
;LAYER:0
M107
G0 F9000 X81.421 Y92.023 Z0.2
;TYPE:SKIRT
G1 F2400 E0
G1 F1800 X82.185 Y91.422 E0.03233
G1 X83.05 Y90.854 E0.06675
G1 X83.935 Y90.374 E0.10023
G1 X84.855 Y89.974 E0.1336
G1 X85.129 Y89.87 E0.14335
G1 X85.986 Y89.585 E0.17339
G1 X87.003 Y89.346 E0.20813
G1 X87.897 Y89.217 E0.23818
G1 X88.646 Y89.165 E0.26315
G1 X89.262 Y89.15 E0.28364
G1 X90.62 Y89.148 E0.32881
G1 X91.494 Y89.161 E0.35788
G1 X92.457 Y89.221 E0.38997
G1 X93.168 Y89.319 E0.41385
G1 X96.21 Y89.845 E0.51653
G1 X98.754 Y90.207 E0.60199
G1 X101.209 Y90.483 E0.68416
G1 X103.714 Y90.698 E0.76778
G1 X106.231 Y90.838 E0.85163
G1 X108.765 Y90.909 E0.93594
G1 X111.254 Y90.909 E1.01873
G1 X113.82 Y90.836 E1.10411
G1 X116.281 Y90.696 E1.18609
G1 X118.829 Y90.48 E1.27114
G1 X121.265 Y90.201 E1.35269
G1 X123.818 Y89.837 E1.43847
G1 X126.883 Y89.31 E1.5419
G1 X127.779 Y89.197 E1.57194
G1 X128.4 Y89.161 E1.59263
G1 X128.987 Y89.149 E1.61216
G1 X130.483 Y89.15 E1.66192
G1 X131.182 Y89.162 E1.68517
G1 X132.154 Y89.222 E1.71756
G1 X133.116 Y89.369 E1.74993
G1 X134.063 Y89.6 E1.78235
G1 X134.97 Y89.907 E1.81419
G1 X135.242 Y90.014 E1.82392
G1 X136.097 Y90.393 E1.85502
G1 X136.836 Y90.794 E1.88299
G1 X137.12 Y90.965 E1.89401
G1 X137.933 Y91.503 E1.92644
G1 X138.693 Y92.11 E1.95879
G1 X139.376 Y92.759 E1.99013
G1 X140.123 Y93.619 E2.02801
G1 X140.4 Y93.973 E2.04296
G1 X140.962 Y94.767 E2.07532
G1 X141.454 Y95.61 E2.10778
G1 X141.866 Y96.49 E2.1401
G1 X142.203 Y97.413 E2.17278
G1 X142.498 Y98.553 E2.21195
G1 X142.577 Y98.951 E2.22544
G1 X142.723 Y99.913 E2.2578
G1 X142.785 Y100.876 E2.2899
G1 X142.799 Y101.713 E2.31774
G1 X142.8 Y108.138 E2.53144
G1 X142.782 Y109.37 E2.57242
G1 X142.733 Y110.333 E2.60449
G1 X142.65 Y111.207 E2.63369
G1 X142.554 Y111.944 E2.65841
G1 X142.463 Y112.52 E2.67781
G1 X142.365 Y113.049 E2.6957
G1 X142.248 Y113.598 E2.71437
G1 X142.11 Y114.17 E2.73394
G1 X141.978 Y114.666 E2.75101
G1 X141.668 Y115.681 E2.78631
G1 X141.477 Y116.234 E2.80577
G1 X141.092 Y117.226 E2.84116
G1 X140.89 Y117.697 E2.85821
G1 X140.645 Y118.227 E2.87763
G1 X140.409 Y118.709 E2.89548
G1 X140.152 Y119.202 E2.91397
G1 X139.898 Y119.659 E2.93136
G1 X139.349 Y120.572 E2.96679
G1 X139.054 Y121.027 E2.98483
G1 X138.755 Y121.462 E3.00238
G1 X138.086 Y122.363 E3.03971
G1 X137.719 Y122.818 E3.05915
G1 X137.374 Y123.225 E3.0769
G1 X136.987 Y123.659 E3.09624
G1 X136.268 Y124.408 E3.13077
G1 X135.478 Y125.156 E3.16696
G1 X134.675 Y125.846 E3.20217
G1 X134.261 Y126.176 E3.21978
G1 X133.782 Y126.538 E3.23975
G1 X133.341 Y126.855 E3.25781
G1 X132.869 Y127.175 E3.27678
G1 X132.426 Y127.461 E3.29432
G1 X131.568 Y127.971 E3.32751
G1 X131.068 Y128.247 E3.34651
G1 X130.579 Y128.501 E3.36484
G1 X130.094 Y128.736 E3.38276
G1 X129.6 Y128.961 E3.40082
G1 X128.639 Y129.358 E3.4354
G1 X128.106 Y129.556 E3.45431
G1 X127.541 Y129.75 E3.47418
G1 X126.938 Y129.937 E3.49518
G1 X125.953 Y130.203 E3.52911
G1 X124.954 Y130.425 E3.56315
G1 X124.416 Y130.524 E3.58134
G1 X123.79 Y130.623 E3.60242
G1 X123.12 Y130.706 E3.62488
G1 X122.42 Y130.771 E3.64826
G1 X121.53 Y130.827 E3.67792
G1 X121.084 Y130.841 E3.69276
G1 X120.092 Y130.852 E3.72576
G1 X99.447 Y130.847 E4.41241
G1 X98.077 Y130.8 E4.45801
G1 X97.314 Y130.742 E4.48346
G1 X96.249 Y130.623 E4.5191
G1 X95.475 Y130.506 E4.54514
G1 X94.467 Y130.303 E4.57934
G1 X93.902 Y130.168 E4.59866
G1 X93.384 Y130.03 E4.61649
G1 X92.828 Y129.867 E4.63576
G1 X92.315 Y129.703 E4.65367
G1 X91.789 Y129.519 E4.6722
G1 X90.805 Y129.133 E4.70736
G1 X90.327 Y128.927 E4.72467
G1 X89.785 Y128.678 E4.74451
G1 X88.852 Y128.205 E4.7793
G1 X88.384 Y127.945 E4.79711
G1 X87.878 Y127.649 E4.81661
G1 X87.035 Y127.113 E4.84983
G1 X86.562 Y126.786 E4.86896
G1 X85.692 Y126.139 E4.90502
G1 X85.281 Y125.811 E4.92251
G1 X84.859 Y125.455 E4.94087
G1 X84.403 Y125.049 E4.96118
G1 X84.026 Y124.697 E4.97833
G1 X83.654 Y124.332 E4.99567
G1 X83.291 Y123.955 E5.01307
G1 X82.879 Y123.508 E5.03329
G1 X82.529 Y123.11 E5.05092
G1 X82.167 Y122.677 E5.06969
G1 X81.843 Y122.269 E5.08702
G1 X81.498 Y121.812 E5.10607
G1 X81.192 Y121.383 E5.12359
G1 X80.613 Y120.512 E5.15838
G1 X80.322 Y120.038 E5.17688
G1 X80.062 Y119.59 E5.19411
G1 X79.787 Y119.087 E5.21317
G1 X79.545 Y118.619 E5.2307
G1 X79.315 Y118.143 E5.24828
G1 X78.875 Y117.141 E5.28468
G1 X78.665 Y116.615 E5.30352
G1 X78.469 Y116.085 E5.32231
G1 X78.303 Y115.595 E5.33952
G1 X78.137 Y115.064 E5.35802
G1 X77.867 Y114.076 E5.39209
G1 X77.735 Y113.504 E5.41161
G1 X77.583 Y112.749 E5.43723
G1 X77.434 Y111.863 E5.46711
G1 X77.308 Y110.826 E5.50185
G1 X77.261 Y110.248 E5.52114
G1 X77.211 Y109.139 E5.55807
G1 X77.2 Y108.128 E5.59169
G1 X77.202 Y101.584 E5.80935
G1 X77.215 Y100.875 E5.83293
G1 X77.278 Y99.894 E5.86563
G1 X77.466 Y98.743 E5.90442
G1 X77.556 Y98.339 E5.91818
G1 X77.812 Y97.4 E5.95056
G1 X78.123 Y96.552 E5.9806
G1 X78.713 Y95.334 E6.02561
G1 X79.286 Y94.402 E6.062
G1 X79.867 Y93.621 E6.09438
G1 X80.483 Y92.925 E6.12529
G1 X80.711 Y92.691 E6.13615
G1 X81.421 Y92.023 E6.16858
G0 F9000 X81.669 Y92.337
G1 F1800 X82.405 Y91.756 E6.19977
G1 X83.241 Y91.206 E6.23305
G1 X84.126 Y90.726 E6.26654
G1 X84.997 Y90.348 E6.29812
G1 X85.255 Y90.25 E6.30729
G1 X86.112 Y89.965 E6.33733
G1 X87.06 Y89.742 E6.36972
G1 X87.954 Y89.613 E6.39977
G1 X88.656 Y89.565 E6.42317
G1 X89.263 Y89.55 E6.44337
G1 X90.614 Y89.548 E6.4883
G1 X91.47 Y89.56 E6.51677
G1 X92.402 Y89.617 E6.54783
G1 X93.1 Y89.713 E6.57126
G1 X96.154 Y90.241 E6.67435
G1 X98.698 Y90.603 E6.75981
G1 X101.175 Y90.882 E6.84272
G1 X103.68 Y91.096 E6.92634
G1 X106.22 Y91.238 E7.01095
G1 X108.754 Y91.309 E7.09527
G1 X111.265 Y91.309 E7.17878
G1 X113.831 Y91.236 E7.26416
G1 X116.315 Y91.094 E7.34692
G1 X118.863 Y90.878 E7.43197
G1 X121.321 Y90.597 E7.51425
G1 X123.874 Y90.233 E7.60002
G1 X126.933 Y89.707 E7.70326
G1 X127.829 Y89.594 E7.7333
G1 X128.408 Y89.561 E7.75259
G1 X128.987 Y89.549 E7.77185
G1 X130.477 Y89.55 E7.82141
G1 X131.158 Y89.561 E7.84406
G1 X132.094 Y89.618 E7.87525
G1 X133.022 Y89.758 E7.90646
G1 X133.935 Y89.979 E7.93771
G1 X134.824 Y90.28 E7.96892
G1 X135.08 Y90.38 E7.97806
G1 X135.906 Y90.745 E8.0081
G1 X136.645 Y91.146 E8.03606
G1 X136.9 Y91.299 E8.04596
G1 X137.684 Y91.816 E8.07719
G1 X138.417 Y92.4 E8.10836
G1 X139.1 Y93.049 E8.1397
G1 X139.808 Y93.865 E8.17563
G1 X140.074 Y94.205 E8.18999
G1 X140.617 Y94.969 E8.22116
G1 X141.092 Y95.78 E8.25242
G1 X141.491 Y96.628 E8.28359
G1 X141.816 Y97.513 E8.31495
G1 X142.106 Y98.631 E8.35337
G1 X142.182 Y99.012 E8.36629
G1 X142.324 Y99.939 E8.39748
G1 X142.385 Y100.883 E8.42894
G1 X142.399 Y101.713 E8.45655
G1 X142.4 Y108.132 E8.67005
G1 X142.383 Y109.35 E8.71057
G1 X142.335 Y110.295 E8.74204
G1 X142.253 Y111.156 E8.7708
G1 X142.159 Y111.882 E8.79515
G1 X142.07 Y112.447 E8.81418
G1 X141.974 Y112.966 E8.83173
G1 X141.859 Y113.505 E8.85006
G1 X141.724 Y114.067 E8.86929
G1 X141.595 Y114.549 E8.88588
G1 X141.29 Y115.55 E8.92069
G1 X141.102 Y116.094 E8.93983
G1 X140.926 Y116.565 E8.95655
G1 X140.724 Y117.068 E8.97458
G1 X140.522 Y117.539 E8.99163
G1 X140.286 Y118.051 E9.01038
G1 X140.055 Y118.524 E9.02789
G1 X139.802 Y119.008 E9.04605
G1 X139.555 Y119.453 E9.06298
G1 X139.014 Y120.354 E9.09793
G1 X138.724 Y120.8 E9.11563
G1 X138.425 Y121.235 E9.13318
G1 X137.774 Y122.112 E9.16951
G1 X137.414 Y122.559 E9.1886
G1 X137.075 Y122.959 E9.20604
G1 X136.698 Y123.382 E9.22488
G1 X135.989 Y124.121 E9.25895
G1 X135.636 Y124.464 E9.27532
G1 X135.217 Y124.853 E9.29433
G1 X134.426 Y125.533 E9.32903
G1 X134.019 Y125.857 E9.34633
G1 X133.549 Y126.213 E9.36594
G1 X133.116 Y126.524 E9.38367
G1 X132.652 Y126.839 E9.40232
G1 X132.221 Y127.117 E9.41938
G1 X131.374 Y127.621 E9.45216
G1 X130.884 Y127.892 E9.47079
G1 X130.405 Y128.141 E9.48874
G1 X129.928 Y128.372 E9.50637
G1 X129.447 Y128.591 E9.52395
G1 X128.499 Y128.983 E9.55807
G1 X127.976 Y129.178 E9.57663
G1 X127.422 Y129.368 E9.59611
G1 X126.833 Y129.551 E9.61663
G1 X125.866 Y129.813 E9.64995
G1 X124.882 Y130.032 E9.68348
G1 X124.354 Y130.129 E9.70133
G1 X123.74 Y130.226 E9.72201
G1 X123.083 Y130.308 E9.74403
G1 X122.395 Y130.372 E9.76701
G1 X121.517 Y130.427 E9.79627
G1 X121.08 Y130.441 E9.81081
G1 X120.092 Y130.452 E9.84368
G1 X99.461 Y130.447 E10.52987
G1 X98.107 Y130.401 E10.57493
G1 X97.359 Y130.345 E10.59988
G1 X96.309 Y130.227 E10.63502
G1 X95.535 Y130.11 E10.66105
G1 X94.56 Y129.914 E10.69413
G1 X94.005 Y129.782 E10.71311
G1 X93.496 Y129.646 E10.73063
G1 X92.95 Y129.486 E10.74955
G1 X92.447 Y129.325 E10.76712
G1 X91.921 Y129.141 E10.78565
G1 X90.963 Y128.766 E10.81987
G1 X90.494 Y128.564 E10.83685
G1 X89.966 Y128.321 E10.85619
G1 X89.046 Y127.855 E10.89049
G1 X88.586 Y127.6 E10.90798
G1 X88.093 Y127.311 E10.92699
G1 X87.25 Y126.775 E10.96021
G1 X86.801 Y126.465 E10.97836
G1 X85.942 Y125.827 E11.01395
G1 X85.539 Y125.505 E11.03111
G1 X85.125 Y125.156 E11.04912
G1 X84.676 Y124.756 E11.06912
G1 X84.306 Y124.411 E11.08594
G1 X83.942 Y124.054 E11.1029
G1 X83.585 Y123.684 E11.12
G1 X83.179 Y123.244 E11.13991
G1 X82.836 Y122.854 E11.15719
G1 X82.48 Y122.428 E11.17565
G1 X82.162 Y122.028 E11.19265
G1 X81.823 Y121.579 E11.21136
G1 X81.525 Y121.162 E11.22841
G1 X80.954 Y120.303 E11.26272
G1 X80.668 Y119.837 E11.2809
G1 X80.413 Y119.398 E11.29779
G1 X80.142 Y118.903 E11.31656
G1 X79.905 Y118.445 E11.33371
G1 X79.681 Y117.982 E11.35081
G1 X79.246 Y116.993 E11.38675
G1 X79.04 Y116.477 E11.40523
G1 X78.848 Y115.956 E11.4237
G1 X78.685 Y115.476 E11.44056
G1 X78.523 Y114.958 E11.45861
G1 X78.257 Y113.986 E11.49213
G1 X78.127 Y113.425 E11.51128
G1 X77.977 Y112.683 E11.53646
G1 X77.831 Y111.815 E11.56573
G1 X77.707 Y110.793 E11.59998
G1 X77.661 Y110.23 E11.61876
G1 X77.611 Y109.135 E11.65522
G1 X77.6 Y108.128 E11.68872
G1 X77.602 Y101.591 E11.90614
G1 X77.614 Y100.9 E11.92912
G1 X77.673 Y99.958 E11.96052
G1 X77.861 Y98.807 E11.99931
G1 X77.942 Y98.444 E12.01168
G1 X78.188 Y97.538 E12.0429
G1 X78.499 Y96.69 E12.07294
G1 X79.054 Y95.543 E12.11532
G1 X79.607 Y94.64 E12.15054
G1 X80.166 Y93.886 E12.18176
G1 X80.77 Y93.204 E12.21206
G1 X80.986 Y92.982 E12.22236
G1 X81.669 Y92.337 E12.25361
G0 F9000 X81.917 Y92.651
G1 F1800 X82.625 Y92.09 E12.28365
G1 X83.432 Y91.558 E12.3158
G1 X84.317 Y91.078 E12.34929
G1 X85.14 Y90.722 E12.37911
G1 X85.381 Y90.63 E12.38769
G1 X86.238 Y90.345 E12.41773
G1 X87.117 Y90.138 E12.44776
G1 X88.011 Y90.009 E12.47781
G1 X88.666 Y89.965 E12.49964
G1 X89.264 Y89.95 E12.51954
G1 X90.609 Y89.948 E12.56427
G1 X91.446 Y89.959 E12.59211
G1 X92.348 Y90.013 E12.62217
G1 X93.032 Y90.107 E12.64513
G1 X96.098 Y90.637 E12.74862
G1 X98.642 Y90.999 E12.83409
G1 X101.141 Y91.281 E12.91773
G1 X103.646 Y91.494 E13.00135
G1 X106.209 Y91.638 E13.08673
G1 X108.743 Y91.709 E13.17104
G1 X111.276 Y91.709 E13.25529
G1 X113.842 Y91.636 E13.34067
G1 X116.349 Y91.492 E13.42419
G1 X118.897 Y91.276 E13.50924
G1 X121.377 Y90.993 E13.59226
G1 X123.93 Y90.629 E13.67803
G1 X126.983 Y90.104 E13.78107
G1 X127.879 Y89.991 E13.8111
G1 X128.416 Y89.961 E13.82899
G1 X128.987 Y89.949 E13.84799
G1 X130.471 Y89.95 E13.89735
G1 X131.134 Y89.96 E13.9194
G1 X132.035 Y90.014 E13.94942
G1 X132.929 Y90.147 E13.97948
G1 X133.807 Y90.358 E14.00952
G1 X134.679 Y90.653 E14.04014
G1 X134.918 Y90.746 E14.04866
G1 X135.744 Y91.111 E14.0787
G1 X136.44 Y91.49 E14.10506
G1 X136.68 Y91.633 E14.11435
G1 X137.435 Y92.129 E14.1444
G1 X138.142 Y92.69 E14.17442
G1 X138.798 Y93.311 E14.20446
G1 X139.493 Y94.111 E14.23971
G1 X139.748 Y94.437 E14.25347
G1 X140.272 Y95.172 E14.28349
G1 X140.73 Y95.951 E14.31355
G1 X141.116 Y96.767 E14.34357
G1 X141.429 Y97.614 E14.37361
G1 X141.714 Y98.71 E14.41127
G1 X141.787 Y99.073 E14.42359
G1 X141.925 Y99.965 E14.45361
G1 X141.985 Y100.89 E14.48444
G1 X141.999 Y101.713 E14.51182
G1 X142 Y108.127 E14.72515
G1 X141.984 Y109.33 E14.76516
G1 X141.937 Y110.257 E14.79603
G1 X141.856 Y111.105 E14.82437
G1 X141.764 Y111.82 E14.84834
G1 X141.677 Y112.374 E14.867
G1 X141.583 Y112.882 E14.88418
G1 X141.47 Y113.411 E14.90217
G1 X141.337 Y113.964 E14.92109
G1 X141.211 Y114.437 E14.93737
G1 X141.063 Y114.944 E14.95494
G1 X140.912 Y115.419 E14.97151
G1 X140.727 Y115.954 E14.99034
G1 X140.555 Y116.416 E15.00674
G1 X140.357 Y116.91 E15.02444
G1 X140.158 Y117.372 E15.04117
G1 X139.927 Y117.875 E15.05958
G1 X139.7 Y118.339 E15.07676
G1 X139.452 Y118.814 E15.09458
G1 X139.212 Y119.247 E15.11105
G1 X138.679 Y120.136 E15.14552
G1 X138.395 Y120.573 E15.16286
G1 X138.101 Y121 E15.1801
G1 X137.772 Y121.454 E15.19875
G1 X137.462 Y121.861 E15.21577
G1 X137.109 Y122.3 E15.2345
G1 X136.776 Y122.693 E15.25163
G1 X136.409 Y123.105 E15.26999
G1 X135.71 Y123.834 E15.30358
G1 X135.364 Y124.171 E15.31964
G1 X134.952 Y124.553 E15.33833
G1 X134.576 Y124.885 E15.35501
G1 X134.177 Y125.22 E15.37234
G1 X133.777 Y125.538 E15.38934
G1 X133.315 Y125.888 E15.40861
G1 X132.891 Y126.193 E15.42599
G1 X132.435 Y126.503 E15.44433
G1 X132.016 Y126.773 E15.4609
G1 X131.181 Y127.271 E15.49324
G1 X130.699 Y127.537 E15.51155
G1 X130.23 Y127.781 E15.52913
G1 X129.763 Y128.008 E15.54641
G1 X129.294 Y128.221 E15.56354
G1 X128.359 Y128.608 E15.59719
G1 X127.846 Y128.8 E15.61541
G1 X127.303 Y128.986 E15.6345
G1 X126.728 Y129.165 E15.65453
G1 X125.779 Y129.423 E15.68724
G1 X124.81 Y129.639 E15.72026
G1 X124.292 Y129.734 E15.73778
G1 X123.69 Y129.829 E15.75805
G1 X123.046 Y129.91 E15.77964
G1 X122.37 Y129.973 E15.80222
G1 X121.504 Y130.027 E15.83108
G1 X121.076 Y130.041 E15.84532
G1 X120.092 Y130.052 E15.87805
G1 X99.474 Y130.047 E16.56381
G1 X98.137 Y130.002 E16.6083
G1 X97.404 Y129.947 E16.63275
G1 X96.368 Y129.831 E16.66742
G1 X95.614 Y129.718 E16.69278
G1 X94.653 Y129.525 E16.72538
G1 X94.108 Y129.395 E16.74402
G1 X93.608 Y129.262 E16.76123
G1 X93.072 Y129.105 E16.7798
G1 X92.579 Y128.947 E16.79702
G1 X92.066 Y128.768 E16.81509
G1 X91.121 Y128.399 E16.84883
G1 X90.661 Y128.201 E16.86549
G1 X90.147 Y127.964 E16.88432
G1 X89.24 Y127.505 E16.91813
G1 X88.788 Y127.255 E16.93531
G1 X88.307 Y126.973 E16.95385
G1 X87.477 Y126.446 E16.98655
G1 X87.039 Y126.144 E17.00425
G1 X86.192 Y125.515 E17.03934
G1 X85.797 Y125.199 E17.05616
G1 X85.391 Y124.857 E17.07382
G1 X84.949 Y124.464 E17.09349
G1 X84.586 Y124.125 E17.11001
G1 X84.23 Y123.776 E17.12659
G1 X83.879 Y123.413 E17.14339
G1 X83.479 Y122.98 E17.16299
G1 X83.143 Y122.598 E17.17991
G1 X82.793 Y122.179 E17.19807
G1 X82.481 Y121.787 E17.21473
G1 X82.148 Y121.346 E17.23311
G1 X81.858 Y120.941 E17.24968
G1 X81.295 Y120.094 E17.28351
G1 X81.014 Y119.636 E17.30138
G1 X80.764 Y119.206 E17.31792
G1 X80.497 Y118.719 E17.3364
G1 X80.265 Y118.27 E17.35321
G1 X80.047 Y117.821 E17.36981
G1 X79.617 Y116.845 E17.40528
G1 X79.415 Y116.339 E17.4234
G1 X79.227 Y115.827 E17.44154
G1 X79.067 Y115.357 E17.45805
G1 X78.909 Y114.852 E17.47565
G1 X78.647 Y113.895 E17.50865
G1 X78.519 Y113.345 E17.52744
G1 X78.371 Y112.617 E17.55215
G1 X78.228 Y111.767 E17.58081
G1 X78.106 Y110.76 E17.61455
G1 X78.061 Y110.212 E17.63284
G1 X78.011 Y109.131 E17.66883
G1 X78 Y108.128 E17.70219
G1 X78.002 Y101.598 E17.91938
G1 X78.013 Y100.924 E17.9418
G1 X78.068 Y100.022 E17.97186
G1 X78.256 Y98.871 E18.01065
G1 X78.328 Y98.548 E18.02166
G1 X78.564 Y97.676 E18.0517
G1 X78.875 Y96.828 E18.08174
G1 X79.395 Y95.752 E18.12149
G1 X79.929 Y94.878 E18.15556
G1 X80.466 Y94.151 E18.18562
G1 X81.058 Y93.482 E18.21533
