;FLAVOR:Marlin
;TIME:17701
;Filament used: 22.411m
;Layer height: 0.2
;MINX:4.29
;MINY:38.58
;MINZ:0.2
;MAXX:215.71
;MAXY:181.42
;MAXZ:12
;TARGET_MACHINE.NAME:Creality Ender-3 V3 SE
;Generated with Cura_SteamEngine 5.6.0
M140 S60
M105
M190 S60
M104 S210
M105
M109 S210
M82 ;absolute extrusion mode
M220 S100 ;Reset Feedrate
M221 S100 ;Reset Flowrate

G28 ;Home

M420 S1; Enable mesh leveling

G92 E0 ;Reset Extruder
G1 Z2.0 F3000 ;Move Z Axis up
G1 X10.1 Y20 Z0.28 F5000.0 ;Move to start position
M109 S[material_print_temperature_layer_0]
G1 X10.1 Y145.0 Z0.28 F1500.0 E15 ;Draw the first line
G1 X10.4 Y145.0 Z0.28 F5000.0 ;Move to side a little
G1 X10.4 Y20 Z0.28 F1500.0 E30 ;Draw the second line
G92 E0  ;Reset Extruder
G1 E-1.0000 F1800 ;Retract a bit
G1 Z2.0 F3000 ;Move Z Axis up
G1 E0.0000 F1800 

G92 E0
G92 E0
G1 F2400 E-0.8
;LAYER_COUNT:60
;LAYER:0
M107
G0 F9000 X11.902 Y39.128 Z0.2
;TYPE:SKIRT
G1 F2400 E0
G1 F1800 X12.839 Y38.869 E0.03233
G1 X13.806 Y38.691 E0.06504
G1 X14.945 Y38.595 E0.10305
G1 X15.602 Y38.58 E0.12491
G1 X204.014 Y38.58 E6.39152
G1 X204.894 Y38.593 E6.42079
G1 X205.866 Y38.652 E6.45318
G1 X206.829 Y38.798 E6.48558
G1 X207.776 Y39.029 E6.518
G1 X208.664 Y39.329 E6.54917
G1 X209.556 Y39.719 E6.58155
G1 X210.439 Y40.206 E6.61509
G1 X211.19 Y40.708 E6.64514
G1 X212.005 Y41.366 E6.67997
G1 X212.703 Y42.044 E6.71234
G1 X213.339 Y42.781 E6.74472
G1 X213.909 Y43.571 E6.77712
G1 X214.371 Y44.347 E6.80716
G1 X214.825 Y45.289 E6.84194
G1 X215.154 Y46.167 E6.87312
G1 X215.423 Y47.139 E6.90667
G1 X215.6 Y48.105 E6.93933
G1 X215.695 Y49.235 E6.97705
G1 X215.71 Y49.91 E6.9995
G1 X215.709 Y169.82 E10.98773
G1 X215.698 Y170.583 E11.01311
G1 X215.641 Y171.556 E11.04552
G1 X215.496 Y172.519 E11.07791
G1 X215.267 Y173.465 E11.11029
G1 X214.956 Y174.389 E11.14271
G1 X214.564 Y175.28 E11.17509
G1 X214.096 Y176.132 E11.20742
G1 X213.574 Y176.913 E11.23866
G1 X212.941 Y177.698 E11.2722
G1 X212.316 Y178.349 E11.30222
G1 X211.527 Y179.037 E11.33704
G1 X210.767 Y179.587 E11.36824
G1 X209.9 Y180.104 E11.40182
G1 X209.022 Y180.526 E11.43422
G1 X208.111 Y180.868 E11.46658
G1 X207.172 Y181.129 E11.499
G1 X206.206 Y181.307 E11.53167
G1 X205.055 Y181.405 E11.57009
G1 X204.38 Y181.42 E11.59254
G1 X15.854 Y181.419 E17.86294
G1 X15.121 Y181.408 E17.88733
G1 X14.149 Y181.351 E17.91971
G1 X13.186 Y181.205 E17.95211
G1 X12.24 Y180.976 E17.98448
G1 X11.316 Y180.664 E18.01692
G1 X10.426 Y180.272 E18.04926
G1 X9.603 Y179.821 E18.08047
G1 X8.764 Y179.26 E18.11404
G1 X8.06 Y178.694 E18.14409
G1 X7.307 Y177.969 E18.17885
G1 X6.67 Y177.233 E18.21123
G1 X6.14 Y176.502 E18.24126
G1 X5.604 Y175.605 E18.27601
G1 X5.182 Y174.727 E18.30842
G1 X4.84 Y173.815 E18.34081
G1 X4.58 Y172.877 E18.37319
G1 X4.402 Y171.908 E18.40595
G1 X4.304 Y170.729 E18.4453
G1 X4.29 Y170.078 E18.46696
G1 X4.291 Y50.105 E22.45728
G1 X4.302 Y49.405 E22.48056
G1 X4.36 Y48.432 E22.51298
G1 X4.506 Y47.469 E22.54538
G1 X4.736 Y46.523 E22.57776
G1 X5.049 Y45.6 E22.61018
G1 X5.441 Y44.71 E22.64252
G1 X5.911 Y43.857 E22.67491
G1 X6.454 Y43.049 E22.70729
G1 X7.021 Y42.345 E22.73736
G1 X7.746 Y41.593 E22.7721
G1 X8.482 Y40.956 E22.80447
G1 X9.214 Y40.426 E22.83453
G1 X10.111 Y39.891 E22.86927
G1 X10.989 Y39.47 E22.90166
G1 X11.902 Y39.128 E22.93408
G0 F9000 X12.009 Y39.513
G1 F1800 X12.912 Y39.262 E22.96526
G1 X13.84 Y39.09 E22.99665
G1 X14.979 Y38.994 E23.03466
G1 X15.611 Y38.98 E23.05569
G1 X204.008 Y38.98 E29.3218
G1 X204.87 Y38.992 E29.35047
G1 X205.807 Y39.048 E29.38169
G1 X206.735 Y39.187 E29.4129
G1 X207.648 Y39.408 E29.44415
G1 X208.504 Y39.696 E29.47419
G1 X209.396 Y40.086 E29.50657
G1 X210.217 Y40.539 E29.53775
G1 X210.968 Y41.041 E29.5678
G1 X211.727 Y41.653 E29.60023
G1 X212.401 Y42.306 E29.63144
G1 X213.015 Y43.015 E29.66263
G1 X213.565 Y43.776 E29.69386
G1 X214.027 Y44.552 E29.7239
G1 X214.45 Y45.429 E29.75629
G1 X214.779 Y46.307 E29.78747
G1 X215.03 Y47.212 E29.81871
G1 X215.201 Y48.139 E29.85006
G1 X215.296 Y49.269 E29.88778
G1 X215.31 Y49.91 E29.9091
G1 X215.309 Y169.815 E33.89716
G1 X215.299 Y170.56 E33.92194
G1 X215.245 Y171.497 E33.95316
G1 X215.107 Y172.426 E33.98439
G1 X214.888 Y173.338 E34.01559
G1 X214.59 Y174.228 E34.04681
G1 X214.213 Y175.088 E34.07804
G1 X213.763 Y175.91 E34.10921
G1 X213.241 Y176.691 E34.14045
G1 X212.652 Y177.421 E34.17165
G1 X212.027 Y178.072 E34.20166
G1 X211.292 Y178.713 E34.2341
G1 X210.532 Y179.263 E34.2653
G1 X209.726 Y179.744 E34.29652
G1 X208.881 Y180.152 E34.32773
G1 X208.003 Y180.483 E34.35894
G1 X207.099 Y180.736 E34.39016
G1 X206.172 Y180.908 E34.42152
G1 X205.021 Y181.006 E34.45994
G1 X204.38 Y181.02 E34.48127
G1 X15.86 Y181.019 E40.75147
G1 X15.144 Y181.009 E40.77528
G1 X14.208 Y180.955 E40.80647
G1 X13.279 Y180.816 E40.83771
G1 X12.367 Y180.597 E40.8689
G1 X11.477 Y180.298 E40.90013
G1 X10.618 Y179.921 E40.93133
G1 X9.795 Y179.47 E40.96255
G1 X9.015 Y178.948 E40.99376
G1 X8.311 Y178.382 E41.02381
G1 X7.609 Y177.707 E41.0562
G1 X6.994 Y176.998 E41.08742
G1 X6.464 Y176.267 E41.11745
G1 X5.964 Y175.431 E41.14985
G1 X5.556 Y174.586 E41.18106
G1 X5.225 Y173.708 E41.21226
G1 X4.973 Y172.804 E41.24348
G1 X4.801 Y171.875 E41.2749
G1 X4.703 Y170.696 E41.31425
G1 X4.69 Y170.078 E41.33481
G1 X4.691 Y50.111 E45.32493
G1 X4.701 Y49.428 E45.34765
G1 X4.756 Y48.491 E45.37887
G1 X4.895 Y47.563 E45.41008
G1 X5.115 Y46.651 E45.44128
G1 X5.415 Y45.761 E45.47252
G1 X5.792 Y44.902 E45.50372
G1 X6.243 Y44.08 E45.5349
G1 X6.766 Y43.3 E45.56614
G1 X7.333 Y42.596 E45.5962
G1 X8.008 Y41.895 E45.62857
G1 X8.717 Y41.28 E45.65979
G1 X9.449 Y40.75 E45.68984
G1 X10.285 Y40.251 E45.72223
G1 X11.13 Y39.844 E45.75342
G1 X12.009 Y39.513 E45.78466
G0 F9000 X12.117 Y39.898
G1 F1800 X12.986 Y39.655 E45.81467
G1 X13.874 Y39.489 E45.84472
G1 X15.013 Y39.393 E45.88274
G1 X15.62 Y39.38 E45.90293
G1 X204.003 Y39.38 E52.16857
G1 X204.847 Y39.391 E52.19665
G1 X205.749 Y39.444 E52.2267
G1 X206.642 Y39.576 E52.25673
G1 X207.52 Y39.787 E52.28676
G1 X208.376 Y40.075 E52.3168
G1 X209.203 Y40.437 E52.34682
G1 X209.995 Y40.872 E52.37688
G1 X210.746 Y41.374 E52.40692
G1 X211.449 Y41.941 E52.43696
G1 X212.099 Y42.568 E52.467
G1 X212.691 Y43.25 E52.49704
G1 X213.221 Y43.981 E52.52707
G1 X213.683 Y44.757 E52.55711
G1 X214.076 Y45.57 E52.58714
G1 X214.394 Y46.415 E52.61717
G1 X214.637 Y47.285 E52.64721
G1 X214.802 Y48.173 E52.67725
G1 X214.897 Y49.303 E52.71497
G1 X214.91 Y49.91 E52.73516
G1 X214.909 Y169.81 E56.72305
G1 X214.9 Y170.537 E56.74724
G1 X214.849 Y171.439 E56.77728
G1 X214.718 Y172.333 E56.80734
G1 X214.509 Y173.211 E56.83735
G1 X214.223 Y174.068 E56.8674
G1 X213.862 Y174.896 E56.89745
G1 X213.43 Y175.688 E56.92745
G1 X212.929 Y176.44 E56.95751
G1 X212.363 Y177.144 E56.98755
G1 X211.738 Y177.795 E57.01757
G1 X211.057 Y178.389 E57.04762
G1 X210.326 Y178.92 E57.07767
G1 X209.552 Y179.384 E57.10769
G1 X208.739 Y179.778 E57.13774
G1 X207.895 Y180.098 E57.16776
G1 X207.025 Y180.343 E57.19782
G1 X206.138 Y180.509 E57.22783
G1 X204.987 Y180.607 E57.26625
G1 X204.38 Y180.62 E57.28645
G1 X15.865 Y180.619 E63.55648
G1 X15.167 Y180.61 E63.5797
G1 X14.266 Y180.559 E63.60972
G1 X13.372 Y180.427 E63.63977
G1 X12.494 Y180.218 E63.66979
G1 X11.637 Y179.931 E63.69985
G1 X10.81 Y179.57 E63.72986
G1 X10.017 Y179.137 E63.75991
G1 X9.266 Y178.636 E63.78994
G1 X8.562 Y178.07 E63.81998
G1 X7.911 Y177.444 E63.85002
G1 X7.318 Y176.763 E63.88006
G1 X6.788 Y176.032 E63.91009
G1 X6.324 Y175.257 E63.94013
G1 X5.93 Y174.444 E63.97018
G1 X5.61 Y173.6 E64.0002
G1 X5.366 Y172.73 E64.03026
G1 X5.2 Y171.842 E64.0603
G1 X5.103 Y170.687 E64.09885
G1 X5.09 Y170.078 E64.11911
G1 X5.091 Y50.116 E68.10906
G1 X5.1 Y49.451 E68.13118
G1 X5.152 Y48.549 E68.16124
G1 X5.284 Y47.656 E68.19126
G1 X5.494 Y46.778 E68.22129
G1 X5.781 Y45.921 E68.25135
G1 X6.143 Y45.094 E68.28137
G1 X6.576 Y44.302 E68.31139
G1 X7.078 Y43.551 E68.34144
G1 X7.645 Y42.847 E68.3715
G1 X8.271 Y42.197 E68.40152
G1 X8.952 Y41.604 E68.43155
G1 X9.684 Y41.074 E68.46161
G1 X10.459 Y40.611 E68.49164
G1 X11.272 Y40.218 E68.52167
G1 X12.117 Y39.898 E68.55172
G1 F2400 E67.75172
;MESH:drill-hole-template-v2.stl
G0 F9000 X26.393 Y64.798
G0 X28.438 Y68.674
;TYPE:WALL-INNER
G1 F2400 E68.55172
G1 F1800 X28.022 Y68.842 E68.56664
G1 X27.501 Y68.924 E68.58419
G1 X26.97 Y68.869 E68.60194
G1 X26.497 Y68.692 E68.61874
G1 X26.069 Y68.403 E68.63592
G1 X25.701 Y68.016 E68.65368
G1 X25.475 Y67.538 E68.67126
G1 X25.365 Y67.072 E68.68719
G1 X25.356 Y66.607 E68.70266
G1 X25.472 Y66.109 E68.71967
G1 X25.7 Y65.626 E68.73743
G1 X26.065 Y65.24 E68.7551
G1 X26.479 Y64.957 E68.77178
G1 X26.886 Y64.796 E68.78634
G1 X27.471 Y64.701 E68.80605
G1 X28.021 Y64.798 E68.82462
G1 X28.411 Y64.952 E68.83857
G1 X28.815 Y65.224 E68.85477
G1 X29.198 Y65.626 E68.87324
G1 X29.43 Y66.106 E68.89097
G1 X29.543 Y66.604 E68.90795
G1 X29.538 Y67.048 E68.92272
G1 X29.423 Y67.547 E68.93975
G1 X29.192 Y68.021 E68.95729
G1 X28.856 Y68.382 E68.97369
G1 X28.438 Y68.674 E68.99065
G1 F2400 E68.19065
G0 F9000 X27.508 Y69.106
G0 X27.483 Y92.459
G0 X28.836 Y96.345
G1 F2400 E68.99065
G1 F1800 X28.405 Y96.632 E69.00787
G1 X28.025 Y96.781 E69.02145
G1 X27.506 Y96.864 E69.03893
G1 X26.97 Y96.809 E69.05685
G1 X26.497 Y96.632 E69.07365
G1 X26.069 Y96.343 E69.09083
G1 X25.701 Y95.956 E69.10859
G1 X25.475 Y95.478 E69.12617
G1 X25.365 Y95.012 E69.1421
G1 X25.356 Y94.547 E69.15757
G1 X25.472 Y94.049 E69.17458
G1 X25.7 Y93.566 E69.19234
G1 X26.065 Y93.18 E69.21001
G1 X26.486 Y92.893 E69.22696
G1 X26.878 Y92.735 E69.24101
G1 X27.502 Y92.643 E69.26199
G1 X28.022 Y92.738 E69.27957
G1 X28.433 Y92.904 E69.29432
G1 X28.837 Y93.177 E69.31053
G1 X29.192 Y93.561 E69.32793
G1 X29.429 Y94.041 E69.34573
G1 X29.545 Y94.549 E69.36306
G1 X29.541 Y94.962 E69.3768
G1 X29.43 Y95.466 E69.39397
G1 X29.204 Y95.947 E69.41164
G1 X28.836 Y96.345 E69.42967
G1 F2400 E68.62967
G0 F9000 X28.91 Y96.413
G0 X28.499 Y96.787
G0 X39.101 Y123.213
G0 X41.539 Y126.822
G1 F2400 E69.42967
G1 F1800 X41.138 Y127.094 E69.44579
G1 X40.722 Y127.262 E69.46071
G1 X40.202 Y127.344 E69.47822
G1 X39.676 Y127.289 E69.49581
G1 X39.186 Y127.113 E69.51312
G1 X38.75 Y126.806 E69.53086
G1 X38.403 Y126.437 E69.54771
G1 X38.168 Y125.936 E69.56611
G1 X38.058 Y125.434 E69.58321
G1 X38.058 Y125.048 E69.59604
G1 X38.172 Y124.52 E69.61401
G1 X38.401 Y124.048 E69.63146
G1 X38.768 Y123.652 E69.64942
G1 X39.195 Y123.368 E69.66647
G1 X39.575 Y123.219 E69.68005
G1 X40.174 Y123.121 E69.70024
G1 X40.722 Y123.215 E69.71873
G1 X41.106 Y123.369 E69.73249
G1 X41.536 Y123.661 E69.74978
G1 X41.892 Y124.038 E69.76702
G1 X42.13 Y124.524 E69.78502
G1 X42.243 Y125.02 E69.80194
G1 X42.243 Y125.455 E69.81641
G1 X42.13 Y125.958 E69.83356
G1 X41.906 Y126.419 E69.8506
G1 X41.539 Y126.822 E69.86873
G1 F2400 E69.06873
G0 F9000 X41.167 Y127.198
G0 X39.648 Y127.469
G0 X29.352 Y147.891
G0 X29.201 Y150.369
G1 F2400 E69.86873
G1 F1800 X28.84 Y150.756 E69.88634
G1 X28.418 Y151.045 E69.90335
G1 X28.022 Y151.202 E69.91752
G1 X27.502 Y151.286 E69.93503
G1 X26.958 Y151.222 E69.95325
G1 X26.487 Y151.053 E69.9699
G1 X26.063 Y150.758 E69.98708
G1 X25.712 Y150.387 E70.00406
G1 X25.475 Y149.898 E70.02214
G1 X25.365 Y149.432 E70.03806
G1 X25.356 Y148.967 E70.05353
G1 X25.472 Y148.469 E70.07054
G1 X25.7 Y147.986 E70.0883
G1 X26.065 Y147.6 E70.10597
G1 X26.486 Y147.313 E70.12292
G1 X26.877 Y147.155 E70.13694
G1 X27.481 Y147.06 E70.15728
G1 X28.048 Y147.166 E70.17647
G1 X28.41 Y147.307 E70.18939
G1 X28.817 Y147.585 E70.20578
G1 X29.197 Y147.984 E70.22411
G1 X29.415 Y148.434 E70.24074
G1 X29.543 Y148.96 E70.25874
G1 X29.542 Y149.404 E70.27351
G1 X29.415 Y149.927 E70.29141
G1 X29.201 Y150.369 E70.30774
G1 F2400 E69.50774
G0 F9000 X29.279 Y150.437
G0 X28.503 Y151.204
G0 X28.072 Y154.985
G0 X29.2 Y158.372
G1 F2400 E70.30774
G1 F1800 X28.837 Y158.758 E70.32537
G1 X28.417 Y159.046 E70.34231
G1 X28.013 Y159.204 E70.35673
G1 X27.503 Y159.286 E70.37391
G1 X26.981 Y159.227 E70.39139
G1 X26.493 Y159.057 E70.40857
G1 X26.078 Y158.77 E70.42536
G1 X25.701 Y158.376 E70.44349
G1 X25.475 Y157.898 E70.46108
G1 X25.365 Y157.432 E70.47701
G1 X25.356 Y156.967 E70.49247
G1 X25.472 Y156.469 E70.50948
G1 X25.693 Y156.001 E70.52669
G1 X26.06 Y155.604 E70.54468
G1 X26.481 Y155.315 E70.56166
G1 X26.892 Y155.151 E70.57638
G1 X27.485 Y155.061 E70.59633
G1 X28.022 Y155.158 E70.61448
G1 X28.414 Y155.308 E70.62844
G1 X28.837 Y155.602 E70.64557
G1 X29.2 Y155.99 E70.66324
G1 X29.422 Y156.452 E70.68029
G1 X29.542 Y156.954 E70.69746
G1 X29.54 Y157.393 E70.71206
G1 X29.427 Y157.895 E70.72917
G1 X29.2 Y158.372 E70.74674
G1 F2400 E69.94674
G0 F9000 X28.924 Y158.818
G0 X29.723 Y157.415
G0 X38.25 Y154.476
G0 X41.903 Y154.366
G1 F2400 E70.74674
G1 F1800 X41.52 Y154.773 E70.76533
G1 X41.117 Y155.046 E70.78152
G1 X40.713 Y155.204 E70.79595
G1 X40.203 Y155.286 E70.81313
G1 X39.681 Y155.227 E70.8306
G1 X39.209 Y155.062 E70.84723
G1 X38.769 Y154.768 E70.86483
G1 X38.403 Y154.375 E70.8827
G1 X38.172 Y153.898 E70.90032
G1 X38.058 Y153.401 E70.91728
G1 X38.062 Y152.951 E70.93225
G1 X38.171 Y152.462 E70.94891
G1 X38.397 Y151.995 E70.96617
G1 X38.765 Y151.6 E70.98413
G1 X39.179 Y151.312 E71.0009
G1 X39.572 Y151.16 E71.01491
G1 X40.191 Y151.061 E71.03576
G1 X40.722 Y151.158 E71.05372
G1 X41.133 Y151.324 E71.06846
G1 X41.536 Y151.596 E71.08463
G1 X41.888 Y151.981 E71.10198
G1 X42.129 Y152.462 E71.11988
G1 X42.243 Y152.996 E71.13804
G1 X42.243 Y153.397 E71.15137
G1 X42.126 Y153.898 E71.16849
G1 X41.903 Y154.366 E71.18573
G1 F2400 E70.38573
G0 F9000 X41.993 Y154.41
G0 X42.3 Y153.958
G0 X59.877 Y153.419
G0 X63.52 Y154.773
G1 F2400 E71.18573
G1 F1800 X63.117 Y155.046 E71.20192
G1 X62.713 Y155.204 E71.21635
G1 X62.203 Y155.286 E71.23353
G1 X61.681 Y155.227 E71.251
G1 X61.203 Y155.06 E71.26784
G1 X60.784 Y154.776 E71.28468
G1 X60.399 Y154.369 E71.30331
G1 X60.176 Y153.9 E71.32058
G1 X60.057 Y153.399 E71.33771
G1 X60.06 Y152.966 E71.35211
G1 X60.173 Y152.465 E71.36919
G1 X60.391 Y152.005 E71.38612
G1 X60.76 Y151.6 E71.40435
G1 X61.181 Y151.312 E71.42131
G1 X61.587 Y151.152 E71.43583
G1 X62.186 Y151.062 E71.45597
G1 X62.728 Y151.16 E71.47429
G1 X63.111 Y151.308 E71.48795
G1 X63.514 Y151.583 E71.50418
G1 X63.894 Y151.982 E71.5225
G1 X64.125 Y152.461 E71.54019
G1 X64.24 Y152.963 E71.55732
G1 X64.24 Y153.392 E71.57159
G1 X64.126 Y153.898 E71.58884
G1 X63.904 Y154.366 E71.60607
G1 X63.52 Y154.773 E71.62468
G1 F2400 E70.82468
G0 F9000 X63.951 Y154.464
G0 X64.303 Y153.959
G0 X78.046 Y153.961
G0 X81.157 Y155.046
G1 F2400 E71.62468
G1 F1800 X80.753 Y155.204 E71.63911
G1 X80.243 Y155.286 E71.65629
G1 X79.721 Y155.227 E71.67376
G1 X79.243 Y155.06 E71.6906
G1 X78.824 Y154.776 E71.70744
G1 X78.442 Y154.374 E71.72588
G1 X78.216 Y153.9 E71.74335
G1 X78.1 Y153.395 E71.76058
G1 X78.1 Y152.966 E71.77485
G1 X78.213 Y152.465 E71.79193
G1 X78.448 Y151.976 E71.80997
G1 X78.823 Y151.585 E71.82799
G1 X79.219 Y151.313 E71.84397
G1 X79.611 Y151.16 E71.85797
G1 X80.21 Y151.062 E71.87816
G1 X80.726 Y151.149 E71.89556
G1 X81.148 Y151.306 E71.91054
G1 X81.567 Y151.59 E71.92737
G1 X81.935 Y151.982 E71.94525
G1 X82.169 Y152.462 E71.96302
G1 X82.283 Y152.959 E71.97998
G1 X82.283 Y153.394 E71.99444
G1 X82.167 Y153.904 E72.01184
G1 X81.939 Y154.372 E72.02915
G1 X81.56 Y154.773 E72.04751
G1 X81.157 Y155.046 E72.0637
G1 F2400 E71.2637
G0 F9000 X82.348 Y153.938
G0 X104.678 Y154.893
G0 X106.243 Y155.286
G1 F2400 E72.0637
G1 F1800 X105.721 Y155.227 E72.08117
G1 X105.243 Y155.06 E72.09801
G1 X104.824 Y154.776 E72.11484
G1 X104.443 Y154.375 E72.13324
G1 X104.215 Y153.905 E72.15062
G1 X104.097 Y153.399 E72.1679
G1 X104.097 Y152.961 E72.18247
G1 X104.213 Y152.466 E72.19938
G1 X104.441 Y151.987 E72.21702
G1 X104.81 Y151.591 E72.23502
G1 X105.241 Y151.305 E72.25223
G1 X105.63 Y151.151 E72.26614
G1 X106.233 Y151.061 E72.28642
G1 X106.762 Y151.158 E72.30431
G1 X107.173 Y151.324 E72.31905
G1 X107.575 Y151.596 E72.33519
G1 X107.934 Y151.98 E72.35268
G1 X108.171 Y152.464 E72.3706
G1 X108.283 Y152.961 E72.38755
G1 X108.279 Y153.403 E72.40225
G1 X108.17 Y153.895 E72.41901
G1 X107.939 Y154.371 E72.43661
G1 X107.56 Y154.773 E72.45498
G1 X107.157 Y155.046 E72.47117
G1 X106.753 Y155.204 E72.4856
