;FLAVOR:Marlin
;TIME:11208
;Filament used: 19.8534m
;Layer height: 0.28
;MINX:9
;MINY:44
;MINZ:0.28
;MAXX:211
;MAXY:176
;MAXZ:3.08
;TARGET_MACHINE.NAME:Creality Ender-3 V3 SE
;Generated with Cura_SteamEngine 5.6.0
M140 S60
M105
M190 S60
M104 S210
M105
M109 S210
M82 ;absolute extrusion mode
M220 S100 ;Reset Feedrate
M221 S100 ;Reset Flowrate

G28 ;Home

M420 S1; Enable mesh leveling

G92 E0 ;Reset Extruder
G1 Z2.0 F3000 ;Move Z Axis up
G1 X10.1 Y20 Z0.28 F5000.0 ;Move to start position
M109 S[material_print_temperature_layer_0]
G1 X10.1 Y145.0 Z0.28 F1500.0 E15 ;Draw the first line
G1 X10.4 Y145.0 Z0.28 F5000.0 ;Move to side a little
G1 X10.4 Y20 Z0.28 F1500.0 E30 ;Draw the second line
G92 E0  ;Reset Extruder
G1 E-1.0000 F1800 ;Retract a bit
G1 Z2.0 F3000 ;Move Z Axis up
G1 E0.0000 F1800 

G92 E0
G92 E0
G1 F2400 E-0.8
;LAYER_COUNT:11
;LAYER:0
M107
G0 F9000 X20.879 Y45.275 Z0.28
;TYPE:SKIRT
G1 F2400 E0
G1 F1800 X21.827 Y44.833 E0.04871
G1 X22.742 Y44.503 E0.094
G1 X23.615 Y44.271 E0.13606
G1 X24.647 Y44.094 E0.18481
G1 X25.65 Y44.015 E0.23166
G1 X26.246 Y44.002 E0.25942
G1 X103.307 Y44 E3.84771
G1 X104.465 Y44.019 E3.90163
G1 X106.37 Y44.109 E3.99044
G1 X108.88 Y44.178 E4.10736
G1 X111.369 Y44.175 E4.22326
G1 X113.957 Y44.099 E4.34382
G1 X115.687 Y44.015 E4.42447
G1 X116.205 Y44.003 E4.44859
G1 X193.304 Y44 E8.03865
G1 X194.188 Y44.013 E8.07981
G1 X195.16 Y44.072 E8.12516
G1 X196.123 Y44.218 E8.17051
G1 X197.07 Y44.449 E8.2159
G1 X197.926 Y44.737 E8.25795
G1 X198.882 Y45.155 E8.30654
G1 X199.733 Y45.625 E8.35181
G1 X200.484 Y46.127 E8.39387
G1 X201.297 Y46.782 E8.44248
G1 X201.929 Y47.389 E8.48329
G1 X202.433 Y47.914 E8.51718
G1 X203.46 Y49.015 E8.58728
G1 X205.162 Y50.739 E8.70009
G1 X207.589 Y53.051 E8.85617
G1 X208.274 Y53.769 E8.90238
G1 X208.881 Y54.529 E8.94767
G1 X209.401 Y55.31 E8.99136
G1 X209.884 Y56.197 E9.03839
G1 X210.245 Y57.025 E9.08045
G1 X210.575 Y58.016 E9.12909
G1 X210.799 Y58.964 E9.17444
G1 X210.93 Y59.857 E9.21647
G1 X210.984 Y60.647 E9.25334
G1 X210.998 Y61.246 E9.28124
G1 X211 Y158.304 E13.80067
G1 X210.987 Y159.188 E13.84184
G1 X210.928 Y160.16 E13.88718
G1 X210.782 Y161.123 E13.93253
G1 X210.551 Y162.07 E13.97792
G1 X210.263 Y162.926 E14.01998
G1 X209.845 Y163.882 E14.06856
G1 X209.375 Y164.733 E14.11383
G1 X208.873 Y165.484 E14.15589
G1 X208.218 Y166.297 E14.20451
G1 X207.612 Y166.928 E14.24524
G1 X207.053 Y167.464 E14.28131
G1 X205.998 Y168.448 E14.34848
G1 X204.247 Y170.176 E14.46303
G1 X201.954 Y172.586 E14.61793
G1 X201.264 Y173.248 E14.66246
G1 X200.476 Y173.879 E14.70947
G1 X199.695 Y174.399 E14.75316
G1 X198.809 Y174.882 E14.80014
G1 X197.981 Y175.243 E14.8422
G1 X196.99 Y175.574 E14.89085
G1 X196.042 Y175.798 E14.93621
G1 X195.149 Y175.929 E14.97824
G1 X194.353 Y175.984 E15.01539
G1 X193.754 Y175.998 E15.04329
G1 X116.693 Y176 E18.63158
G1 X115.536 Y175.981 E18.68546
G1 X113.63 Y175.891 E18.77431
G1 X111.12 Y175.822 E18.89123
G1 X108.632 Y175.825 E19.00708
G1 X106.042 Y175.901 E19.12773
G1 X104.313 Y175.985 E19.20834
G1 X103.795 Y175.997 E19.23246
G1 X26.696 Y176 E22.82252
G1 X25.812 Y175.987 E22.86368
G1 X24.84 Y175.928 E22.90903
G1 X23.877 Y175.782 E22.95438
G1 X22.93 Y175.551 E22.99977
G1 X22.074 Y175.263 E23.04182
G1 X21.118 Y174.845 E23.09041
G1 X20.267 Y174.375 E23.13568
G1 X19.516 Y173.873 E23.17774
G1 X18.703 Y173.218 E23.22635
G1 X18.08 Y172.62 E23.26657
G1 X16.569 Y171.015 E23.36921
G1 X14.82 Y169.243 E23.48514
G1 X12.411 Y166.949 E23.64004
G1 X11.726 Y166.231 E23.68625
G1 X11.119 Y165.471 E23.73154
G1 X10.599 Y164.69 E23.77523
G1 X10.116 Y163.803 E23.82226
G1 X9.755 Y162.975 E23.86432
G1 X9.425 Y161.984 E23.91295
G1 X9.201 Y161.036 E23.95831
G1 X9.07 Y160.143 E24.00034
G1 X9.016 Y159.353 E24.03721
G1 X9.002 Y158.754 E24.06511
G1 X9 Y61.696 E28.58454
G1 X9.013 Y60.812 E28.6257
G1 X9.072 Y59.84 E28.67105
G1 X9.218 Y58.877 E28.7164
G1 X9.449 Y57.93 E28.76179
G1 X9.737 Y57.074 E28.80385
G1 X10.155 Y56.118 E28.85243
G1 X10.625 Y55.267 E28.8977
G1 X11.127 Y54.516 E28.93976
G1 X11.782 Y53.703 E28.98838
G1 X12.388 Y53.072 E29.02911
G1 X12.947 Y52.536 E29.06517
G1 X14.002 Y51.552 E29.13235
G1 X15.768 Y49.809 E29.24789
G1 X17.869 Y47.603 E29.38974
G1 X18.556 Y46.913 E29.43508
G1 X19.302 Y46.286 E29.48046
G1 X20.098 Y45.728 E29.52573
G1 X20.879 Y45.275 E29.56777
G0 F9000 X21.08 Y45.621
G1 F1800 X21.963 Y45.209 E29.61314
G1 X22.845 Y44.89 E29.65681
G1 X23.718 Y44.658 E29.69887
G1 X24.679 Y44.493 E29.74428
G1 X25.659 Y44.415 E29.79005
G1 X26.246 Y44.402 E29.81739
G1 X103.3 Y44.4 E33.40535
G1 X104.446 Y44.419 E33.45872
G1 X106.351 Y44.509 E33.54752
G1 X108.869 Y44.578 E33.66482
G1 X111.381 Y44.575 E33.78179
G1 X113.977 Y44.499 E33.90272
G1 X115.696 Y44.415 E33.98286
G1 X116.205 Y44.403 E34.00657
G1 X193.298 Y44.4 E37.59634
G1 X194.164 Y44.412 E37.63667
G1 X195.101 Y44.468 E37.68038
G1 X196.029 Y44.607 E37.72407
G1 X196.942 Y44.828 E37.76781
G1 X197.798 Y45.116 E37.80986
G1 X198.689 Y45.506 E37.85515
G1 X199.511 Y45.958 E37.89883
G1 X200.262 Y46.46 E37.9409
G1 X201.02 Y47.071 E37.98623
G1 X201.64 Y47.666 E38.02624
G1 X202.14 Y48.187 E38.05987
G1 X203.167 Y49.288 E38.12998
G1 X204.886 Y51.029 E38.2439
G1 X207.3 Y53.328 E38.39913
G1 X207.962 Y54.019 E38.44369
G1 X208.548 Y54.751 E38.48735
G1 X209.068 Y55.532 E38.53104
G1 X209.517 Y56.357 E38.57478
G1 X209.878 Y57.185 E38.61684
G1 X210.186 Y58.108 E38.66214
G1 X210.403 Y59.022 E38.70589
G1 X210.534 Y59.915 E38.74791
G1 X210.584 Y60.657 E38.78254
G1 X210.598 Y61.246 E38.80998
G1 X210.6 Y158.298 E43.32913
G1 X210.588 Y159.164 E43.36945
G1 X210.532 Y160.101 E43.41316
G1 X210.393 Y161.029 E43.45686
G1 X210.172 Y161.942 E43.5006
G1 X209.884 Y162.798 E43.54265
G1 X209.494 Y163.689 E43.58794
G1 X209.042 Y164.511 E43.63162
G1 X208.54 Y165.262 E43.67368
G1 X207.929 Y166.02 E43.71902
G1 X207.335 Y166.639 E43.75897
G1 X206.78 Y167.171 E43.79476
G1 X205.725 Y168.155 E43.86194
G1 X203.966 Y169.891 E43.97702
G1 X201.677 Y172.297 E44.13165
G1 X200.987 Y172.959 E44.17618
G1 X200.254 Y173.546 E44.21991
G1 X199.473 Y174.066 E44.2636
G1 X198.649 Y174.515 E44.30729
G1 X197.821 Y174.876 E44.34935
G1 X196.898 Y175.185 E44.39468
G1 X195.984 Y175.402 E44.43842
G1 X195.091 Y175.533 E44.48044
G1 X194.343 Y175.584 E44.51536
G1 X193.754 Y175.598 E44.54279
G1 X116.7 Y175.6 E48.13075
G1 X115.555 Y175.581 E48.18407
G1 X113.649 Y175.491 E48.27292
G1 X111.131 Y175.422 E48.39021
G1 X108.62 Y175.425 E48.50714
G1 X106.022 Y175.501 E48.62816
G1 X104.304 Y175.585 E48.70825
G1 X103.795 Y175.597 E48.73196
G1 X26.702 Y175.6 E52.32173
G1 X25.836 Y175.588 E52.36206
G1 X24.899 Y175.532 E52.40577
G1 X23.971 Y175.393 E52.44947
G1 X23.058 Y175.172 E52.49321
G1 X22.202 Y174.884 E52.53526
G1 X21.311 Y174.494 E52.58055
G1 X20.489 Y174.042 E52.62423
G1 X19.738 Y173.54 E52.66629
G1 X18.98 Y172.929 E52.71163
G1 X18.357 Y172.331 E52.75184
G1 X16.854 Y170.734 E52.85396
G1 X15.105 Y168.962 E52.96989
G1 X12.7 Y166.672 E53.12452
G1 X12.038 Y165.981 E53.16908
G1 X11.452 Y165.249 E53.21274
G1 X10.932 Y164.468 E53.25643
G1 X10.483 Y163.643 E53.30017
G1 X10.122 Y162.815 E53.34223
G1 X9.814 Y161.892 E53.38754
G1 X9.597 Y160.978 E53.43128
G1 X9.466 Y160.085 E53.47331
G1 X9.416 Y159.343 E53.50794
G1 X9.402 Y158.754 E53.53537
G1 X9.4 Y61.702 E58.05452
G1 X9.412 Y60.836 E58.09485
G1 X9.468 Y59.899 E58.13856
G1 X9.607 Y58.971 E58.18225
G1 X9.828 Y58.058 E58.22599
G1 X10.116 Y57.202 E58.26805
G1 X10.506 Y56.311 E58.31333
G1 X10.958 Y55.489 E58.35702
G1 X11.46 Y54.738 E58.39908
G1 X12.071 Y53.98 E58.44441
G1 X12.665 Y53.361 E58.48436
G1 X13.22 Y52.829 E58.52016
G1 X14.275 Y51.845 E58.58734
G1 X16.049 Y50.094 E58.7034
G1 X18.153 Y47.885 E58.84545
G1 X18.814 Y47.219 E58.88915
G1 X19.532 Y46.613 E58.9329
G1 X20.299 Y46.074 E58.97655
G1 X21.08 Y45.621 E59.01859
G0 F9000 X21.281 Y45.967
G1 F1800 X22.099 Y45.585 E59.06063
G1 X22.948 Y45.277 E59.10268
G1 X23.821 Y45.045 E59.14474
G1 X24.711 Y44.892 E59.18679
G1 X25.668 Y44.815 E59.2315
G1 X26.246 Y44.802 E59.25842
G1 X103.293 Y44.8 E62.84605
G1 X104.427 Y44.819 E62.89886
G1 X106.332 Y44.909 E62.98766
G1 X108.858 Y44.978 E63.10533
G1 X111.393 Y44.975 E63.22337
G1 X113.997 Y44.899 E63.34467
G1 X115.706 Y44.815 E63.42435
G1 X116.205 Y44.803 E63.44759
G1 X193.293 Y44.8 E67.03713
G1 X194.141 Y44.811 E67.07662
G1 X195.043 Y44.864 E67.11869
G1 X195.936 Y44.996 E67.16073
G1 X196.814 Y45.207 E67.20278
G1 X197.67 Y45.495 E67.24483
G1 X198.497 Y45.857 E67.28687
G1 X199.289 Y46.291 E67.32892
G1 X200.04 Y46.793 E67.37098
G1 X200.743 Y47.36 E67.41304
G1 X201.351 Y47.943 E67.45226
G1 X201.847 Y48.46 E67.48562
G1 X202.874 Y49.561 E67.55573
G1 X204.61 Y51.319 E67.67077
G1 X207.024 Y53.618 E67.826
G1 X207.65 Y54.269 E67.86806
G1 X208.215 Y54.973 E67.91009
G1 X208.717 Y55.724 E67.95215
G1 X209.15 Y56.517 E67.99422
G1 X209.511 Y57.345 E68.03628
G1 X209.797 Y58.201 E68.07831
G1 X210.007 Y59.08 E68.12039
G1 X210.138 Y59.973 E68.16242
G1 X210.184 Y60.667 E68.1948
G1 X210.198 Y61.246 E68.22177
G1 X210.2 Y158.293 E72.74069
G1 X210.189 Y159.141 E72.78018
G1 X210.136 Y160.043 E72.82225
G1 X210.004 Y160.936 E72.86428
G1 X209.793 Y161.814 E72.90633
G1 X209.505 Y162.67 E72.94838
G1 X209.143 Y163.497 E72.99042
G1 X208.709 Y164.289 E73.03247
G1 X208.207 Y165.04 E73.07454
G1 X207.64 Y165.743 E73.11659
G1 X207.058 Y166.35 E73.15575
G1 X206.507 Y166.878 E73.19128
G1 X205.452 Y167.862 E73.25846
G1 X203.685 Y169.606 E73.37407
G1 X201.387 Y172.021 E73.52929
G1 X200.736 Y172.647 E73.57135
G1 X200.032 Y173.213 E73.61341
G1 X199.281 Y173.715 E73.65547
G1 X198.489 Y174.148 E73.6975
G1 X197.661 Y174.509 E73.73956
G1 X196.805 Y174.796 E73.7816
G1 X195.926 Y175.006 E73.82368
G1 X195.033 Y175.137 E73.86571
G1 X194.333 Y175.184 E73.89838
G1 X193.754 Y175.198 E73.92535
G1 X116.707 Y175.2 E77.51298
G1 X115.574 Y175.181 E77.56574
G1 X113.668 Y175.091 E77.65459
G1 X111.142 Y175.022 E77.77226
G1 X108.608 Y175.025 E77.89025
G1 X106.002 Y175.101 E78.01165
G1 X104.294 Y175.185 E78.09128
G1 X103.795 Y175.197 E78.11452
G1 X26.707 Y175.2 E81.70406
G1 X25.859 Y175.189 E81.74355
G1 X24.957 Y175.136 E81.78562
G1 X24.064 Y175.004 E81.82766
G1 X23.186 Y174.793 E81.8697
G1 X22.33 Y174.505 E81.91176
G1 X21.503 Y174.143 E81.9538
G1 X20.711 Y173.709 E81.99585
G1 X19.96 Y173.207 E82.03791
G1 X19.257 Y172.64 E82.07997
G1 X18.646 Y172.054 E82.11939
G1 X18.112 Y171.496 E82.15535
G1 X17.139 Y170.453 E82.22177
G1 X15.39 Y168.681 E82.3377
G1 X12.976 Y166.382 E82.49293
G1 X12.35 Y165.731 E82.53498
G1 X11.785 Y165.027 E82.57702
G1 X11.283 Y164.276 E82.61908
G1 X10.85 Y163.483 E82.66115
G1 X10.489 Y162.655 E82.70321
G1 X10.203 Y161.799 E82.74524
G1 X9.993 Y160.92 E82.78732
G1 X9.862 Y160.027 E82.82934
G1 X9.816 Y159.333 E82.86173
G1 X9.802 Y158.754 E82.8887
G1 X9.8 Y61.707 E87.40761
G1 X9.811 Y60.859 E87.4471
G1 X9.864 Y59.957 E87.48918
G1 X9.996 Y59.064 E87.53121
G1 X10.207 Y58.186 E87.57326
G1 X10.495 Y57.33 E87.61531
G1 X10.857 Y56.503 E87.65735
G1 X11.291 Y55.711 E87.6994
G1 X11.793 Y54.96 E87.74146
G1 X12.36 Y54.257 E87.78352
G1 X12.942 Y53.65 E87.82268
G1 X13.493 Y53.122 E87.85821
G1 X14.548 Y52.138 E87.92539
G1 X16.33 Y50.379 E88.04198
G1 X18.437 Y48.166 E88.18426
G1 X19.072 Y47.524 E88.22631
G1 X19.762 Y46.94 E88.2684
G1 X20.5 Y46.42 E88.31044
G1 X21.281 Y45.967 E88.35248
G1 F2400 E87.55248
;MESH:internal-drill-holes-test.stl
G0 F9000 X45.956 Y117.534
G0 X47.5 Y121.884
;TYPE:WALL-OUTER
G1 F2400 E88.35248
G1 F1379.3 X47.981 Y121.895 E88.38172
G1 F2400 E87.58172
G0 F9000 X48.786 Y121.855
G0 X49.298 Y122.04
G0 X49.977 Y122.472
G0 X50.69 Y123.24
G0 X51.15 Y124.189
G0 X51.311 Y125.232
G0 X51.153 Y126.283
G0 X50.7 Y127.226
G0 X50.497 Y127.446
G0 X49.745 Y128.249
G0 X49.571 Y128.006
G1 F2400 E88.38172
G1 F1800 X49.207 Y128.218 E88.40133
G1 X48.75 Y128.396 E88.42417
G1 X48.325 Y128.494 E88.44448
G1 X47.927 Y128.54 E88.46314
G1 X47.508 Y128.53 E88.48265
G1 X47.193 Y128.49 E88.49744
G1 X46.803 Y128.4 E88.51607
G1 X46.34 Y128.22 E88.53921
G1 X45.976 Y128.01 E88.55877
G1 X45.71 Y127.82 E88.57399
G1 X45.457 Y127.595 E88.58976
G1 X45.244 Y127.363 E88.60443
G1 X45.04 Y127.093 E88.62018
G1 X44.834 Y126.758 E88.6385
G1 X44.639 Y126.303 E88.66155
G1 X44.533 Y125.893 E88.68126
G1 X44.487 Y125.567 E88.6966
G1 X44.471 Y125.257 E88.71105
G1 X44.486 Y124.929 E88.72634
G1 X44.534 Y124.591 E88.74223
G1 X44.618 Y124.26 E88.75814
G1 X44.727 Y123.963 E88.77287
G1 X44.877 Y123.652 E88.78895
G1 X45.036 Y123.389 E88.80326
G1 X45.245 Y123.113 E88.81938
G1 X45.465 Y122.878 E88.83437
G1 X45.72 Y122.654 E88.85017
G1 X45.975 Y122.469 E88.86484
G1 X46.349 Y122.255 E88.8849
G1 X46.772 Y122.089 E88.90606
G1 F1760.4 X47.178 Y121.983 E88.92604
G1 F1512.6 X47.5 Y121.884 E88.94471
G1 X47.193 Y121.778 E88.96271
G1 F1760.4 X46.783 Y121.608 E88.98384
G1 F1800 X46.396 Y121.36 E89.00524
G1 X46.094 Y121.064 E89.02493
G1 X45.883 Y120.772 E89.04171
G1 X45.66 Y120.304 E89.06585
G1 X45.557 Y119.628 E89.09769
G1 X45.634 Y119.108 E89.12216
G1 X45.818 Y118.603 E89.14719
G1 X46.077 Y118.234 E89.16818
G1 X46.321 Y117.985 E89.18442
G1 X46.664 Y117.737 E89.20413
G1 X47.059 Y117.557 E89.22434
G1 X47.597 Y117.434 E89.25004
G1 X48.275 Y117.484 E89.28169
G1 X48.774 Y117.681 E89.30667
G1 X49.157 Y117.932 E89.328
G1 X49.461 Y118.234 E89.34795
G1 X49.714 Y118.583 E89.36802
G1 X49.902 Y119.094 E89.39337
G1 X49.968 Y119.517 E89.41331
G1 X49.945 Y119.973 E89.43457
G1 X49.866 Y120.309 E89.45064
G1 X49.72 Y120.68 E89.46921
G1 X49.397 Y121.138 E89.4953
G1 X48.956 Y121.494 E89.52169
G1 X48.593 Y121.691 E89.54093
G1 F1698.1 X48.188 Y121.816 E89.56185
G1 F1503.1 X47.981 Y121.895 E89.5742
G1 F1582.4 X48.535 Y122.031 E89.60442
G1 F1800 X48.829 Y122.113 E89.61863
G1 X49.181 Y122.251 E89.63623
G1 X49.546 Y122.458 E89.65577
G1 X49.817 Y122.651 E89.67126
G1 X50.084 Y122.887 E89.68786
G1 X50.296 Y123.116 E89.70239
G1 X50.5 Y123.386 E89.71815
G1 X50.667 Y123.659 E89.73305
G1 X50.81 Y123.955 E89.74835
G1 X50.925 Y124.266 E89.76379
G1 X51.005 Y124.576 E89.7787
G1 X51.052 Y124.895 E89.79372
G1 X51.069 Y125.239 E89.80975
G1 X51.054 Y125.561 E89.82476
G1 X51.006 Y125.889 E89.8402
G1 X50.92 Y126.225 E89.85635
G1 X50.812 Y126.519 E89.87093
G1 X50.663 Y126.828 E89.88691
G1 X50.497 Y127.098 E89.90167
G1 X50.299 Y127.363 E89.91707
G1 X50.08 Y127.599 E89.93206
G1 X49.82 Y127.827 E89.94816
G1 X49.571 Y128.006 E89.96244
G0 F9000 X49.79 Y128.341
;TYPE:WALL-INNER
G1 F1800 X49.381 Y128.578 E89.98445
G1 X48.913 Y128.763 E90.00789
G1 X48.437 Y128.88 E90.03071
G1 X47.994 Y128.937 E90.05151
G1 X47.483 Y128.929 E90.07531
G1 X47.13 Y128.886 E90.09187
G1 X46.685 Y128.782 E90.11314
G1 X46.163 Y128.579 E90.13922
G1 X45.759 Y128.347 E90.16092
G1 X45.46 Y128.132 E90.17807
G1 X45.176 Y127.88 E90.19575
G1 X44.925 Y127.605 E90.21308
G1 X44.7 Y127.303 E90.23062
G1 X44.479 Y126.943 E90.25029
G1 X44.247 Y126.388 E90.2783
G1 X44.148 Y126.003 E90.29681
G1 X44.087 Y125.587 E90.31639
G1 X44.071 Y125.277 E90.33084
G1 X44.086 Y124.909 E90.34799
G1 X44.142 Y124.513 E90.36661
G1 X44.242 Y124.124 E90.38532
G1 X44.366 Y123.79 E90.40191
G1 X44.513 Y123.484 E90.41771
G1 X44.689 Y123.189 E90.43371
G1 X44.93 Y122.866 E90.45247
G1 X45.2 Y122.578 E90.47086
G1 X45.485 Y122.33 E90.48845
G1 X45.744 Y122.142 E90.50335
G1 X46.121 Y121.922 E90.52368
G1 X46.367 Y121.818 E90.53611
G1 X46.103 Y121.634 E90.5511
G1 X45.802 Y121.337 E90.57079
G1 X45.546 Y120.996 E90.59064
G1 X45.268 Y120.404 E90.6211
G1 X45.15 Y119.651 E90.65659
G1 X45.243 Y119.022 E90.68619
G1 X45.458 Y118.421 E90.71592
G1 X45.763 Y117.986 E90.74065
G1 X46.044 Y117.696 E90.75946
G1 X46.438 Y117.407 E90.78221
G1 X46.931 Y117.175 E90.80758
G1 X47.586 Y117.03 E90.83882
G1 X48.35 Y117.085 E90.87448
G1 X48.92 Y117.307 E90.90297
G1 X49.371 Y117.59 E90.92776
G1 X49.765 Y117.973 E90.95335
G1 X50.072 Y118.394 E90.97761
G1 X50.296 Y119.023 E91.0087
G1 X50.372 Y119.505 E91.03142
G1 X50.339 Y120.041 E91.05643
G1 X50.244 Y120.44 E91.07553
G1 X50.068 Y120.888 E91.09794
G1 X49.686 Y121.419 E91.1284
G1 X49.189 Y121.825 E91.15828
G1 X49.406 Y121.916 E91.16924
G1 X49.796 Y122.144 E91.19027
G1 X50.099 Y122.364 E91.20771
G1 X50.377 Y122.615 E91.22515
G1 X50.614 Y122.874 E91.2415
