;FLAVOR:Marlin
;TIME:486
;Filament used: 0.292193m
;Layer height: 0.2
;MINX:77.2
;MINY:88.54
;MINZ:0.2
;MAXX:142.8
;MAXY:131.46
;MAXZ:4
;TARGET_MACHINE.NAME:Creality Ender-3 V3 SE
;Generated with Cura_SteamEngine 5.6.0
M140 S60
M105
M190 S60
M104 S210
M105
M109 S210
M82 ;absolute extrusion mode
M220 S100 ;Reset Feedrate
M221 S100 ;Reset Flowrate

G28 ;Home

M420 S1; Enable mesh leveling

G92 E0 ;Reset Extruder
G1 Z2.0 F3000 ;Move Z Axis up
G1 X10.1 Y20 Z0.28 F5000.0 ;Move to start position
M109 S[material_print_temperature_layer_0]
G1 X10.1 Y145.0 Z0.28 F1500.0 E15 ;Draw the first line
G1 X10.4 Y145.0 Z0.28 F5000.0 ;Move to side a little
G1 X10.4 Y20 Z0.28 F1500.0 E30 ;Draw the second line
G92 E0  ;Reset Extruder
G1 E-1.0000 F1800 ;Retract a bit
G1 Z2.0 F3000 ;Move Z Axis up
G1 E0.0000 F1800 

G92 E0
G92 E0
G1 F2400 E-0.8
;LAYER_COUNT:20
;LAYER:0
M107
G0 F9000 X81.485 Y91.338 Z0.2
;TYPE:SKIRT
G1 F2400 E0
G1 F1800 X82.296 Y90.722 E0.03387
G1 X83.291 Y90.11 E0.07273
G1 X83.654 Y89.915 E0.08643
G1 X84.5 Y89.509 E0.11764
G1 X85.414 Y89.165 E0.15012
G1 X86.559 Y88.857 E0.18956
G1 X86.918 Y88.781 E0.20176
G1 X87.883 Y88.626 E0.23427
G1 X88.968 Y88.552 E0.27044
G1 X89.571 Y88.542 E0.2905
G1 X90.902 Y88.54 E0.33477
G1 X91.771 Y88.553 E0.36368
G1 X92.733 Y88.613 E0.39574
G1 X93.433 Y88.709 E0.41924
G1 X96.234 Y89.19 E0.51376
G1 X98.714 Y89.542 E0.59707
G1 X101.174 Y89.82 E0.67941
G1 X103.745 Y90.04 E0.76524
G1 X106.229 Y90.178 E0.84798
G1 X108.759 Y90.249 E0.93216
G1 X111.249 Y90.247 E1.01498
G1 X113.817 Y90.174 E1.10043
G1 X116.277 Y90.035 E1.18238
G1 X118.812 Y89.819 E1.267
G1 X121.293 Y89.534 E1.35006
G1 X123.821 Y89.174 E1.43499
G1 X125.226 Y88.933 E1.4824
G1 X125.383 Y88.913 E1.48767
G1 X126.607 Y88.703 E1.52897
G1 X127.503 Y88.589 E1.55901
G1 X128.124 Y88.553 E1.5797
G1 X128.712 Y88.541 E1.59926
G1 X130.33 Y88.542 E1.65308
G1 X131.025 Y88.553 E1.6762
G1 X131.999 Y88.611 E1.70865
G1 X132.965 Y88.757 E1.74114
G1 X133.316 Y88.828 E1.75306
G1 X134.261 Y89.063 E1.78544
G1 X135.181 Y89.38 E1.81781
G1 X136.066 Y89.775 E1.85004
G1 X136.774 Y90.163 E1.87689
G1 X137.103 Y90.361 E1.88967
G1 X137.916 Y90.899 E1.92209
G1 X138.679 Y91.509 E1.95458
G1 X139.493 Y92.289 E1.99208
G1 X140.263 Y93.181 E2.03127
G1 X140.79 Y93.914 E2.0613
G1 X141.311 Y94.791 E2.09523
G1 X141.456 Y95.065 E2.10554
G1 X141.873 Y95.944 E2.1379
G1 X142.189 Y96.79 E2.16793
G1 X142.524 Y98.072 E2.212
G1 X142.586 Y98.39 E2.22278
G1 X142.726 Y99.318 E2.25399
G1 X142.788 Y100.316 E2.28725
G1 X142.798 Y100.957 E2.30857
G1 X142.8 Y108.593 E2.56255
G1 X142.789 Y109.562 E2.59478
G1 X142.757 Y110.424 E2.62347
G1 X142.679 Y111.436 E2.65723
G1 X142.617 Y111.99 E2.67577
G1 X142.46 Y113.029 E2.71072
G1 X142.358 Y113.577 E2.72926
G1 X142.242 Y114.13 E2.74805
G1 X142.105 Y114.694 E2.76736
G1 X141.965 Y115.218 E2.7854
G1 X141.796 Y115.787 E2.80514
G1 X141.638 Y116.275 E2.8222
G1 X141.282 Y117.262 E2.8571
G1 X141.069 Y117.791 E2.87606
G1 X140.639 Y118.755 E2.91117
G1 X140.409 Y119.228 E2.92867
G1 X140.141 Y119.742 E2.94795
G1 X139.866 Y120.238 E2.96681
G1 X139.342 Y121.107 E3.00056
G1 X139.01 Y121.615 E3.02074
G1 X138.706 Y122.057 E3.03859
G1 X138.378 Y122.508 E3.05713
G1 X138.062 Y122.922 E3.07446
G1 X137.684 Y123.39 E3.09447
G1 X136.992 Y124.187 E3.12957
G1 X136.616 Y124.588 E3.14786
G1 X135.863 Y125.34 E3.18325
G1 X135.451 Y125.721 E3.20191
G1 X135.052 Y126.073 E3.21961
G1 X134.582 Y126.466 E3.23999
G1 X133.928 Y126.978 E3.26761
G1 X133.523 Y127.274 E3.2843
G1 X132.91 Y127.699 E3.30911
G1 X132.405 Y128.028 E3.32915
G1 X131.911 Y128.331 E3.34843
G1 X131.471 Y128.587 E3.36536
G1 X131.002 Y128.844 E3.38315
G1 X130.527 Y129.088 E3.40091
G1 X129.982 Y129.352 E3.42105
G1 X129.51 Y129.567 E3.4383
G1 X128.978 Y129.793 E3.45753
G1 X128.486 Y129.987 E3.47512
G1 X127.966 Y130.178 E3.49354
G1 X126.918 Y130.52 E3.53021
G1 X126.255 Y130.705 E3.5531
G1 X125.504 Y130.89 E3.57883
G1 X124.781 Y131.045 E3.60342
G1 X123.741 Y131.22 E3.6385
G1 X123.23 Y131.29 E3.65565
G1 X122.688 Y131.349 E3.67378
G1 X121.529 Y131.43 E3.71243
G1 X121.03 Y131.447 E3.72903
G1 X119.922 Y131.46 E3.76589
G1 X99.943 Y131.459 E4.43039
G1 X98.794 Y131.44 E4.46861
G1 X97.76 Y131.386 E4.50305
G1 X97.221 Y131.339 E4.52105
G1 X96.67 Y131.277 E4.53949
G1 X95.611 Y131.117 E4.57511
G1 X95.062 Y131.014 E4.59369
G1 X94.51 Y130.896 E4.61246
G1 X93.859 Y130.737 E4.63475
G1 X93.301 Y130.585 E4.65399
G1 X92.394 Y130.302 E4.68559
G1 X91.86 Y130.116 E4.7044
G1 X90.876 Y129.731 E4.73954
G1 X90.398 Y129.525 E4.75685
G1 X89.431 Y129.068 E4.79243
G1 X88.917 Y128.8 E4.81171
G1 X88.436 Y128.534 E4.82999
G1 X87.929 Y128.234 E4.84958
G1 X87.032 Y127.661 E4.88498
G1 X86.334 Y127.172 E4.91333
G1 X85.964 Y126.893 E4.92874
G1 X85.364 Y126.419 E4.95417
G1 X84.887 Y126.02 E4.97486
G1 X84.462 Y125.644 E4.99373
G1 X84.075 Y125.281 E5.01138
G1 X83.319 Y124.523 E5.04699
G1 X82.944 Y124.118 E5.06534
G1 X82.573 Y123.695 E5.08406
G1 X82.172 Y123.214 E5.10489
G1 X81.546 Y122.405 E5.13891
G1 X81.253 Y121.997 E5.15561
G1 X80.925 Y121.516 E5.17498
G1 X80.634 Y121.068 E5.19275
G1 X80.087 Y120.155 E5.22815
G1 X79.831 Y119.692 E5.24574
G1 X79.576 Y119.196 E5.26429
G1 X79.309 Y118.644 E5.28469
G1 X79.084 Y118.148 E5.3028
G1 X78.855 Y117.607 E5.32234
G1 X78.488 Y116.639 E5.35677
G1 X78.326 Y116.165 E5.37343
G1 X78.148 Y115.602 E5.39307
G1 X78.001 Y115.095 E5.41063
G1 X77.855 Y114.536 E5.42985
G1 X77.63 Y113.521 E5.46442
G1 X77.531 Y112.982 E5.48265
G1 X77.37 Y111.89 E5.51936
G1 X77.311 Y111.349 E5.53747
G1 X77.23 Y110.191 E5.57607
G1 X77.213 Y109.691 E5.59271
G1 X77.2 Y108.583 E5.62957
G1 X77.201 Y101.152 E5.87672
G1 X77.217 Y100.253 E5.90663
G1 X77.28 Y99.278 E5.93913
G1 X77.432 Y98.297 E5.97214
G1 X77.506 Y97.936 E5.9844
G1 X77.744 Y96.992 E6.01678
G1 X78.065 Y96.073 E6.04916
G1 X78.466 Y95.185 E6.08156
G1 X78.921 Y94.373 E6.11252
G1 X79.253 Y93.866 E6.13268
G1 X79.538 Y93.458 E6.14923
G1 X80.132 Y92.688 E6.18158
G1 X80.792 Y91.97 E6.21401
G1 X81.485 Y91.338 E6.24521
G0 F9000 X81.755 Y91.634
G1 F1800 X82.506 Y91.063 E6.27659
G1 X83.501 Y90.451 E6.31544
G1 X83.827 Y90.276 E6.32775
G1 X84.673 Y89.87 E6.35896
G1 X85.555 Y89.539 E6.39029
G1 X86.642 Y89.248 E6.42772
G1 X86.982 Y89.176 E6.43928
G1 X87.91 Y89.025 E6.47055
G1 X88.975 Y88.952 E6.50605
G1 X89.572 Y88.942 E6.52591
G1 X90.896 Y88.94 E6.56995
G1 X91.747 Y88.952 E6.59826
G1 X92.679 Y89.009 E6.62931
G1 X93.365 Y89.103 E6.65234
G1 X96.178 Y89.586 E6.74727
G1 X98.658 Y89.938 E6.83058
G1 X101.14 Y90.219 E6.91366
G1 X103.711 Y90.438 E6.99948
G1 X106.218 Y90.578 E7.083
G1 X108.748 Y90.649 E7.16718
G1 X111.26 Y90.647 E7.25073
G1 X113.828 Y90.574 E7.33618
G1 X116.311 Y90.433 E7.41889
G1 X118.846 Y90.217 E7.50351
G1 X121.349 Y89.93 E7.58731
G1 X123.877 Y89.57 E7.67224
G1 X125.277 Y89.33 E7.71948
G1 X125.434 Y89.31 E7.72475
G1 X126.657 Y89.1 E7.76602
G1 X127.553 Y88.986 E7.79606
G1 X128.132 Y88.953 E7.81535
G1 X128.712 Y88.941 E7.83464
G1 X130.324 Y88.942 E7.88826
G1 X131.002 Y88.952 E7.91081
G1 X131.94 Y89.007 E7.94206
G1 X132.886 Y89.149 E7.97388
G1 X133.22 Y89.216 E7.98521
G1 X134.131 Y89.441 E8.01642
G1 X135.018 Y89.745 E8.04761
G1 X135.874 Y90.126 E8.07877
G1 X136.568 Y90.506 E8.10509
G1 X136.883 Y90.695 E8.1173
G1 X137.667 Y91.212 E8.14854
G1 X138.402 Y91.798 E8.1798
G1 X139.216 Y92.578 E8.2173
G1 X139.938 Y93.415 E8.25407
G1 X140.465 Y94.148 E8.28409
G1 X140.958 Y94.979 E8.31623
G1 X141.095 Y95.237 E8.32595
G1 X141.498 Y96.084 E8.35714
G1 X141.814 Y96.93 E8.38718
G1 X142.131 Y98.149 E8.42907
G1 X142.19 Y98.45 E8.43928
G1 X142.33 Y99.378 E8.47049
G1 X142.388 Y100.322 E8.50195
G1 X142.398 Y100.957 E8.52307
G1 X142.4 Y108.588 E8.77688
G1 X142.389 Y109.547 E8.80878
G1 X142.358 Y110.394 E8.83697
G1 X142.282 Y111.391 E8.87022
G1 X142.221 Y111.931 E8.8883
G1 X142.067 Y112.956 E8.92277
G1 X141.967 Y113.495 E8.941
G1 X141.853 Y114.036 E8.95939
G1 X141.719 Y114.59 E8.97835
G1 X141.581 Y115.104 E8.99605
G1 X141.415 Y115.664 E9.01548
G1 X141.262 Y116.139 E9.03208
G1 X140.911 Y117.113 E9.06651
G1 X140.704 Y117.628 E9.08497
G1 X140.28 Y118.58 E9.11963
G1 X140.054 Y119.043 E9.13677
G1 X139.791 Y119.548 E9.15571
G1 X139.523 Y120.031 E9.17408
G1 X138.999 Y120.9 E9.20783
G1 X138.681 Y121.388 E9.2272
G1 X138.382 Y121.822 E9.24473
G1 X138.06 Y122.265 E9.26295
G1 X137.75 Y122.671 E9.27994
G1 X137.382 Y123.128 E9.29945
G1 X136.7 Y123.914 E9.33407
G1 X136.334 Y124.305 E9.35188
G1 X135.591 Y125.046 E9.38678
G1 X135.186 Y125.421 E9.40514
G1 X134.795 Y125.766 E9.42248
G1 X134.335 Y126.151 E9.44243
G1 X133.692 Y126.655 E9.46961
G1 X133.295 Y126.945 E9.48596
G1 X132.691 Y127.364 E9.51041
G1 X132.196 Y127.687 E9.53007
G1 X131.71 Y127.985 E9.54903
G1 X131.278 Y128.236 E9.56565
G1 X130.819 Y128.488 E9.58306
G1 X130.353 Y128.728 E9.60049
G1 X129.816 Y128.988 E9.62034
G1 X129.353 Y129.199 E9.63726
G1 X128.831 Y129.421 E9.65613
G1 X128.348 Y129.612 E9.6734
G1 X127.842 Y129.798 E9.69133
G1 X126.81 Y130.135 E9.72744
G1 X126.159 Y130.317 E9.74993
G1 X125.42 Y130.499 E9.77524
G1 X124.715 Y130.651 E9.79923
G1 X123.687 Y130.824 E9.8339
G1 X123.187 Y130.892 E9.85068
G1 X122.655 Y130.95 E9.86848
G1 X122.146 Y130.992 E9.88547
G1 X121.515 Y131.03 E9.90649
G1 X121.025 Y131.047 E9.9228
G1 X119.922 Y131.06 E9.95949
G1 X99.949 Y131.059 E10.62379
G1 X98.815 Y131.041 E10.66152
G1 X97.795 Y130.988 E10.69549
G1 X97.266 Y130.942 E10.71315
G1 X96.729 Y130.881 E10.73112
G1 X95.685 Y130.724 E10.76624
G1 X95.146 Y130.623 E10.78448
G1 X94.605 Y130.507 E10.80288
G1 X93.964 Y130.351 E10.82482
G1 X93.42 Y130.203 E10.84357
G1 X92.525 Y129.924 E10.87475
G1 X92.005 Y129.743 E10.89307
G1 X91.034 Y129.364 E10.92773
G1 X90.565 Y129.162 E10.94472
G1 X90.071 Y128.935 E10.9628
G1 X89.616 Y128.713 E10.97964
G1 X89.111 Y128.45 E10.99858
G1 X88.639 Y128.189 E11.01652
G1 X88.144 Y127.897 E11.03563
G1 X87.261 Y127.333 E11.07048
G1 X86.575 Y126.853 E11.09833
G1 X86.212 Y126.579 E11.11345
G1 X85.62 Y126.112 E11.13853
G1 X85.152 Y125.721 E11.15882
G1 X84.736 Y125.352 E11.17731
G1 X84.349 Y124.989 E11.19496
G1 X83.613 Y124.251 E11.22962
G1 X83.238 Y123.846 E11.24798
G1 X82.88 Y123.439 E11.26601
G1 X82.488 Y122.969 E11.28637
G1 X81.871 Y122.172 E11.31989
G1 X81.583 Y121.771 E11.33631
G1 X81.26 Y121.298 E11.35536
G1 X80.977 Y120.863 E11.37262
G1 X80.437 Y119.961 E11.40759
G1 X80.187 Y119.509 E11.42477
G1 X79.936 Y119.022 E11.44299
G1 X79.673 Y118.479 E11.46306
G1 X79.452 Y117.992 E11.48084
G1 X79.229 Y117.465 E11.49988
G1 X78.866 Y116.51 E11.53386
G1 X78.707 Y116.045 E11.5502
G1 X78.532 Y115.491 E11.56953
G1 X78.388 Y114.994 E11.58674
G1 X78.246 Y114.449 E11.60547
G1 X78.021 Y113.434 E11.64005
G1 X77.927 Y112.924 E11.6573
G1 X77.768 Y111.847 E11.69351
G1 X77.71 Y111.316 E11.71127
G1 X77.668 Y110.807 E11.72826
G1 X77.63 Y110.177 E11.74925
G1 X77.613 Y109.686 E11.76559
G1 X77.6 Y108.583 E11.80228
G1 X77.601 Y101.159 E12.0492
G1 X77.616 Y100.278 E12.07851
G1 X77.675 Y99.339 E12.1098
G1 X77.824 Y98.377 E12.14218
G1 X77.894 Y98.033 E12.15386
G1 X78.122 Y97.123 E12.18506
G1 X78.43 Y96.237 E12.21626
G1 X78.815 Y95.381 E12.24747
G1 X79.27 Y94.569 E12.27843
G1 X79.581 Y94.095 E12.29729
G1 X79.855 Y93.702 E12.31322
G1 X80.427 Y92.958 E12.34444
G1 X81.062 Y92.266 E12.37567
G1 X81.755 Y91.634 E12.40687
G0 F9000 X81.998 Y91.952
G1 F1800 X82.716 Y91.404 E12.43691
G1 X83.711 Y90.792 E12.47576
G1 X84.001 Y90.636 E12.48672
G1 X84.814 Y90.244 E12.51674
G1 X85.659 Y89.925 E12.54678
G1 X86.725 Y89.639 E12.58349
G1 X87.047 Y89.571 E12.59443
G1 X87.938 Y89.424 E12.62447
G1 X88.982 Y89.352 E12.65927
G1 X89.573 Y89.342 E12.67893
G1 X90.891 Y89.34 E12.72277
G1 X91.723 Y89.351 E12.75044
G1 X92.625 Y89.405 E12.7805
G1 X93.297 Y89.497 E12.80306
G1 X96.122 Y89.982 E12.89839
G1 X98.602 Y90.334 E12.9817
G1 X101.106 Y90.618 E13.06552
G1 X103.677 Y90.836 E13.15134
G1 X106.207 Y90.978 E13.23562
G1 X108.737 Y91.049 E13.3198
G1 X111.271 Y91.047 E13.40408
G1 X113.839 Y90.974 E13.48953
G1 X116.345 Y90.831 E13.57302
G1 X118.88 Y90.615 E13.65764
G1 X121.405 Y90.326 E13.74217
G1 X123.933 Y89.966 E13.8271
G1 X125.327 Y89.727 E13.87414
G1 X125.486 Y89.707 E13.87947
G1 X126.707 Y89.497 E13.92067
G1 X127.603 Y89.383 E13.95071
G1 X128.14 Y89.353 E13.9686
G1 X128.712 Y89.341 E13.98763
G1 X130.319 Y89.342 E14.04108
G1 X130.979 Y89.351 E14.06303
G1 X131.881 Y89.403 E14.09309
G1 X132.827 Y89.545 E14.1249
G1 X133.124 Y89.604 E14.13497
G1 X134.002 Y89.82 E14.16505
G1 X134.856 Y90.111 E14.19505
G1 X135.682 Y90.477 E14.2251
G1 X136.363 Y90.85 E14.25093
G1 X136.663 Y91.029 E14.26255
G1 X137.418 Y91.525 E14.29259
G1 X138.125 Y92.087 E14.32263
G1 X138.939 Y92.867 E14.36013
G1 X139.613 Y93.649 E14.39447
G1 X140.14 Y94.382 E14.42449
G1 X140.605 Y95.167 E14.45484
G1 X140.734 Y95.409 E14.46396
G1 X141.123 Y96.224 E14.494
G1 X141.439 Y97.07 E14.52403
G1 X141.739 Y98.227 E14.56379
G1 X141.795 Y98.51 E14.57338
G1 X141.931 Y99.403 E14.60343
G1 X141.988 Y100.328 E14.63425
G1 X141.998 Y100.957 E14.65517
G1 X142 Y108.583 E14.90882
G1 X141.989 Y109.533 E14.94042
G1 X141.959 Y110.364 E14.96807
G1 X141.885 Y111.346 E15.00083
G1 X141.825 Y111.872 E15.01843
G1 X141.674 Y112.883 E15.05243
G1 X141.576 Y113.412 E15.07033
G1 X141.464 Y113.942 E15.08834
G1 X141.333 Y114.486 E15.10696
G1 X141.197 Y114.991 E15.12435
G1 X141.034 Y115.542 E15.14346
G1 X140.886 Y116.003 E15.15957
G1 X140.54 Y116.964 E15.19354
G1 X140.339 Y117.465 E15.21149
G1 X139.921 Y118.404 E15.24568
G1 X139.699 Y118.858 E15.26249
G1 X139.441 Y119.354 E15.28108
G1 X139.18 Y119.824 E15.29896
G1 X138.656 Y120.693 E15.33271
G1 X138.351 Y121.161 E15.35129
G1 X138.058 Y121.587 E15.36849
G1 X137.742 Y122.022 E15.38637
G1 X137.438 Y122.42 E15.40303
G1 X137.076 Y122.87 E15.42224
G1 X136.76 Y123.244 E15.43852
G1 X136.408 Y123.641 E15.45617
G1 X136.052 Y124.022 E15.47351
G1 X135.319 Y124.753 E15.50794
G1 X134.922 Y125.121 E15.52595
G1 X134.538 Y125.459 E15.54296
G1 X134.088 Y125.836 E15.56249
G1 X133.456 Y126.332 E15.58921
G1 X133.067 Y126.616 E15.60523
G1 X132.472 Y127.029 E15.62932
G1 X131.987 Y127.346 E15.64859
G1 X131.509 Y127.639 E15.66724
G1 X131.086 Y127.885 E15.68351
G1 X130.636 Y128.132 E15.70059
G1 X130.178 Y128.368 E15.71772
G1 X129.65 Y128.624 E15.73724
G1 X129.196 Y128.831 E15.75384
G1 X128.684 Y129.049 E15.77234
G1 X128.21 Y129.237 E15.7893
G1 X127.718 Y129.418 E15.80674
G1 X126.702 Y129.75 E15.84229
G1 X126.064 Y129.929 E15.86433
G1 X125.335 Y130.108 E15.8893
G1 X124.648 Y130.257 E15.91268
G1 X123.634 Y130.428 E15.94688
G1 X123.144 Y130.494 E15.96332
G1 X122.622 Y130.551 E15.98079
G1 X122.122 Y130.593 E15.99748
G1 X121.501 Y130.63 E16.01817
G1 X121.02 Y130.647 E16.03418
G1 X119.922 Y130.66 E16.0707
G1 X99.955 Y130.659 E16.73481
G1 X98.836 Y130.642 E16.77203
G1 X97.83 Y130.59 E16.80553
G1 X97.312 Y130.545 E16.82283
G1 X96.788 Y130.485 E16.84037
G1 X95.759 Y130.331 E16.87497
G1 X95.23 Y130.232 E16.89287
G1 X94.699 Y130.118 E16.91094
G1 X94.069 Y129.965 E16.9325
G1 X93.539 Y129.821 E16.95077
G1 X92.656 Y129.546 E16.98153
G1 X92.15 Y129.37 E16.99935
G1 X91.192 Y128.997 E17.03354
G1 X90.732 Y128.799 E17.0502
G1 X90.247 Y128.576 E17.06795
G1 X89.801 Y128.358 E17.08446
G1 X89.305 Y128.1 E17.10306
G1 X88.842 Y127.844 E17.12065
G1 X88.359 Y127.56 E17.13929
G1 X87.49 Y127.005 E17.17358
G1 X86.816 Y126.533 E17.20095
G1 X86.46 Y126.265 E17.21577
G1 X85.876 Y125.805 E17.2405
G1 X85.417 Y125.422 E17.26038
G1 X85.009 Y125.06 E17.27852
G1 X84.632 Y124.707 E17.2957
G1 X83.906 Y123.979 E17.3299
G1 X83.538 Y123.582 E17.3479
G1 X83.187 Y123.183 E17.36558
G1 X82.804 Y122.724 E17.38546
G1 X82.196 Y121.939 E17.41848
G1 X81.913 Y121.545 E17.43462
G1 X81.595 Y121.08 E17.45336
G1 X81.32 Y120.657 E17.47014
G1 X80.787 Y119.768 E17.50461
G1 X80.543 Y119.326 E17.5214
G1 X80.296 Y118.847 E17.53933
G1 X80.037 Y118.313 E17.55907
G1 X79.82 Y117.836 E17.5765
G1 X79.603 Y117.323 E17.59502
G1 X79.244 Y116.381 E17.62855
G1 X79.088 Y115.925 E17.64458
G1 X78.916 Y115.38 E17.66359
G1 X78.775 Y114.893 E17.68045
G1 X78.636 Y114.362 E17.69871
G1 X78.414 Y113.362 E17.73278
G1 X78.322 Y112.861 E17.74972
G1 X78.232 Y112.293 E17.76885
G1 X78.166 Y111.804 E17.78526
G1 X78.109 Y111.282 E17.80273
