;FLAVOR:Marlin
;TIME:350
;Filament used: 0.267958m
;Layer height: 0.2
;MINX:77.2
;MINY:89.148
;MINZ:0.2
;MAXX:142.8
;MAXY:130.852
;MAXZ:4.2
;TARGET_MACHINE.NAME:Creality Ender-3 V3 SE
;Generated with Cura_SteamEngine 5.6.0
M140 S60
M105
M190 S60
M104 S210
M105
M109 S210
M82 ;absolute extrusion mode
M220 S100 ;Reset Feedrate
M221 S100 ;Reset Flowrate

G28 ;Home

M420 S1; Enable mesh leveling

G92 E0 ;Reset Extruder
G1 Z2.0 F3000 ;Move Z Axis up
G1 X10.1 Y20 Z0.28 F5000.0 ;Move to start position
M109 S[material_print_temperature_layer_0]
G1 X10.1 Y145.0 Z0.28 F1500.0 E15 ;Draw the first line
G1 X10.4 Y145.0 Z0.28 F5000.0 ;Move to side a little
G1 X10.4 Y20 Z0.28 F1500.0 E30 ;Draw the second line
G92 E0  ;Reset Extruder
G1 E-1.0000 F1800 ;Retract a bit
G1 Z2.0 F3000 ;Move Z Axis up
G1 E0.0000 F1800 

G92 E0
G92 E0
G1 F2400 E-0.8
;LAYER_COUNT:21
;LAYER:0
M107
G0 F9000 X80.669 Y92.149 Z0.2
;TYPE:SKIRT
G1 F2400 E0
G1 F1800 X81.379 Y91.535 E0.03122
G1 X82.198 Y90.945 E0.06479
G1 X83.037 Y90.449 E0.09721
G1 X83.851 Y90.058 E0.12724
G1 X84.828 Y89.69 E0.16197
G1 X85.732 Y89.44 E0.19316
G1 X86.734 Y89.257 E0.22704
G1 X87.881 Y89.162 E0.26532
G1 X88.53 Y89.148 E0.28691
G1 X90.765 Y89.149 E0.36125
G1 X91.507 Y89.162 E0.38593
G1 X92.47 Y89.222 E0.41802
G1 X93.173 Y89.32 E0.44163
G1 X96.195 Y89.842 E0.54363
G1 X98.727 Y90.202 E0.62869
G1 X101.185 Y90.48 E0.71097
G1 X103.733 Y90.698 E0.79602
G1 X106.229 Y90.838 E0.87917
G1 X108.755 Y90.909 E0.96322
G1 X111.245 Y90.909 E1.04604
G1 X113.784 Y90.836 E1.13052
G1 X116.298 Y90.695 E1.21427
G1 X118.787 Y90.483 E1.29735
G1 X121.307 Y90.195 E1.38171
G1 X123.789 Y89.842 E1.4651
G1 X126.883 Y89.31 E1.56951
G1 X127.779 Y89.197 E1.59955
G1 X128.406 Y89.161 E1.62044
G1 X129.03 Y89.148 E1.6412
G1 X131.236 Y89.149 E1.71457
G1 X131.969 Y89.16 E1.73895
G1 X132.941 Y89.217 E1.77134
G1 X133.904 Y89.363 E1.80373
G1 X134.85 Y89.592 E1.8361
G1 X135.774 Y89.904 E1.86854
G1 X136.664 Y90.296 E1.90089
G1 X137.487 Y90.747 E1.9321
G1 X138.326 Y91.308 E1.96567
G1 X139.03 Y91.874 E1.99571
G1 X139.783 Y92.599 E2.03048
G1 X140.42 Y93.335 E2.06286
G1 X140.95 Y94.066 E2.09289
G1 X141.486 Y94.963 E2.12764
G1 X141.908 Y95.841 E2.16004
G1 X142.25 Y96.753 E2.19244
G1 X142.51 Y97.691 E2.22481
G1 X142.688 Y98.658 E2.25752
G1 X142.785 Y99.803 E2.29573
G1 X142.8 Y100.478 E2.31819
G1 X142.799 Y108.262 E2.57709
G1 X142.782 Y109.362 E2.61368
G1 X142.73 Y110.352 E2.64665
G1 X142.679 Y110.944 E2.66641
G1 X142.619 Y111.48 E2.68435
G1 X142.463 Y112.521 E2.71936
G1 X142.365 Y113.051 E2.73729
G1 X142.247 Y113.604 E2.7561
G1 X142.106 Y114.184 E2.77595
G1 X141.825 Y115.186 E2.81056
G1 X141.668 Y115.681 E2.82783
G1 X141.477 Y116.234 E2.84729
G1 X141.092 Y117.226 E2.88268
G1 X140.89 Y117.697 E2.89973
G1 X140.645 Y118.227 E2.91915
G1 X140.409 Y118.709 E2.937
G1 X140.152 Y119.202 E2.95549
G1 X139.898 Y119.659 E2.97288
G1 X139.35 Y120.572 E3.0083
G1 X139.054 Y121.027 E3.02635
G1 X138.748 Y121.472 E3.04431
G1 X138.409 Y121.939 E3.06351
G1 X137.731 Y122.803 E3.10004
G1 X137.384 Y123.214 E3.11793
G1 X136.666 Y124.003 E3.15341
G1 X136.275 Y124.401 E3.17196
G1 X135.483 Y125.151 E3.20824
G1 X135.09 Y125.497 E3.22566
G1 X134.675 Y125.846 E3.24369
G1 X134.258 Y126.178 E3.26142
G1 X133.785 Y126.536 E3.28115
G1 X132.886 Y127.164 E3.31763
G1 X132.412 Y127.47 E3.33639
G1 X131.558 Y127.977 E3.36942
G1 X131.067 Y128.248 E3.38808
G1 X130.579 Y128.501 E3.40636
G1 X130.094 Y128.736 E3.42428
G1 X129.6 Y128.961 E3.44234
G1 X128.639 Y129.358 E3.47692
G1 X128.106 Y129.556 E3.49583
G1 X127.541 Y129.75 E3.5157
G1 X126.938 Y129.937 E3.5367
G1 X125.953 Y130.203 E3.57064
G1 X124.954 Y130.425 E3.60467
G1 X124.416 Y130.524 E3.62287
G1 X123.79 Y130.623 E3.64395
G1 X123.12 Y130.706 E3.6664
G1 X122.42 Y130.771 E3.68978
G1 X121.53 Y130.827 E3.71944
G1 X121.084 Y130.841 E3.73429
G1 X120.092 Y130.852 E3.76728
G1 X99.447 Y130.847 E4.45394
G1 X98.077 Y130.8 E4.49953
G1 X97.314 Y130.742 E4.52498
G1 X96.249 Y130.623 E4.56062
G1 X95.475 Y130.506 E4.58666
G1 X94.467 Y130.303 E4.62086
G1 X93.902 Y130.168 E4.64018
G1 X93.384 Y130.03 E4.65801
G1 X92.828 Y129.867 E4.67728
G1 X92.315 Y129.703 E4.69519
G1 X91.789 Y129.519 E4.71373
G1 X90.805 Y129.133 E4.74888
G1 X90.327 Y128.927 E4.7662
G1 X89.785 Y128.678 E4.78603
G1 X88.852 Y128.205 E4.82083
G1 X88.384 Y127.945 E4.83863
G1 X87.878 Y127.649 E4.85813
G1 X87.035 Y127.113 E4.89136
G1 X86.562 Y126.786 E4.91048
G1 X85.692 Y126.139 E4.94654
G1 X85.281 Y125.811 E4.96403
G1 X84.859 Y125.455 E4.98239
G1 X84.403 Y125.049 E5.0027
G1 X84.026 Y124.697 E5.01986
G1 X83.654 Y124.332 E5.03719
G1 X83.291 Y123.955 E5.0546
G1 X82.879 Y123.508 E5.07482
G1 X82.529 Y123.11 E5.09244
G1 X82.167 Y122.677 E5.11122
G1 X81.843 Y122.269 E5.12854
G1 X81.492 Y121.804 E5.14792
G1 X80.893 Y120.946 E5.18273
G1 X80.613 Y120.513 E5.19988
G1 X80.322 Y120.039 E5.21837
G1 X80.062 Y119.591 E5.2356
G1 X79.787 Y119.087 E5.2547
G1 X79.541 Y118.611 E5.27252
G1 X79.311 Y118.135 E5.2901
G1 X78.875 Y117.141 E5.3262
G1 X78.665 Y116.615 E5.34504
G1 X78.469 Y116.085 E5.36384
G1 X78.303 Y115.595 E5.38104
G1 X78.139 Y115.068 E5.3994
G1 X77.977 Y114.492 E5.4193
G1 X77.788 Y113.741 E5.44506
G1 X77.658 Y113.153 E5.46509
G1 X77.493 Y112.251 E5.49559
G1 X77.37 Y111.393 E5.52442
G1 X77.308 Y110.826 E5.54339
G1 X77.261 Y110.249 E5.56264
G1 X77.211 Y109.141 E5.59953
G1 X77.2 Y108.138 E5.63289
G1 X77.201 Y100.657 E5.88171
G1 X77.213 Y99.956 E5.90503
G1 X77.273 Y98.983 E5.93745
G1 X77.42 Y98.022 E5.96979
G1 X77.651 Y97.074 E6.00224
G1 X77.953 Y96.185 E6.03347
G1 X78.36 Y95.263 E6.06699
G1 X78.831 Y94.411 E6.09937
G1 X79.376 Y93.602 E6.13181
G1 X79.967 Y92.874 E6.163
G1 X80.669 Y92.149 E6.19657
G0 F9000 X80.931 Y92.452
G1 F1800 X81.641 Y91.838 E6.22779
G1 X82.402 Y91.289 E6.259
G1 X83.21 Y90.81 E6.29024
G1 X84.024 Y90.419 E6.32027
G1 X84.935 Y90.076 E6.35265
G1 X85.839 Y89.826 E6.38385
G1 X86.767 Y89.656 E6.41523
G1 X87.914 Y89.561 E6.45351
G1 X88.53 Y89.548 E6.474
G1 X90.758 Y89.549 E6.5481
G1 X91.483 Y89.561 E6.57222
G1 X92.415 Y89.618 E6.60328
G1 X93.105 Y89.714 E6.62645
G1 X96.139 Y90.238 E6.72885
G1 X98.671 Y90.598 E6.81391
G1 X101.151 Y90.879 E6.89693
G1 X103.699 Y91.096 E6.98198
G1 X106.218 Y91.238 E7.06589
G1 X108.744 Y91.309 E7.14994
G1 X111.256 Y91.309 E7.23349
G1 X113.795 Y91.236 E7.31797
G1 X116.332 Y91.093 E7.40249
G1 X118.821 Y90.881 E7.48557
G1 X121.363 Y90.591 E7.57067
G1 X123.845 Y90.238 E7.65405
G1 X126.933 Y89.707 E7.75827
G1 X127.829 Y89.594 E7.7883
G1 X128.414 Y89.561 E7.80779
G1 X129.03 Y89.548 E7.82828
G1 X131.23 Y89.549 E7.90146
G1 X131.946 Y89.559 E7.92527
G1 X132.882 Y89.613 E7.95646
G1 X133.811 Y89.752 E7.9877
G1 X134.723 Y89.971 E8.01889
G1 X135.613 Y90.27 E8.05012
G1 X136.472 Y90.647 E8.08132
G1 X137.295 Y91.098 E8.11254
G1 X138.075 Y91.62 E8.14375
G1 X138.779 Y92.186 E8.1738
G1 X139.481 Y92.861 E8.20619
G1 X140.096 Y93.57 E8.23741
G1 X140.626 Y94.301 E8.26744
G1 X141.126 Y95.137 E8.29984
G1 X141.534 Y95.982 E8.33105
G1 X141.865 Y96.86 E8.36225
G1 X142.117 Y97.764 E8.39347
G1 X142.289 Y98.692 E8.42486
G1 X142.386 Y99.837 E8.46308
G1 X142.4 Y100.478 E8.4844
G1 X142.399 Y108.256 E8.7431
G1 X142.383 Y109.341 E8.77919
G1 X142.332 Y110.317 E8.8117
G1 X142.281 Y110.9 E8.83116
G1 X142.223 Y111.421 E8.8486
G1 X142.07 Y112.448 E8.88313
G1 X141.974 Y112.967 E8.90069
G1 X141.858 Y113.51 E8.91916
G1 X141.721 Y114.076 E8.93852
G1 X141.444 Y115.065 E8.97268
G1 X141.29 Y115.55 E8.98961
G1 X141.102 Y116.094 E9.00875
G1 X140.926 Y116.565 E9.02548
G1 X140.724 Y117.068 E9.0435
G1 X140.522 Y117.539 E9.06055
G1 X140.286 Y118.051 E9.0793
G1 X140.055 Y118.524 E9.09681
G1 X139.802 Y119.008 E9.11497
G1 X139.555 Y119.453 E9.1319
G1 X139.014 Y120.354 E9.16686
G1 X138.725 Y120.8 E9.18453
G1 X138.424 Y121.237 E9.20218
G1 X138.091 Y121.696 E9.22104
G1 X137.781 Y122.101 E9.23801
G1 X137.425 Y122.545 E9.25693
G1 X137.088 Y122.945 E9.27433
G1 X136.38 Y123.723 E9.30932
G1 X136 Y124.111 E9.32738
G1 X135.219 Y124.851 E9.36317
G1 X134.833 Y125.191 E9.38027
G1 X134.426 Y125.533 E9.39796
G1 X134.016 Y125.859 E9.41538
G1 X133.552 Y126.211 E9.43475
G1 X133.138 Y126.508 E9.45169
G1 X132.669 Y126.828 E9.47058
G1 X132.207 Y127.126 E9.48886
G1 X131.365 Y127.627 E9.52145
G1 X130.883 Y127.893 E9.53976
G1 X130.405 Y128.141 E9.55767
G1 X129.928 Y128.372 E9.5753
G1 X129.447 Y128.591 E9.59288
G1 X128.499 Y128.983 E9.627
G1 X127.976 Y129.178 E9.64556
G1 X127.422 Y129.368 E9.66504
G1 X126.833 Y129.551 E9.68556
G1 X125.866 Y129.813 E9.71888
G1 X124.882 Y130.032 E9.75241
G1 X124.354 Y130.129 E9.77026
G1 X123.74 Y130.226 E9.79094
G1 X123.083 Y130.308 E9.81296
G1 X122.395 Y130.372 E9.83594
G1 X121.517 Y130.427 E9.8652
G1 X121.08 Y130.441 E9.87974
G1 X120.092 Y130.452 E9.91261
G1 X99.461 Y130.447 E10.5988
G1 X98.107 Y130.401 E10.64386
G1 X97.359 Y130.345 E10.6688
G1 X96.309 Y130.227 E10.70395
G1 X95.535 Y130.11 E10.72998
G1 X94.56 Y129.914 E10.76306
G1 X94.005 Y129.782 E10.78204
G1 X93.496 Y129.646 E10.79956
G1 X92.95 Y129.486 E10.81848
G1 X92.447 Y129.325 E10.83605
G1 X91.921 Y129.141 E10.85458
G1 X90.963 Y128.766 E10.8888
G1 X90.494 Y128.564 E10.90578
G1 X89.966 Y128.321 E10.92512
G1 X89.046 Y127.855 E10.95942
G1 X88.586 Y127.6 E10.97691
G1 X88.093 Y127.311 E10.99592
G1 X87.25 Y126.775 E11.02914
G1 X86.801 Y126.465 E11.04729
G1 X85.942 Y125.827 E11.08288
G1 X85.539 Y125.505 E11.10004
G1 X85.125 Y125.156 E11.11805
G1 X84.676 Y124.756 E11.13805
G1 X84.306 Y124.411 E11.15487
G1 X83.942 Y124.054 E11.17183
G1 X83.585 Y123.684 E11.18893
G1 X83.179 Y123.244 E11.20884
G1 X82.836 Y122.854 E11.22612
G1 X82.48 Y122.428 E11.24458
G1 X82.162 Y122.028 E11.26158
G1 X81.82 Y121.575 E11.28046
G1 X81.229 Y120.729 E11.31478
G1 X80.954 Y120.304 E11.33162
G1 X80.668 Y119.838 E11.3498
G1 X80.413 Y119.399 E11.36669
G1 X80.142 Y118.904 E11.38546
G1 X79.901 Y118.437 E11.40294
G1 X79.677 Y117.974 E11.42004
G1 X79.246 Y116.993 E11.45568
G1 X79.04 Y116.477 E11.47416
G1 X78.848 Y115.956 E11.49263
G1 X78.685 Y115.476 E11.50949
G1 X78.524 Y114.96 E11.52747
G1 X78.365 Y114.394 E11.54702
G1 X78.179 Y113.655 E11.57237
G1 X78.049 Y113.067 E11.5924
G1 X77.889 Y112.194 E11.62192
G1 X77.768 Y111.349 E11.65031
G1 X77.707 Y110.793 E11.66891
G1 X77.661 Y110.231 E11.68767
G1 X77.611 Y109.137 E11.72409
G1 X77.6 Y108.138 E11.75732
G1 X77.601 Y100.663 E12.00594
G1 X77.612 Y99.98 E12.02866
G1 X77.669 Y99.043 E12.05988
G1 X77.809 Y98.116 E12.09106
G1 X78.03 Y97.203 E12.12231
G1 X78.332 Y96.314 E12.15353
G1 X78.71 Y95.456 E12.18472
G1 X79.163 Y94.634 E12.21594
G1 X79.687 Y93.854 E12.24719
G1 X80.278 Y93.126 E12.27838
G1 X80.931 Y92.452 E12.30959
G0 F9000 X81.193 Y92.754
G1 F1800 X81.875 Y92.162 E12.33963
G1 X82.607 Y91.633 E12.36967
G1 X83.383 Y91.171 E12.3997
G1 X84.197 Y90.78 E12.42974
G1 X85.042 Y90.461 E12.45978
G1 X85.912 Y90.219 E12.48981
G1 X86.8 Y90.055 E12.51985
G1 X87.923 Y89.961 E12.55733
G1 X88.53 Y89.948 E12.57752
G1 X90.752 Y89.949 E12.65143
G1 X91.459 Y89.96 E12.67495
G1 X92.36 Y90.014 E12.70497
G1 X93.037 Y90.108 E12.7277
G1 X96.083 Y90.634 E12.83051
G1 X98.615 Y90.994 E12.91557
G1 X101.117 Y91.278 E12.99932
G1 X103.665 Y91.494 E13.08437
G1 X106.207 Y91.638 E13.16906
G1 X108.733 Y91.709 E13.2531
G1 X111.267 Y91.709 E13.33739
G1 X113.806 Y91.636 E13.42187
G1 X116.366 Y91.491 E13.50715
G1 X118.855 Y91.279 E13.59023
G1 X121.419 Y90.987 E13.67606
G1 X123.901 Y90.634 E13.75945
G1 X126.983 Y90.104 E13.86346
G1 X127.879 Y89.991 E13.8935
G1 X128.423 Y89.961 E13.91162
G1 X129.03 Y89.948 E13.93181
G1 X131.225 Y89.949 E14.00482
G1 X131.923 Y89.958 E14.02803
G1 X132.824 Y90.009 E14.05805
G1 X133.718 Y90.141 E14.08811
G1 X134.596 Y90.35 E14.11813
G1 X135.453 Y90.637 E14.14819
G1 X136.28 Y90.998 E14.1782
G1 X137.073 Y91.431 E14.20825
G1 X137.824 Y91.932 E14.23828
G1 X138.528 Y92.498 E14.26832
G1 X139.179 Y93.124 E14.29836
G1 X139.772 Y93.805 E14.32839
G1 X140.302 Y94.536 E14.35842
G1 X140.766 Y95.311 E14.38847
G1 X141.16 Y96.124 E14.41852
G1 X141.48 Y96.968 E14.44854
G1 X141.724 Y97.838 E14.47859
G1 X141.89 Y98.726 E14.50864
G1 X141.987 Y99.871 E14.54686
G1 X142 Y100.478 E14.56705
G1 X141.999 Y108.25 E14.82555
G1 X141.984 Y109.32 E14.86114
G1 X141.934 Y110.282 E14.89318
G1 X141.884 Y110.855 E14.91231
G1 X141.827 Y111.362 E14.92928
G1 X141.677 Y112.375 E14.96334
G1 X141.583 Y112.883 E14.98052
G1 X141.469 Y113.416 E14.99865
G1 X141.336 Y113.968 E15.01753
G1 X141.063 Y114.944 E15.05124
G1 X140.912 Y115.419 E15.06782
G1 X140.727 Y115.954 E15.08665
G1 X140.555 Y116.416 E15.10304
G1 X140.357 Y116.91 E15.12075
G1 X140.158 Y117.372 E15.13748
G1 X139.927 Y117.875 E15.15589
G1 X139.7 Y118.339 E15.17307
G1 X139.452 Y118.814 E15.19089
G1 X139.212 Y119.247 E15.20735
G1 X138.679 Y120.136 E15.24183
G1 X138.395 Y120.573 E15.25916
G1 X138.1 Y121.002 E15.27648
G1 X137.773 Y121.453 E15.29501
G1 X137.469 Y121.851 E15.31167
G1 X137.119 Y122.287 E15.33026
G1 X136.789 Y122.679 E15.34731
G1 X136.429 Y123.084 E15.36533
G1 X136.094 Y123.443 E15.38166
G1 X135.721 Y123.824 E15.39939
G1 X135.369 Y124.166 E15.41572
G1 X134.954 Y124.551 E15.43455
G1 X134.576 Y124.885 E15.45132
G1 X134.177 Y125.22 E15.46865
G1 X133.775 Y125.54 E15.48574
G1 X133.318 Y125.886 E15.5048
G1 X132.912 Y126.178 E15.52144
G1 X132.452 Y126.492 E15.53996
G1 X132.002 Y126.782 E15.55777
G1 X131.172 Y127.277 E15.58991
G1 X130.699 Y127.538 E15.60788
G1 X130.23 Y127.781 E15.62545
G1 X129.763 Y128.008 E15.64272
G1 X129.294 Y128.221 E15.65985
G1 X128.359 Y128.608 E15.69351
G1 X127.846 Y128.8 E15.71173
G1 X127.303 Y128.986 E15.73082
G1 X126.728 Y129.165 E15.75085
G1 X125.779 Y129.423 E15.78356
G1 X124.81 Y129.639 E15.81658
G1 X124.292 Y129.734 E15.83409
G1 X123.69 Y129.829 E15.85436
G1 X123.046 Y129.91 E15.87595
G1 X122.37 Y129.973 E15.89853
G1 X121.504 Y130.027 E15.92739
G1 X121.076 Y130.041 E15.94163
G1 X120.092 Y130.052 E15.97436
G1 X99.474 Y130.047 E16.66012
G1 X98.137 Y130.002 E16.70461
G1 X97.404 Y129.947 E16.72906
G1 X96.368 Y129.831 E16.76374
G1 X95.614 Y129.718 E16.78909
G1 X94.653 Y129.525 E16.8217
G1 X94.108 Y129.395 E16.84033
G1 X93.608 Y129.262 E16.85754
G1 X93.072 Y129.105 E16.87612
G1 X92.579 Y128.947 E16.89333
G1 X92.066 Y128.768 E16.91141
G1 X91.121 Y128.399 E16.94515
G1 X90.661 Y128.201 E16.9618
G1 X90.147 Y127.964 E16.98063
G1 X89.24 Y127.505 E17.01444
G1 X88.788 Y127.255 E17.03162
G1 X88.307 Y126.973 E17.05016
G1 X87.477 Y126.446 E17.08286
G1 X87.039 Y126.144 E17.10056
G1 X86.192 Y125.515 E17.13565
G1 X85.797 Y125.199 E17.15247
G1 X85.391 Y124.857 E17.17013
G1 X84.949 Y124.464 E17.1898
G1 X84.586 Y124.125 E17.20632
G1 X84.23 Y123.776 E17.2229
G1 X83.879 Y123.413 E17.2397
G1 X83.479 Y122.98 E17.2593
G1 X83.143 Y122.598 E17.27622
G1 X82.793 Y122.179 E17.29438
G1 X82.481 Y121.787 E17.31105
G1 X82.148 Y121.346 E17.32943
G1 X81.565 Y120.512 E17.36327
G1 X81.295 Y120.095 E17.37979
G1 X81.014 Y119.637 E17.39767
G1 X80.764 Y119.207 E17.41421
G1 X80.497 Y118.72 E17.43268
G1 X80.261 Y118.263 E17.44979
G1 X80.043 Y117.813 E17.46642
G1 X79.617 Y116.845 E17.50159
G1 X79.415 Y116.339 E17.51972
G1 X79.227 Y115.827 E17.53786
G1 X79.067 Y115.357 E17.55437
G1 X78.909 Y114.852 E17.57197
G1 X78.753 Y114.296 E17.59118
G1 X78.57 Y113.569 E17.61611
G1 X78.44 Y112.981 E17.63614
G1 X78.285 Y112.137 E17.66468
G1 X78.166 Y111.305 E17.69263
G1 X78.106 Y110.76 E17.71087
G1 X78.061 Y110.212 E17.72916
G1 X78.011 Y109.133 E17.76509
G1 X78 Y108.138 E17.79818
G1 X78.001 Y100.669 E18.0466
G1 X78.011 Y100.004 E18.06872
G1 X78.065 Y99.102 E18.09878
G1 X78.198 Y98.209 E18.1288
G1 X78.409 Y97.331 E18.15884
G1 X78.698 Y96.475 E18.18889
G1 X79.061 Y95.648 E18.21893
G1 X79.495 Y94.857 E18.24894
G1 X79.998 Y94.106 E18.279
G1 X80.566 Y93.404 E18.30903
G1 X81.193 Y92.754 E18.33907
G1 F2400 E17.53907
;MESH:battery-clamp-BodyPad.stl
G0 F9000 X88.614 Y99.483
G0 X99.341 Y119.252
;TYPE:WALL-INNER
G1 F2400 E18.33907
G1 F1800 X120.705 Y119.251 E19.04964
G1 X121.192 Y119.239 E19.06584
G1 X121.71 Y119.198 E19.08313
G1 X122.224 Y119.136 E19.10035
G1 X122.746 Y119.045 E19.11797
G1 X123.232 Y118.935 E19.13454
G1 X123.73 Y118.797 E19.15173
G1 X124.219 Y118.635 E19.16886
G1 X124.704 Y118.448 E19.18615
G1 X125.191 Y118.231 E19.20389
