;FLAVOR:Marlin
;TIME:10555
;Filament used: 20.1608m
;Layer height: 0.28
;MINX:9
;MINY:44
;MINZ:0.28
;MAXX:211
;MAXY:176
;MAXZ:3.08
;TARGET_MACHINE.NAME:Creality Ender-3 V3 SE
;Generated with Cura_SteamEngine 5.6.0
M140 S60
M105
M190 S60
M104 S210
M105
M109 S210
M82 ;absolute extrusion mode
M220 S100 ;Reset Feedrate
M221 S100 ;Reset Flowrate

G28 ;Home

M420 S1; Enable mesh leveling

G92 E0 ;Reset Extruder
G1 Z2.0 F3000 ;Move Z Axis up
G1 X10.1 Y20 Z0.28 F5000.0 ;Move to start position
M109 S[material_print_temperature_layer_0]
G1 X10.1 Y145.0 Z0.28 F1500.0 E15 ;Draw the first line
G1 X10.4 Y145.0 Z0.28 F5000.0 ;Move to side a little
G1 X10.4 Y20 Z0.28 F1500.0 E30 ;Draw the second line
G92 E0  ;Reset Extruder
G1 E-1.0000 F1800 ;Retract a bit
G1 Z2.0 F3000 ;Move Z Axis up
G1 E0.0000 F1800 

G92 E0
G92 E0
G1 F2400 E-0.8
;LAYER_COUNT:11
;LAYER:0
M107
G0 F9000 X20.243 Y45.094 Z0.28
;TYPE:SKIRT
G1 F2400 E0
G1 F1800 X21.139 Y44.712 E0.04536
G1 X21.997 Y44.43 E0.08741
G1 X23.015 Y44.192 E0.13609
G1 X23.974 Y44.06 E0.18117
G1 X24.795 Y44.012 E0.21946
G1 X25.514 Y44 E0.25295
G1 X103.308 Y44 E3.87536
G1 X104.465 Y44.019 E3.92924
G1 X106.37 Y44.109 E4.01805
G1 X108.88 Y44.178 E4.13497
G1 X111.369 Y44.175 E4.25086
G1 X113.957 Y44.099 E4.37142
G1 X115.687 Y44.015 E4.45208
G1 X116.205 Y44.003 E4.4762
G1 X194.304 Y44 E8.11282
G1 X195.188 Y44.013 E8.15399
G1 X196.16 Y44.072 E8.19933
G1 X197.123 Y44.218 E8.24468
G1 X198.07 Y44.449 E8.29007
G1 X198.926 Y44.737 E8.33213
G1 X199.882 Y45.155 E8.38071
G1 X200.733 Y45.625 E8.42598
G1 X201.484 Y46.127 E8.46804
G1 X202.297 Y46.784 E8.51671
G1 X202.956 Y47.417 E8.55926
G1 X203.806 Y48.311 E8.6167
G1 X205.605 Y50.139 E8.73613
G1 X207.634 Y52.094 E8.86733
G1 X208.315 Y52.815 E8.91351
G1 X208.918 Y53.579 E8.95883
G1 X209.451 Y54.394 E9.00418
G1 X209.911 Y55.253 E9.04955
G1 X210.291 Y56.149 E9.09487
G1 X210.593 Y57.076 E9.14027
G1 X210.809 Y58.025 E9.18559
G1 X210.941 Y58.984 E9.23066
G1 X210.988 Y59.816 E9.26946
G1 X211 Y60.582 E9.30514
G1 X210.999 Y159.451 E13.90889
G1 X210.987 Y160.188 E13.94321
G1 X210.928 Y161.16 E13.98856
G1 X210.782 Y162.123 E14.03391
G1 X210.551 Y163.07 E14.0793
G1 X210.238 Y163.991 E14.1246
G1 X209.844 Y164.883 E14.17
G1 X209.373 Y165.736 E14.21537
G1 X208.83 Y166.542 E14.26063
G1 X208.241 Y167.271 E14.30427
G1 X207.583 Y167.956 E14.3485
G1 X206.684 Y168.811 E14.40627
G1 X204.854 Y170.612 E14.52582
G1 X202.906 Y172.634 E14.65656
G1 X202.185 Y173.315 E14.70274
G1 X201.421 Y173.918 E14.74806
G1 X200.606 Y174.451 E14.79341
G1 X199.747 Y174.911 E14.83878
G1 X198.851 Y175.291 E14.8841
G1 X197.924 Y175.593 E14.9295
G1 X196.975 Y175.809 E14.97482
G1 X196.016 Y175.941 E15.01989
G1 X195.182 Y175.989 E15.05879
G1 X194.576 Y175.999 E15.08701
G1 X116.693 Y176 E18.71357
G1 X115.535 Y175.981 E18.7675
G1 X113.63 Y175.891 E18.8563
G1 X111.12 Y175.822 E18.97323
G1 X108.631 Y175.825 E19.08912
G1 X106.043 Y175.901 E19.20968
G1 X104.313 Y175.985 E19.29033
G1 X103.795 Y175.997 E19.31446
G1 X25.696 Y176 E22.95108
G1 X24.812 Y175.987 E22.99224
G1 X23.84 Y175.928 E23.03759
G1 X22.877 Y175.782 E23.08294
G1 X21.93 Y175.551 E23.12833
G1 X21.074 Y175.263 E23.17039
G1 X20.118 Y174.845 E23.21897
G1 X19.267 Y174.375 E23.26424
G1 X18.516 Y173.873 E23.3063
G1 X17.703 Y173.216 E23.35497
G1 X17.044 Y172.583 E23.39752
G1 X16.189 Y171.684 E23.45529
G1 X14.388 Y169.854 E23.57485
G1 X12.366 Y167.906 E23.70559
G1 X11.685 Y167.185 E23.75177
G1 X11.082 Y166.421 E23.79709
G1 X10.549 Y165.606 E23.84244
G1 X10.089 Y164.747 E23.88781
G1 X9.709 Y163.851 E23.93313
G1 X9.407 Y162.924 E23.97852
G1 X9.191 Y161.975 E24.02384
G1 X9.059 Y161.016 E24.06892
G1 X9.011 Y160.182 E24.10782
G1 X9.001 Y159.576 E24.13604
G1 X9 Y60.696 E28.74031
G1 X9.013 Y59.812 E28.78148
G1 X9.072 Y58.84 E28.82682
G1 X9.218 Y57.877 E28.87217
G1 X9.449 Y56.93 E28.91756
G1 X9.737 Y56.074 E28.95962
G1 X10.155 Y55.118 E29.0082
G1 X10.625 Y54.267 E29.05347
G1 X11.127 Y53.516 E29.09553
G1 X11.782 Y52.703 E29.14415
G1 X12.394 Y52.066 E29.18528
G1 X13.506 Y51.002 E29.25694
G1 X15.293 Y49.239 E29.37383
G1 X17.086 Y47.374 E29.4943
G1 X17.806 Y46.693 E29.54045
G1 X18.571 Y46.088 E29.58586
G1 X19.385 Y45.555 E29.63117
G1 X20.243 Y45.094 E29.67652
G0 F9000 X20.401 Y45.462
G1 F1800 X21.264 Y45.092 E29.72024
G1 X22.122 Y44.81 E29.7623
G1 X23.07 Y44.588 E29.80763
G1 X23.997 Y44.459 E29.85122
G1 X24.802 Y44.412 E29.88876
G1 X25.521 Y44.4 E29.92225
G1 X103.301 Y44.4 E33.54401
G1 X104.446 Y44.419 E33.59733
G1 X106.351 Y44.509 E33.68614
G1 X108.869 Y44.578 E33.80343
G1 X111.381 Y44.575 E33.9204
G1 X113.977 Y44.499 E34.04133
G1 X115.696 Y44.415 E34.12147
G1 X116.205 Y44.403 E34.14518
G1 X194.298 Y44.4 E37.78152
G1 X195.164 Y44.412 E37.82184
G1 X196.101 Y44.468 E37.86555
G1 X197.029 Y44.607 E37.90925
G1 X197.942 Y44.828 E37.95299
G1 X198.798 Y45.116 E37.99504
G1 X199.689 Y45.506 E38.04033
G1 X200.511 Y45.958 E38.08401
G1 X201.262 Y46.46 E38.12607
G1 X202.02 Y47.072 E38.17144
G1 X202.666 Y47.693 E38.21316
G1 X203.521 Y48.592 E38.27093
G1 X205.327 Y50.427 E38.39082
G1 X207.356 Y52.382 E38.52202
G1 X208.001 Y53.063 E38.5657
G1 X208.584 Y53.799 E38.60942
G1 X209.099 Y54.583 E38.65309
G1 X209.543 Y55.41 E38.6968
G1 X209.911 Y56.273 E38.74049
G1 X210.203 Y57.166 E38.78424
G1 X210.413 Y58.08 E38.8279
G1 X210.542 Y59.007 E38.87149
G1 X210.588 Y59.822 E38.9095
G1 X210.6 Y60.582 E38.94489
G1 X210.599 Y159.445 E43.54836
G1 X210.588 Y160.164 E43.58185
G1 X210.532 Y161.101 E43.62556
G1 X210.393 Y162.029 E43.66925
G1 X210.172 Y162.942 E43.71299
G1 X209.872 Y163.83 E43.75664
G1 X209.494 Y164.69 E43.80038
G1 X209.041 Y165.513 E43.84412
G1 X208.518 Y166.291 E43.88777
G1 X207.952 Y166.994 E43.9298
G1 X207.307 Y167.666 E43.97317
G1 X206.408 Y168.521 E44.03094
G1 X204.573 Y170.327 E44.15083
G1 X202.618 Y172.356 E44.28203
G1 X201.937 Y173.001 E44.3257
G1 X201.201 Y173.584 E44.36942
G1 X200.417 Y174.099 E44.4131
G1 X199.59 Y174.543 E44.45681
G1 X198.727 Y174.911 E44.5005
G1 X197.834 Y175.203 E44.54424
G1 X196.92 Y175.413 E44.58791
G1 X195.993 Y175.542 E44.63149
G1 X195.175 Y175.589 E44.66965
G1 X194.576 Y175.599 E44.69754
G1 X116.7 Y175.6 E48.32377
G1 X115.554 Y175.581 E48.37714
G1 X113.649 Y175.491 E48.46595
G1 X111.131 Y175.422 E48.58324
G1 X108.619 Y175.425 E48.70021
G1 X106.023 Y175.501 E48.82114
G1 X104.304 Y175.585 E48.90128
G1 X103.795 Y175.597 E48.92499
G1 X25.702 Y175.6 E52.56133
G1 X24.836 Y175.588 E52.60166
G1 X23.899 Y175.532 E52.64536
G1 X22.971 Y175.393 E52.68906
G1 X22.058 Y175.172 E52.7328
G1 X21.202 Y174.884 E52.77485
G1 X20.311 Y174.494 E52.82014
G1 X19.489 Y174.042 E52.86382
G1 X18.738 Y173.54 E52.90589
G1 X17.98 Y172.928 E52.95125
G1 X17.334 Y172.307 E52.99297
G1 X16.479 Y171.408 E53.05074
G1 X14.673 Y169.573 E53.17063
G1 X12.644 Y167.618 E53.30183
G1 X11.999 Y166.937 E53.34551
G1 X11.416 Y166.201 E53.38923
G1 X10.901 Y165.417 E53.4329
G1 X10.457 Y164.59 E53.47661
G1 X10.089 Y163.727 E53.5203
G1 X9.797 Y162.834 E53.56405
G1 X9.587 Y161.92 E53.60772
G1 X9.458 Y160.993 E53.6513
G1 X9.411 Y160.175 E53.68945
G1 X9.401 Y159.576 E53.71734
G1 X9.4 Y60.702 E58.32133
G1 X9.412 Y59.836 E58.36166
G1 X9.468 Y58.899 E58.40537
G1 X9.607 Y57.971 E58.44906
G1 X9.828 Y57.058 E58.4928
G1 X10.116 Y56.202 E58.53486
G1 X10.506 Y55.311 E58.58015
G1 X10.958 Y54.489 E58.62383
G1 X11.46 Y53.738 E58.66589
G1 X12.071 Y52.98 E58.71123
G1 X12.671 Y52.355 E58.75157
G1 X13.783 Y51.291 E58.82323
G1 X15.574 Y49.524 E58.94038
G1 X17.374 Y47.651 E59.06135
G1 X18.055 Y47.006 E59.10502
G1 X18.791 Y46.422 E59.14877
G1 X19.575 Y45.907 E59.19245
G1 X20.401 Y45.462 E59.23614
G0 F9000 X20.559 Y45.829
G1 F1800 X21.389 Y45.472 E59.27821
G1 X22.247 Y45.19 E59.32026
G1 X23.126 Y44.984 E59.3623
G1 X24.02 Y44.858 E59.40434
G1 X24.809 Y44.812 E59.44114
G1 X25.528 Y44.8 E59.47463
G1 X103.294 Y44.8 E63.09574
G1 X104.427 Y44.819 E63.1485
G1 X106.332 Y44.909 E63.23731
G1 X108.858 Y44.978 E63.35497
G1 X111.393 Y44.975 E63.47301
G1 X113.997 Y44.899 E63.59432
G1 X115.706 Y44.815 E63.67399
G1 X116.205 Y44.803 E63.69723
G1 X194.293 Y44.8 E67.33334
G1 X195.141 Y44.811 E67.37283
G1 X196.043 Y44.864 E67.4149
G1 X196.936 Y44.996 E67.45693
G1 X197.814 Y45.207 E67.49898
G1 X198.67 Y45.495 E67.54104
G1 X199.497 Y45.857 E67.58307
G1 X200.289 Y46.291 E67.62513
G1 X201.04 Y46.793 E67.66719
G1 X201.743 Y47.36 E67.70924
G1 X202.376 Y47.969 E67.75014
G1 X203.232 Y48.867 E67.80791
G1 X205.049 Y50.715 E67.92859
G1 X207.066 Y52.658 E68.059
G1 X207.688 Y53.312 E68.10103
G1 X208.25 Y54.019 E68.14308
G1 X208.747 Y54.773 E68.18513
G1 X209.175 Y55.568 E68.22717
G1 X209.531 Y56.398 E68.26923
G1 X209.813 Y57.256 E68.31128
G1 X210.017 Y58.136 E68.35335
G1 X210.143 Y59.03 E68.39539
G1 X210.188 Y59.828 E68.4326
G1 X210.2 Y60.582 E68.46772
G1 X210.199 Y159.439 E73.07091
G1 X210.189 Y160.141 E73.1036
G1 X210.136 Y161.043 E73.14568
G1 X210.004 Y161.936 E73.18771
G1 X209.793 Y162.814 E73.22976
G1 X209.505 Y163.67 E73.27181
G1 X209.143 Y164.498 E73.31389
G1 X208.709 Y165.29 E73.35594
G1 X208.206 Y166.04 E73.39799
G1 X207.64 Y166.743 E73.44002
G1 X207.031 Y167.376 E73.48092
G1 X206.133 Y168.232 E73.53869
G1 X204.285 Y170.049 E73.65937
G1 X202.342 Y172.066 E73.78978
G1 X201.688 Y172.688 E73.8318
G1 X200.981 Y173.25 E73.87386
G1 X200.227 Y173.747 E73.91591
G1 X199.432 Y174.175 E73.95795
G1 X198.602 Y174.531 E74
G1 X197.744 Y174.813 E74.04206
G1 X196.864 Y175.017 E74.08412
G1 X195.97 Y175.143 E74.12616
G1 X195.168 Y175.189 E74.16357
G1 X194.576 Y175.199 E74.19114
G1 X116.707 Y175.2 E77.81704
G1 X115.573 Y175.181 E77.86986
G1 X113.668 Y175.091 E77.95866
G1 X111.142 Y175.022 E78.07632
G1 X108.607 Y175.025 E78.19436
G1 X106.003 Y175.101 E78.31567
G1 X104.294 Y175.185 E78.39534
G1 X103.795 Y175.197 E78.41859
G1 X25.707 Y175.2 E82.05469
G1 X24.859 Y175.189 E82.09418
G1 X23.957 Y175.136 E82.13625
G1 X23.064 Y175.004 E82.17829
G1 X22.186 Y174.793 E82.22033
G1 X21.33 Y174.505 E82.26239
G1 X20.503 Y174.143 E82.30443
G1 X19.711 Y173.709 E82.34648
G1 X18.96 Y173.207 E82.38854
G1 X18.257 Y172.64 E82.4306
G1 X17.624 Y172.031 E82.4715
G1 X16.768 Y171.133 E82.52927
G1 X14.951 Y169.285 E82.64994
G1 X12.934 Y167.342 E82.78035
G1 X12.312 Y166.688 E82.82238
G1 X11.75 Y165.981 E82.86443
G1 X11.253 Y165.227 E82.90648
G1 X10.825 Y164.432 E82.94853
G1 X10.469 Y163.602 E82.99058
G1 X10.187 Y162.744 E83.03263
G1 X9.983 Y161.864 E83.0747
G1 X9.857 Y160.97 E83.11674
G1 X9.811 Y160.168 E83.15414
G1 X9.801 Y159.576 E83.18171
G1 X9.8 Y60.707 E87.78547
G1 X9.811 Y59.859 E87.82496
G1 X9.864 Y58.957 E87.86703
G1 X9.996 Y58.064 E87.90906
G1 X10.207 Y57.186 E87.95111
G1 X10.495 Y56.33 E87.99317
G1 X10.857 Y55.503 E88.0352
G1 X11.291 Y54.711 E88.07726
G1 X11.793 Y53.96 E88.11932
G1 X12.36 Y53.257 E88.16137
G1 X12.96 Y52.632 E88.20172
G1 X14.064 Y51.576 E88.27285
G1 X15.855 Y49.809 E88.39001
G1 X17.65 Y47.941 E88.51064
G1 X18.304 Y47.319 E88.55266
G1 X19.011 Y46.756 E88.59475
G1 X19.765 Y46.259 E88.6368
G1 X20.559 Y45.829 E88.67884
G1 F2400 E87.87884
;MESH:internal-drill-holes-blank.stl
G0 F9000 X25.748 Y54.335
G0 X103.433 Y164.399
;TYPE:WALL-INNER
G1 F2400 E88.67884
G1 F1800 X103.471 Y164.035 E88.69589
G1 X103.531 Y163.684 E88.71247
G1 X103.609 Y163.35 E88.72844
G1 X103.691 Y163.058 E88.74256
G1 X103.792 Y162.761 E88.75717
G1 X103.922 Y162.427 E88.77386
G1 X104.05 Y162.143 E88.78836
G1 X104.187 Y161.875 E88.80238
G1 X104.375 Y161.545 E88.82006
G1 X104.551 Y161.277 E88.83499
G1 X104.744 Y161.008 E88.85041
G1 X104.949 Y160.751 E88.86572
G1 X105.156 Y160.518 E88.88023
G1 X105.397 Y160.269 E88.89636
G1 X105.638 Y160.046 E88.91165
G1 X105.902 Y159.826 E88.92765
G1 X106.141 Y159.645 E88.94162
G1 X106.44 Y159.441 E88.95847
G1 X106.693 Y159.288 E88.97224
G1 X107.011 Y159.115 E88.98909
G1 X107.279 Y158.988 E89.0029
G1 X107.585 Y158.859 E89.01837
G1 X107.918 Y158.737 E89.03488
G1 X108.204 Y158.648 E89.04883
G1 X108.523 Y158.566 E89.06416
G1 X108.871 Y158.496 E89.08069
G1 X109.19 Y158.45 E89.0957
G1 X109.513 Y158.417 E89.11082
G1 X109.845 Y158.402 E89.12629
G1 X110.157 Y158.402 E89.14082
G1 X110.519 Y158.42 E89.1577
G1 X110.836 Y158.453 E89.17254
G1 X111.139 Y158.498 E89.1868
G1 X111.472 Y158.566 E89.20263
G1 X111.805 Y158.651 E89.21863
G1 X112.117 Y158.748 E89.23385
G1 X112.404 Y158.853 E89.24808
G1 X112.735 Y158.993 E89.26481
G1 X113.009 Y159.125 E89.27897
G1 X113.323 Y159.296 E89.29562
G1 X113.653 Y159.5 E89.31369
G1 X114.107 Y159.834 E89.33993
G1 X114.367 Y160.05 E89.35567
G1 X114.846 Y160.518 E89.38685
G1 X115.063 Y160.765 E89.40216
G1 X115.248 Y160.995 E89.41591
G1 X115.464 Y161.298 E89.43324
G1 X115.629 Y161.553 E89.44738
G1 X115.799 Y161.849 E89.46327
G1 X115.958 Y162.156 E89.47937
G1 X116.111 Y162.498 E89.49682
G1 X116.305 Y163.047 E89.52393
G1 X116.465 Y163.664 E89.55361
G1 X116.527 Y164.022 E89.57053
G1 X116.572 Y164.4 E89.58825
G1 X194.434 Y164.399 E93.21383
G1 X194.501 Y163.939 E93.23548
G1 X194.638 Y163.382 E93.26219
G1 X194.79 Y162.935 E93.28417
G1 X195.067 Y162.345 E93.31452
G1 X195.252 Y162.018 E93.33202
G1 X195.669 Y161.449 E93.36487
G1 X195.983 Y161.089 E93.38711
G1 X196.592 Y160.548 E93.42504
G1 X197.084 Y160.218 E93.45263
G1 X197.391 Y160.045 E93.46904
G1 X197.868 Y159.823 E93.49353
G1 X198.389 Y159.636 E93.51931
G1 X198.917 Y159.504 E93.54465
G1 X199.4 Y159.422 E93.56746
G1 X199.4 Y60.565 E98.17066
G1 X198.874 Y60.485 E98.19544
G1 X198.25 Y60.331 E98.22536
G1 X197.578 Y60.049 E98.2593
G1 X197.096 Y59.79 E98.28478
G1 X196.515 Y59.391 E98.3176
G1 X196.027 Y58.948 E98.34829
G1 X195.699 Y58.588 E98.37096
G1 X195.327 Y58.085 E98.40009
G1 X194.996 Y57.529 E98.43022
G1 X194.812 Y57.107 E98.45166
G1 X194.653 Y56.669 E98.47336
G1 X194.499 Y56.053 E98.50293
G1 X194.433 Y55.601 E98.5242
G1 X116.571 Y55.6 E102.14978
G1 X116.526 Y55.989 E102.16801
G1 X116.475 Y56.284 E102.18195
G1 X116.309 Y56.939 E102.21341
G1 X116.204 Y57.249 E102.22865
G1 X116.081 Y57.566 E102.24449
G1 X115.954 Y57.852 E102.25906
G1 X115.743 Y58.259 E102.28041
G1 X115.468 Y58.695 E102.30441
G1 X115.258 Y58.989 E102.32123
G1 X115.051 Y59.249 E102.33671
G1 X114.844 Y59.482 E102.35122
G1 X114.604 Y59.73 E102.36729
G1 X114.362 Y59.955 E102.38268
G1 X114.101 Y60.172 E102.39848
G1 X113.858 Y60.356 E102.41267
G1 X113.563 Y60.556 E102.42927
G1 X113.308 Y60.712 E102.44319
G1 X112.994 Y60.883 E102.45984
G1 X112.413 Y61.145 E102.48952
G1 X112.111 Y61.253 E102.50445
G1 X111.791 Y61.352 E102.52005
G1 X111.449 Y61.44 E102.53649
G1 X111.134 Y61.504 E102.55146
G1 X110.823 Y61.549 E102.56609
G1 X110.486 Y61.583 E102.58186
G1 X110.155 Y61.598 E102.59729
G1 X109.843 Y61.598 E102.61182
G1 X109.481 Y61.58 E102.6287
G1 X109.164 Y61.547 E102.64354
G1 X108.862 Y61.502 E102.65776
G1 X108.514 Y61.432 E102.67428
G1 X108.213 Y61.353 E102.68877
G1 X107.878 Y61.251 E102.70508
G1 X107.595 Y61.147 E102.71912
G1 X107.261 Y61.006 E102.736
G1 X106.983 Y60.87 E102.75041
G1 X106.677 Y60.704 E102.76662
G1 X106.347 Y60.5 E102.78469
G1 X105.893 Y60.166 E102.81093
G1 X105.65 Y59.965 E102.82562
G1 X105.387 Y59.72 E102.84235
G1 X105.157 Y59.484 E102.8577
G1 X104.961 Y59.264 E102.87142
G1 X104.722 Y58.965 E102.88924
G1 X104.384 Y58.468 E102.91723
G1 X104.193 Y58.139 E102.93494
G1 X104.055 Y57.87 E102.94902
G1 X103.909 Y57.543 E102.9657
G1 X103.795 Y57.252 E102.98025
G1 X103.704 Y56.984 E102.99343
G1 X103.603 Y56.625 E103.01079
G1 X103.538 Y56.347 E103.02409
G1 X103.476 Y56.006 E103.04023
G1 X103.428 Y55.6 E103.05926
G1 X25.585 Y55.6 E106.68396
G1 X25.424 Y56.391 E106.72155
G1 X25.248 Y56.97 E106.74973
G1 X24.937 Y57.646 E106.78437
G1 X24.708 Y58.043 E106.80572
G1 X24.326 Y58.555 E106.83546
G1 X23.966 Y58.956 E106.86055
G1 X23.614 Y59.284 E106.88296
G1 X23.095 Y59.666 E106.91296
G1 X22.529 Y60.004 E106.94366
G1 X22.111 Y60.186 E106.96489
G1 X21.602 Y60.367 E106.99005
G1 X21.069 Y60.497 E107.01559
G1 X20.6 Y60.566 E107.03767
G1 X20.601 Y159.434 E111.64137
G1 X21.061 Y159.501 E111.66302
G1 X21.618 Y159.638 E111.68973
G1 X22.065 Y159.79 E111.71171
G1 X22.651 Y160.065 E111.74185
G1 X22.982 Y160.252 E111.75956
G1 X23.551 Y160.669 E111.79241
G1 X23.912 Y160.983 E111.81468
G1 X24.449 Y161.589 E111.85239
G1 X24.781 Y162.084 E111.88014
