;FLAVOR:Marlin
;TIME:2963
;Filament used: 3.53505m
;Layer height: 0.2
;MINX:12.641
;MINY:81.22
;MINZ:0.2
;MAXX:207.36
;MAXY:138.78
;MAXZ:2.4
;TARGET_MACHINE.NAME:Creality Ender-3 V3 SE
;Generated with Cura_SteamEngine 5.6.0
M140 S60
M105
M190 S60
M104 S210
M105
M109 S210
M82 ;absolute extrusion mode
M220 S100 ;Reset Feedrate
M221 S100 ;Reset Flowrate

G28 ;Home

M420 S1; Enable mesh leveling

G92 E0 ;Reset Extruder
G1 Z2.0 F3000 ;Move Z Axis up
G1 X10.1 Y20 Z0.28 F5000.0 ;Move to start position
M109 S[material_print_temperature_layer_0]
G1 X10.1 Y145.0 Z0.28 F1500.0 E15 ;Draw the first line
G1 X10.4 Y145.0 Z0.28 F5000.0 ;Move to side a little
G1 X10.4 Y20 Z0.28 F1500.0 E30 ;Draw the second line
G92 E0  ;Reset Extruder
G1 E-1.0000 F1800 ;Retract a bit
G1 Z2.0 F3000 ;Move Z Axis up
G1 E0.0000 F1800 

G92 E0
G92 E0
G1 F2400 E-0.8
;LAYER_COUNT:12
;LAYER:0
M107
G0 F9000 X23.202 Y81.67 Z0.2
;TYPE:SKIRT
G1 F2400 E0
G1 F1800 X23.805 Y81.532 E0.02057
G1 X24.757 Y81.357 E0.05277
G1 X25.496 Y81.281 E0.07748
G1 X26.384 Y81.233 E0.10706
G1 X27.156 Y81.22 E0.13274
G1 X192.681 Y81.22 E5.63812
G1 X193.856 Y81.237 E5.6772
G1 X194.825 Y81.296 E5.70949
G1 X195.683 Y81.421 E5.73833
G1 X196.076 Y81.494 E5.75163
G1 X197.008 Y81.708 E5.78343
G1 X198.029 Y82.033 E5.81907
G1 X199.009 Y82.419 E5.8541
G1 X199.835 Y82.82 E5.88464
G1 X200.826 Y83.383 E5.92255
G1 X201.861 Y84.113 E5.96467
G1 X202.144 Y84.339 E5.97672
G1 X202.865 Y84.969 E6.00857
G1 X203.259 Y85.345 E6.02668
G1 X203.913 Y86.028 E6.05813
G1 X204.732 Y87.083 E6.10255
G1 X205.097 Y87.622 E6.1242
G1 X205.606 Y88.448 E6.15647
G1 X205.993 Y89.214 E6.18502
G1 X206.17 Y89.605 E6.19929
G1 X206.596 Y90.694 E6.23819
G1 X206.708 Y91.037 E6.25019
G1 X207.024 Y92.233 E6.29133
G1 X207.125 Y92.74 E6.30853
G1 X207.271 Y93.694 E6.34063
G1 X207.324 Y94.41 E6.36451
G1 X207.358 Y95.459 E6.39941
G1 X207.36 Y124.074 E7.35115
G1 X207.344 Y125.184 E7.38807
G1 X207.269 Y126.297 E7.42518
G1 X207.228 Y126.64 E7.43667
G1 X207.056 Y127.677 E7.47163
G1 X206.727 Y128.91 E7.51407
G1 X206.605 Y129.284 E7.52716
G1 X206.238 Y130.248 E7.56147
G1 X206.099 Y130.563 E7.57292
G1 X205.579 Y131.593 E7.61129
G1 X205.397 Y131.909 E7.62342
G1 X204.872 Y132.733 E7.65592
G1 X204.525 Y133.201 E7.6753
G1 X204.247 Y133.552 E7.69019
G1 X203.57 Y134.331 E7.72451
G1 X203.257 Y134.657 E7.73955
G1 X202.576 Y135.306 E7.77083
G1 X201.68 Y136.013 E7.8088
G1 X201.051 Y136.456 E7.83438
G1 X200.229 Y136.98 E7.86681
G1 X199.402 Y137.411 E7.89782
G1 X198.728 Y137.7 E7.92222
G1 X198.232 Y137.892 E7.93991
G1 X197.317 Y138.2 E7.97202
G1 X196.591 Y138.383 E7.99692
G1 X195.967 Y138.516 E8.01814
G1 X195.014 Y138.675 E8.05027
G1 X194.238 Y138.743 E8.07618
G1 X193.335 Y138.775 E8.10624
G1 X27.319 Y138.78 E13.62795
G1 X26.312 Y138.765 E13.66145
G1 X25.434 Y138.719 E13.69069
G1 X24.314 Y138.578 E13.72823
G1 X23.918 Y138.505 E13.74163
G1 X23.037 Y138.305 E13.77168
G1 X22.314 Y138.084 E13.79682
G1 X21.915 Y137.945 E13.81087
G1 X21.096 Y137.624 E13.84013
G1 X20.767 Y137.477 E13.85212
G1 X19.901 Y137.046 E13.88429
G1 X19.161 Y136.602 E13.91299
G1 X18.116 Y135.868 E13.95547
G1 X17.845 Y135.652 E13.96699
G1 X17.108 Y135.009 E13.99952
G1 X16.875 Y134.786 E14.01025
G1 X16.114 Y133.978 E14.04717
G1 X15.802 Y133.61 E14.06321
G1 X14.99 Y132.521 E14.1084
G1 X14.774 Y132.187 E14.12162
G1 X14.286 Y131.354 E14.15373
G1 X13.908 Y130.575 E14.18253
G1 X13.548 Y129.713 E14.2136
G1 X13.268 Y128.866 E14.24327
G1 X13.018 Y127.92 E14.27582
G1 X12.925 Y127.486 E14.29058
G1 X12.764 Y126.533 E14.32273
G1 X12.699 Y125.817 E14.34664
G1 X12.659 Y125.136 E14.36933
G1 X12.642 Y124.526 E14.38963
G1 X12.641 Y95.736 E15.34718
G1 X12.655 Y94.881 E15.37563
G1 X12.717 Y93.875 E15.40915
G1 X12.763 Y93.473 E15.42261
G1 X12.933 Y92.432 E15.45769
G1 X13.006 Y92.093 E15.46922
G1 X13.25 Y91.156 E15.50143
G1 X13.54 Y90.318 E15.53092
G1 X13.935 Y89.365 E15.56523
G1 X14.075 Y89.069 E15.57612
G1 X14.588 Y88.113 E15.61221
G1 X14.746 Y87.851 E15.62238
G1 X15.538 Y86.71 E15.66858
G1 X15.732 Y86.465 E15.67897
G1 X16.389 Y85.712 E15.71221
G1 X16.66 Y85.43 E15.72522
G1 X17.439 Y84.696 E15.76082
G1 X17.829 Y84.365 E15.77783
G1 X18.604 Y83.765 E15.81043
G1 X19.566 Y83.157 E15.84828
G1 X19.932 Y82.953 E15.86222
G1 X20.839 Y82.502 E15.89591
G1 X21.285 Y82.306 E15.91211
G1 X22.197 Y81.955 E15.94462
G1 X23.202 Y81.67 E15.97936
G0 F9000 X23.292 Y82.06
G1 F1800 X23.878 Y81.925 E15.99936
G1 X24.798 Y81.755 E16.03048
G1 X25.518 Y81.68 E16.05456
G1 X26.391 Y81.633 E16.08363
G1 X27.163 Y81.62 E16.10931
G1 X192.675 Y81.62 E21.61427
G1 X193.832 Y81.636 E21.65275
G1 X194.768 Y81.692 E21.68394
G1 X195.61 Y81.814 E21.71224
G1 X195.986 Y81.884 E21.72496
G1 X196.918 Y82.098 E21.75676
G1 X197.883 Y82.405 E21.79044
G1 X198.834 Y82.779 E21.82443
G1 X199.66 Y83.18 E21.85497
G1 X200.595 Y83.71 E21.89072
G1 X201.63 Y84.44 E21.93284
G1 X201.881 Y84.64 E21.94352
G1 X202.589 Y85.258 E21.97477
G1 X202.97 Y85.622 E21.9923
G1 X203.624 Y86.305 E22.02375
G1 X204.401 Y87.308 E22.06595
G1 X204.757 Y87.832 E22.08702
G1 X205.249 Y88.629 E22.11817
G1 X205.629 Y89.379 E22.14614
G1 X205.798 Y89.751 E22.15973
G1 X206.216 Y90.819 E22.19787
G1 X206.321 Y91.139 E22.20907
G1 X206.637 Y92.335 E22.25022
G1 X206.73 Y92.801 E22.26602
G1 X206.872 Y93.724 E22.29708
G1 X206.924 Y94.423 E22.3204
G1 X206.958 Y95.459 E22.35487
G1 X206.96 Y124.068 E23.30641
G1 X206.945 Y125.157 E23.34264
G1 X206.872 Y126.249 E23.37904
G1 X206.833 Y126.575 E23.38996
G1 X206.669 Y127.574 E23.42363
G1 X206.346 Y128.787 E23.46538
G1 X206.231 Y129.142 E23.47779
G1 X205.872 Y130.087 E23.51141
G1 X205.742 Y130.383 E23.52217
G1 X205.232 Y131.393 E23.5598
G1 X205.05 Y131.709 E23.57193
G1 X204.55 Y132.495 E23.60291
G1 X204.211 Y132.953 E23.62186
G1 X203.945 Y133.29 E23.63614
G1 X203.281 Y134.054 E23.66981
G1 X202.98 Y134.368 E23.68428
G1 X202.328 Y134.992 E23.71429
G1 X201.449 Y135.686 E23.75154
G1 X200.835 Y136.119 E23.77653
G1 X200.044 Y136.625 E23.80776
G1 X199.244 Y137.043 E23.83778
G1 X198.583 Y137.327 E23.86171
G1 X198.104 Y137.513 E23.8788
G1 X197.219 Y137.812 E23.90987
G1 X196.507 Y137.992 E23.9343
G1 X195.901 Y138.122 E23.95491
G1 X194.979 Y138.277 E23.98601
G1 X194.224 Y138.343 E24.01122
G1 X193.335 Y138.375 E24.0408
G1 X27.325 Y138.38 E29.56232
G1 X26.333 Y138.366 E29.59532
G1 X25.484 Y138.322 E29.62359
G1 X24.386 Y138.184 E29.6604
G1 X24.007 Y138.115 E29.67321
G1 X23.126 Y137.915 E29.70326
G1 X22.445 Y137.706 E29.72695
G1 X22.061 Y137.573 E29.74047
G1 X21.258 Y137.258 E29.76916
G1 X20.945 Y137.119 E29.78055
G1 X20.107 Y136.703 E29.81167
G1 X19.367 Y136.259 E29.84037
G1 X18.365 Y135.555 E29.8811
G1 X18.108 Y135.351 E29.89201
G1 X17.385 Y134.72 E29.92393
G1 X17.152 Y134.497 E29.93466
G1 X16.419 Y133.719 E29.97021
G1 X16.123 Y133.371 E29.9854
G1 X15.311 Y132.282 E30.03058
G1 X15.119 Y131.985 E30.04235
G1 X14.646 Y131.179 E30.07343
G1 X14.277 Y130.42 E30.1015
G1 X13.928 Y129.587 E30.13154
G1 X13.655 Y128.763 E30.16041
G1 X13.409 Y127.836 E30.19231
G1 X13.319 Y127.419 E30.2065
G1 X13.162 Y126.497 E30.23761
G1 X13.098 Y125.794 E30.26108
G1 X13.059 Y125.125 E30.28337
G1 X13.042 Y124.526 E30.3033
G1 X13.041 Y95.742 E31.26066
G1 X13.054 Y94.906 E31.28847
G1 X13.115 Y93.92 E31.32133
G1 X13.158 Y93.537 E31.33415
G1 X13.324 Y92.516 E31.36855
G1 X13.393 Y92.193 E31.37954
G1 X13.628 Y91.287 E31.41067
G1 X13.918 Y90.449 E31.44016
G1 X14.297 Y89.536 E31.47304
G1 X14.428 Y89.258 E31.48326
G1 X14.931 Y88.32 E31.51866
G1 X15.089 Y88.058 E31.52884
G1 X15.852 Y86.958 E31.57337
G1 X16.034 Y86.728 E31.58312
G1 X16.678 Y85.989 E31.61572
G1 X16.935 Y85.721 E31.62807
G1 X17.698 Y85.001 E31.66297
G1 X18.074 Y84.681 E31.67939
G1 X18.818 Y84.103 E31.71072
G1 X19.761 Y83.506 E31.74784
G1 X20.11 Y83.311 E31.76114
G1 X21 Y82.868 E31.79421
G1 X21.429 Y82.679 E31.8098
G1 X22.306 Y82.34 E31.84107
G1 X23.292 Y82.06 E31.87516
G0 F9000 X23.382 Y82.45
G1 F1800 X23.951 Y82.318 E31.89459
G1 X24.839 Y82.153 E31.92463
G1 X25.559 Y82.078 E31.94871
G1 X26.398 Y82.033 E31.97665
G1 X27.17 Y82.02 E32.00233
G1 X192.67 Y82.02 E37.50689
G1 X193.809 Y82.035 E37.54477
G1 X194.711 Y82.088 E37.57483
G1 X195.537 Y82.207 E37.60258
G1 X195.896 Y82.274 E37.61473
G1 X196.828 Y82.488 E37.64653
G1 X197.737 Y82.777 E37.67826
G1 X198.66 Y83.139 E37.71123
G1 X199.463 Y83.528 E37.74091
G1 X200.364 Y84.037 E37.77533
G1 X201.399 Y84.767 E37.81745
G1 X201.618 Y84.941 E37.82676
G1 X202.313 Y85.547 E37.85743
G1 X202.682 Y85.899 E37.87439
G1 X203.308 Y86.55 E37.90443
G1 X204.07 Y87.533 E37.94579
G1 X204.417 Y88.042 E37.96628
G1 X204.892 Y88.81 E37.99632
G1 X205.265 Y89.545 E38.02373
G1 X205.426 Y89.897 E38.03661
G1 X205.836 Y90.944 E38.074
G1 X205.934 Y91.241 E38.08441
G1 X206.25 Y92.437 E38.12555
G1 X206.335 Y92.862 E38.13997
G1 X206.473 Y93.754 E38.16999
G1 X206.524 Y94.436 E38.19273
G1 X206.558 Y95.459 E38.22678
G1 X206.56 Y124.063 E39.17815
G1 X206.546 Y125.131 E39.21368
G1 X206.475 Y126.201 E39.24934
G1 X206.438 Y126.51 E39.25969
G1 X206.274 Y127.509 E39.29336
G1 X205.966 Y128.664 E39.33312
G1 X205.857 Y129 E39.34487
G1 X205.498 Y129.945 E39.37849
G1 X205.385 Y130.203 E39.38786
G1 X204.885 Y131.194 E39.42478
G1 X204.712 Y131.495 E39.43633
G1 X204.228 Y132.257 E39.46635
G1 X203.889 Y132.715 E39.4853
G1 X203.643 Y133.028 E39.49855
G1 X202.992 Y133.777 E39.53155
G1 X202.703 Y134.079 E39.54545
G1 X202.051 Y134.703 E39.57547
G1 X201.218 Y135.359 E39.61074
G1 X200.619 Y135.782 E39.63513
G1 X199.859 Y136.27 E39.66517
G1 X199.059 Y136.688 E39.69519
G1 X198.438 Y136.954 E39.71766
G1 X197.976 Y137.134 E39.73415
G1 X197.121 Y137.424 E39.76418
G1 X196.423 Y137.601 E39.78813
G1 X195.834 Y137.728 E39.80817
G1 X194.944 Y137.879 E39.83819
G1 X194.209 Y137.943 E39.86273
G1 X193.335 Y137.975 E39.89182
G1 X27.33 Y137.98 E45.41317
G1 X26.353 Y137.967 E45.44567
G1 X25.534 Y137.925 E45.47294
G1 X24.457 Y137.79 E45.50904
G1 X24.096 Y137.725 E45.52124
G1 X23.215 Y137.525 E45.55129
G1 X22.575 Y137.328 E45.57356
G1 X22.207 Y137.201 E45.58651
G1 X21.419 Y136.892 E45.61466
G1 X21.122 Y136.761 E45.62546
G1 X20.312 Y136.36 E45.65552
G1 X19.597 Y135.932 E45.68324
G1 X18.614 Y135.242 E45.72318
G1 X18.371 Y135.049 E45.7335
G1 X17.662 Y134.431 E45.76479
G1 X17.429 Y134.208 E45.77551
G1 X16.723 Y133.459 E45.80975
G1 X16.444 Y133.132 E45.82404
G1 X15.647 Y132.064 E45.86837
G1 X15.464 Y131.782 E45.87955
G1 X15.006 Y131.004 E45.90958
G1 X14.646 Y130.265 E45.93692
G1 X14.297 Y129.432 E45.96696
G1 X14.042 Y128.66 E45.994
G1 X13.8 Y127.751 E46.02528
G1 X13.713 Y127.351 E46.0389
G1 X13.56 Y126.461 E46.06893
G1 X13.497 Y125.771 E46.09198
G1 X13.459 Y125.113 E46.1139
G1 X13.442 Y124.526 E46.13343
G1 X13.441 Y95.748 E47.09059
G1 X13.453 Y94.931 E47.11777
G1 X13.513 Y93.964 E47.14999
G1 X13.553 Y93.601 E47.16214
G1 X13.715 Y92.599 E47.1959
G1 X13.78 Y92.293 E47.2063
G1 X14.006 Y91.418 E47.23636
G1 X14.296 Y90.58 E47.26586
G1 X14.659 Y89.706 E47.29733
G1 X14.781 Y89.447 E47.30686
G1 X15.274 Y88.527 E47.34157
G1 X15.432 Y88.265 E47.35175
G1 X16.166 Y87.206 E47.3946
G1 X16.336 Y86.991 E47.40372
G1 X16.967 Y86.266 E47.43569
G1 X17.21 Y86.012 E47.44738
G1 X17.958 Y85.305 E47.48161
G1 X18.32 Y84.996 E47.49744
G1 X19.032 Y84.441 E47.52747
G1 X19.957 Y83.855 E47.56389
G1 X20.289 Y83.669 E47.57654
G1 X21.161 Y83.234 E47.60896
G1 X21.574 Y83.052 E47.62397
G1 X22.415 Y82.725 E47.65398
G1 X23.382 Y82.45 E47.68742
G1 F2400 E46.88742
;MESH:ribbon-panel-rev-1.2.stl
G0 F9000 X27.157 Y93.738
G0 X28.79 Y97.687
;TYPE:WALL-INNER
G1 F2400 E47.68742
G1 F1800 X28.329 Y97.967 E47.70536
G1 X27.915 Y98.109 E47.71991
G1 X27.287 Y98.153 E47.74085
G1 X26.786 Y98.052 E47.75785
G1 X26.247 Y97.813 E47.77746
G1 X25.779 Y97.359 E47.79915
G1 X25.65 Y97.176 E47.80659
G1 X25.411 Y96.648 E47.82587
G1 X25.324 Y96.07 E47.84531
G1 X25.362 Y95.611 E47.86063
G1 X25.488 Y95.215 E47.87445
G1 X25.745 Y94.763 E47.89175
G1 X25.96 Y94.515 E47.90266
G1 X26.361 Y94.206 E47.9195
G1 X26.757 Y94.016 E47.93411
G1 X27.149 Y93.925 E47.94749
G1 X27.77 Y93.903 E47.96816
G1 X28.326 Y94.089 E47.98766
G1 X28.775 Y94.363 E48.00516
G1 X29.122 Y94.702 E48.02129
G1 X29.248 Y94.881 E48.02857
G1 X29.482 Y95.391 E48.04723
G1 X29.576 Y95.919 E48.06507
G1 X29.539 Y96.435 E48.08228
G1 X29.409 Y96.863 E48.09715
G1 X29.15 Y97.306 E48.11422
G1 X28.79 Y97.687 E48.13166
G1 F2400 E47.33166
G0 F9000 X28.861 Y97.759
G0 X28.405 Y98.132
G0 X27.799 Y121.662
G0 X28.782 Y125.633
G1 F2400 E48.13166
G1 F1800 X28.324 Y125.911 E48.14948
G1 X27.899 Y126.047 E48.16432
G1 X27.288 Y126.094 E48.1847
G1 X26.774 Y125.989 E48.20215
G1 X26.239 Y125.742 E48.22175
G1 X25.697 Y125.22 E48.24678
G1 X25.417 Y124.588 E48.26977
G1 X25.324 Y124.013 E48.28914
G1 X25.362 Y123.553 E48.30449
G1 X25.491 Y123.138 E48.31895
G1 X25.709 Y122.758 E48.33352
G1 X25.964 Y122.446 E48.34692
G1 X26.374 Y122.135 E48.36404
G1 X26.767 Y121.953 E48.37844
G1 X27.174 Y121.859 E48.39233
G1 X27.751 Y121.844 E48.41153
G1 X28.327 Y122.03 E48.43166
G1 X28.774 Y122.302 E48.44907
G1 X29.202 Y122.719 E48.46894
G1 X29.485 Y123.345 E48.49179
G1 X29.576 Y123.859 E48.50915
G1 X29.539 Y124.376 E48.52639
G1 X29.407 Y124.805 E48.54132
G1 X29.149 Y125.254 E48.55854
G1 X28.782 Y125.633 E48.57609
G1 F2400 E47.77609
G0 F9000 X28.837 Y125.718
G0 X26.853 Y126.19
G0 X26.853 Y126.979
G0 X26.671 Y127.179
G1 F2400 E48.57609
G1 F1800 X193.591 Y127.176 E54.12787
G1 X193.949 Y127.105 E54.14001
G1 X194.372 Y126.954 E54.15495
G1 X194.603 Y126.831 E54.16366
G1 X194.962 Y126.565 E54.17852
G1 X195.24 Y126.287 E54.19159
G1 X195.577 Y125.728 E54.2133
G1 X195.702 Y125.311 E54.22778
G1 X195.756 Y124.971 E54.23923
G1 X195.759 Y95.213 E55.22899
G1 X195.744 Y94.926 E55.23855
G1 X195.685 Y94.627 E55.24868
G1 X195.537 Y94.215 E55.26324
G1 X195.39 Y93.945 E55.27347
G1 X195.149 Y93.621 E55.2869
G1 X194.886 Y93.358 E55.29927
G1 X194.591 Y93.161 E55.31107
G1 X194.18 Y92.965 E55.32621
G1 X193.892 Y92.878 E55.33622
G1 X193.55 Y92.825 E55.34773
G1 X26.649 Y92.821 E60.89888
G1 X26.345 Y92.836 E60.909
G1 X26.057 Y92.892 E60.91876
G1 X25.617 Y93.049 E60.9343
G1 X25.216 Y93.289 E60.94984
G1 X24.867 Y93.606 E60.96552
G1 X24.704 Y93.804 E60.97405
G1 X24.473 Y94.19 E60.98902
G1 X24.316 Y94.629 E61.00452
G1 X24.245 Y94.978 E61.01637
G1 X24.24 Y124.773 E62.00735
G1 X24.255 Y125.074 E62.01738
G1 X24.316 Y125.371 E62.02746
G1 X24.395 Y125.637 E62.03669
G1 X24.552 Y125.968 E62.04888
G1 X24.778 Y126.307 E62.06243
G1 X25.13 Y126.657 E62.07894
G1 X25.684 Y126.993 E62.10049
G1 X26.108 Y127.123 E62.11524
G1 X26.395 Y127.166 E62.12489
G1 X26.671 Y127.179 E62.13408
G1 F2400 E61.33408
G0 F9000 X26.67 Y127.079
G0 X109.818 Y126.978
G0 X109.825 Y126.276
G0 X109.838 Y126.094
G1 F2400 E62.13408
G1 F1800 X109.333 Y125.991 E62.15122
G1 X108.796 Y125.752 E62.17077
G1 X108.329 Y125.299 E62.19241
G1 X108.2 Y125.116 E62.19986
G1 X107.961 Y124.588 E62.21913
G1 X107.872 Y123.997 E62.23901
G1 X107.913 Y123.547 E62.25404
G1 X108.044 Y123.141 E62.26823
G1 X108.259 Y122.758 E62.28284
G1 X108.514 Y122.446 E62.29624
G1 X108.924 Y122.134 E62.31338
G1 X109.314 Y121.954 E62.32766
G1 X109.699 Y121.865 E62.34081
G1 X110.299 Y121.843 E62.36078
G1 X110.877 Y122.03 E62.38098
G1 X111.324 Y122.302 E62.39838
G1 X111.752 Y122.719 E62.41826
G1 X112.035 Y123.344 E62.44108
G1 X112.126 Y123.86 E62.45851
G1 X112.089 Y124.37 E62.47551
G1 X111.961 Y124.799 E62.4904
G1 X111.704 Y125.249 E62.50764
G1 X111.337 Y125.629 E62.52521
G1 X110.87 Y125.912 E62.54337
G1 X110.449 Y126.047 E62.55808
G1 X109.838 Y126.094 E62.57846
G1 F2400 E61.77846
G0 F9000 X109.818 Y126.192
G0 X111.848 Y125.361
G0 X111.848 Y115.86
G0 X188.809 Y115.677
G1 F2400 E62.57846
G1 F1800 X26.18 Y115.68 E67.98752
G1 X25.948 Y115.634 E67.99539
G1 X25.699 Y115.44 E68.00589
G1 X25.58 Y115.166 E68.01582
G1 X25.58 Y104.92 E68.35661
G1 X25.7 Y104.56 E68.36923
G1 X25.949 Y104.366 E68.37973
G1 X26.18 Y104.32 E68.38756
G1 X188.804 Y104.32 E73.79646
G1 X189.046 Y104.403 E73.80497
G1 X189.245 Y104.594 E73.81414
G1 X189.34 Y104.834 E73.82272
G1 X189.341 Y115.153 E74.16594
G1 X189.245 Y115.406 E74.17494
G1 X189.118 Y115.547 E74.18125
G1 X188.809 Y115.677 E74.1924
G1 F2400 E73.3924
G0 F9000 X191.381 Y121.984
G0 X191.347 Y125.753
