;FLAVOR:Marlin
;TIME:2186
;Filament used: 2.22472m
;Layer height: 0.2
;MINX:10.1
;MINY:86.34
;MINZ:0.2
;MAXX:209.9
;MAXY:133.66
;MAXZ:2
;TARGET_MACHINE.NAME:Creality Ender-3 V3 SE
;Generated with Cura_SteamEngine 5.6.0
M140 S60
M105
M190 S60
M104 S210
M105
M109 S210
M82 ;absolute extrusion mode
M220 S100 ;Reset Feedrate
M221 S100 ;Reset Flowrate

G28 ;Home

M420 S1; Enable mesh leveling

G92 E0 ;Reset Extruder
G1 Z2.0 F3000 ;Move Z Axis up
G1 X10.1 Y20 Z0.28 F5000.0 ;Move to start position
M109 S[material_print_temperature_layer_0]
G1 X10.1 Y145.0 Z0.28 F1500.0 E15 ;Draw the first line
G1 X10.4 Y145.0 Z0.28 F5000.0 ;Move to side a little
G1 X10.4 Y20 Z0.28 F1500.0 E30 ;Draw the second line
G92 E0  ;Reset Extruder
G1 E-1.0000 F1800 ;Retract a bit
G1 Z2.0 F3000 ;Move Z Axis up
G1 E0.0000 F1800 

G92 E0
G92 E0
G1 F2400 E-0.8
;LAYER_COUNT:10
;LAYER:0
M107
G0 F9000 X18.649 Y86.629 Z0.2
;TYPE:SKIRT
G1 F2400 E0
G1 F1800 X19.616 Y86.451 E0.0327
G1 X20.755 Y86.355 E0.07072
G1 X21.412 Y86.34 E0.09258
G1 X198.204 Y86.34 E5.9727
G1 X199.084 Y86.353 E6.00198
G1 X200.056 Y86.412 E6.03436
G1 X201.019 Y86.558 E6.06676
G1 X201.966 Y86.789 E6.09918
G1 X202.854 Y87.089 E6.13036
G1 X203.746 Y87.479 E6.16274
G1 X204.629 Y87.966 E6.19627
G1 X205.38 Y88.468 E6.22632
G1 X206.195 Y89.126 E6.26116
G1 X206.893 Y89.804 E6.29352
G1 X207.529 Y90.541 E6.3259
G1 X208.099 Y91.331 E6.3583
G1 X208.561 Y92.107 E6.38834
G1 X209.015 Y93.049 E6.42312
G1 X209.344 Y93.927 E6.45431
G1 X209.613 Y94.899 E6.48785
G1 X209.79 Y95.865 E6.52051
G1 X209.885 Y96.995 E6.55823
G1 X209.9 Y97.67 E6.58069
G1 X209.899 Y122.06 E7.3919
G1 X209.888 Y122.823 E7.41728
G1 X209.831 Y123.796 E7.4497
G1 X209.686 Y124.759 E7.48209
G1 X209.457 Y125.705 E7.51446
G1 X209.146 Y126.629 E7.54689
G1 X208.754 Y127.52 E7.57926
G1 X208.286 Y128.372 E7.6116
G1 X207.764 Y129.153 E7.64284
G1 X207.131 Y129.938 E7.67638
G1 X206.506 Y130.589 E7.7064
G1 X205.717 Y131.277 E7.74121
G1 X204.957 Y131.827 E7.77242
G1 X204.09 Y132.344 E7.80599
G1 X203.212 Y132.766 E7.83839
G1 X202.301 Y133.108 E7.87076
G1 X201.362 Y133.369 E7.90317
G1 X200.396 Y133.547 E7.93584
G1 X199.245 Y133.645 E7.97426
G1 X198.57 Y133.66 E7.99672
G1 X21.664 Y133.659 E13.88064
G1 X20.931 Y133.648 E13.90502
G1 X19.959 Y133.591 E13.9374
G1 X18.996 Y133.445 E13.9698
G1 X18.05 Y133.216 E14.00217
G1 X17.126 Y132.904 E14.03461
G1 X16.236 Y132.512 E14.06695
G1 X15.413 Y132.061 E14.09817
G1 X14.574 Y131.5 E14.13174
G1 X13.87 Y130.934 E14.16178
G1 X13.117 Y130.209 E14.19655
G1 X12.48 Y129.473 E14.22892
G1 X11.95 Y128.742 E14.25895
G1 X11.414 Y127.845 E14.29371
G1 X10.992 Y126.967 E14.32611
G1 X10.65 Y126.055 E14.3585
G1 X10.39 Y125.117 E14.39088
G1 X10.212 Y124.148 E14.42365
G1 X10.114 Y122.969 E14.463
G1 X10.1 Y122.318 E14.48465
G1 X10.101 Y97.865 E15.29796
G1 X10.112 Y97.165 E15.32125
G1 X10.17 Y96.192 E15.35367
G1 X10.316 Y95.229 E15.38606
G1 X10.546 Y94.283 E15.41844
G1 X10.859 Y93.36 E15.45086
G1 X11.251 Y92.47 E15.48321
G1 X11.721 Y91.617 E15.5156
G1 X12.264 Y90.809 E15.54798
G1 X12.831 Y90.105 E15.57804
G1 X13.556 Y89.353 E15.61278
G1 X14.292 Y88.716 E15.64516
G1 X15.024 Y88.186 E15.67522
G1 X15.921 Y87.651 E15.70996
G1 X16.799 Y87.23 E15.74234
G1 X17.712 Y86.888 E15.77477
G1 X18.649 Y86.629 E15.8071
G0 F9000 X18.722 Y87.022
G1 F1800 X19.65 Y86.85 E15.83849
G1 X20.789 Y86.754 E15.87651
G1 X21.421 Y86.74 E15.89754
G1 X198.198 Y86.74 E21.77716
G1 X199.06 Y86.752 E21.80584
G1 X199.997 Y86.808 E21.83706
G1 X200.925 Y86.947 E21.86827
G1 X201.838 Y87.168 E21.89951
G1 X202.694 Y87.456 E21.92955
G1 X203.586 Y87.846 E21.96193
G1 X204.407 Y88.299 E21.99312
G1 X205.158 Y88.801 E22.02316
G1 X205.917 Y89.413 E22.05559
G1 X206.591 Y90.066 E22.0868
G1 X207.205 Y90.775 E22.118
G1 X207.755 Y91.536 E22.14923
G1 X208.217 Y92.312 E22.17926
G1 X208.64 Y93.189 E22.21165
G1 X208.969 Y94.067 E22.24283
G1 X209.22 Y94.972 E22.27407
G1 X209.391 Y95.899 E22.30542
G1 X209.486 Y97.029 E22.34314
G1 X209.5 Y97.67 E22.36447
G1 X209.499 Y122.055 E23.17551
G1 X209.489 Y122.8 E23.20029
G1 X209.435 Y123.737 E23.23151
G1 X209.297 Y124.666 E23.26275
G1 X209.078 Y125.578 E23.29394
G1 X208.78 Y126.468 E23.32516
G1 X208.403 Y127.328 E23.35639
G1 X207.953 Y128.15 E23.38756
G1 X207.431 Y128.931 E23.41881
G1 X206.842 Y129.661 E23.45
G1 X206.217 Y130.312 E23.48002
G1 X205.482 Y130.953 E23.51246
G1 X204.722 Y131.503 E23.54366
G1 X203.916 Y131.984 E23.57488
G1 X203.071 Y132.392 E23.60609
G1 X202.193 Y132.723 E23.63729
G1 X201.289 Y132.976 E23.66852
G1 X200.362 Y133.148 E23.69988
G1 X199.211 Y133.246 E23.7383
G1 X198.57 Y133.26 E23.75962
G1 X21.67 Y133.259 E29.64334
G1 X20.954 Y133.249 E29.66716
G1 X20.018 Y133.195 E29.69834
G1 X19.089 Y133.056 E29.72958
G1 X18.177 Y132.837 E29.76078
G1 X17.287 Y132.538 E29.792
G1 X16.428 Y132.161 E29.82321
G1 X15.605 Y131.71 E29.85442
G1 X14.825 Y131.188 E29.88564
G1 X14.121 Y130.622 E29.91568
G1 X13.419 Y129.947 E29.94807
G1 X12.804 Y129.238 E29.97929
G1 X12.274 Y128.507 E30.00932
G1 X11.774 Y127.671 E30.04172
G1 X11.366 Y126.826 E30.07293
G1 X11.035 Y125.948 E30.10414
G1 X10.783 Y125.044 E30.13535
G1 X10.611 Y124.115 E30.16677
G1 X10.513 Y122.936 E30.20612
G1 X10.5 Y122.318 E30.22668
G1 X10.501 Y97.871 E31.03979
G1 X10.511 Y97.188 E31.06251
G1 X10.566 Y96.251 E31.09373
G1 X10.705 Y95.323 E31.12494
G1 X10.925 Y94.411 E31.15614
G1 X11.225 Y93.521 E31.18738
G1 X11.602 Y92.662 E31.21858
G1 X12.053 Y91.84 E31.24977
G1 X12.576 Y91.06 E31.281
G1 X13.143 Y90.356 E31.31107
G1 X13.818 Y89.655 E31.34343
G1 X14.527 Y89.04 E31.37465
G1 X15.259 Y88.51 E31.40471
G1 X16.095 Y88.011 E31.43709
G1 X16.94 Y87.604 E31.46829
G1 X17.819 Y87.273 E31.49953
G1 X18.722 Y87.022 E31.5307
G0 F9000 X18.796 Y87.415
G1 F1800 X19.684 Y87.249 E31.56074
G1 X20.823 Y87.153 E31.59876
G1 X21.43 Y87.14 E31.61896
G1 X198.193 Y87.14 E37.49812
G1 X199.037 Y87.151 E37.52619
G1 X199.939 Y87.204 E37.55624
G1 X200.832 Y87.336 E37.58627
G1 X201.71 Y87.547 E37.6163
G1 X202.566 Y87.835 E37.64634
G1 X203.393 Y88.197 E37.67637
G1 X204.185 Y88.632 E37.70642
G1 X204.936 Y89.134 E37.73646
G1 X205.639 Y89.701 E37.7665
G1 X206.289 Y90.328 E37.79654
G1 X206.881 Y91.01 E37.82658
G1 X207.411 Y91.741 E37.85661
G1 X207.873 Y92.517 E37.88665
G1 X208.266 Y93.33 E37.91668
G1 X208.584 Y94.175 E37.94671
G1 X208.827 Y95.045 E37.97675
G1 X208.992 Y95.933 E38.0068
G1 X209.087 Y97.063 E38.04451
G1 X209.1 Y97.67 E38.06471
G1 X209.099 Y122.05 E38.87559
G1 X209.09 Y122.777 E38.89977
G1 X209.039 Y123.679 E38.92982
G1 X208.908 Y124.573 E38.95987
G1 X208.699 Y125.451 E38.98989
G1 X208.413 Y126.308 E39.01994
G1 X208.052 Y127.136 E39.04998
G1 X207.62 Y127.928 E39.07999
G1 X207.119 Y128.68 E39.11004
G1 X206.553 Y129.384 E39.14008
G1 X205.928 Y130.035 E39.1701
G1 X205.247 Y130.629 E39.20016
G1 X204.516 Y131.16 E39.23021
G1 X203.742 Y131.624 E39.26022
G1 X202.929 Y132.018 E39.29027
G1 X202.085 Y132.338 E39.32029
G1 X201.215 Y132.583 E39.35035
G1 X200.328 Y132.749 E39.38037
G1 X199.177 Y132.847 E39.41879
G1 X198.57 Y132.86 E39.43898
G1 X21.675 Y132.859 E45.32253
G1 X20.977 Y132.85 E45.34575
G1 X20.076 Y132.799 E45.37577
G1 X19.182 Y132.667 E45.40582
G1 X18.304 Y132.458 E45.43584
G1 X17.447 Y132.171 E45.4659
G1 X16.62 Y131.81 E45.49591
G1 X15.827 Y131.377 E45.52597
G1 X15.076 Y130.876 E45.55599
G1 X14.372 Y130.31 E45.58604
G1 X13.721 Y129.684 E45.61607
G1 X13.128 Y129.003 E45.64611
G1 X12.598 Y128.272 E45.67614
G1 X12.134 Y127.497 E45.70618
G1 X11.74 Y126.684 E45.73623
G1 X11.42 Y125.84 E45.76625
G1 X11.176 Y124.97 E45.79631
G1 X11.01 Y124.082 E45.82635
G1 X10.913 Y122.927 E45.8649
G1 X10.9 Y122.318 E45.88516
G1 X10.901 Y97.876 E46.69811
G1 X10.91 Y97.211 E46.72023
G1 X10.962 Y96.309 E46.75028
G1 X11.094 Y95.416 E46.7803
G1 X11.304 Y94.538 E46.81033
G1 X11.591 Y93.681 E46.84039
G1 X11.953 Y92.854 E46.87041
G1 X12.386 Y92.062 E46.90044
G1 X12.888 Y91.311 E46.93048
G1 X13.455 Y90.607 E46.96055
G1 X14.081 Y89.957 E46.99056
G1 X14.762 Y89.364 E47.02059
G1 X15.494 Y88.834 E47.05065
G1 X16.269 Y88.371 E47.08068
G1 X17.082 Y87.978 E47.11071
G1 X17.927 Y87.658 E47.14077
G1 X18.796 Y87.415 E47.17078
G1 F2400 E46.37078
;MESH:ribbon-panel-larger.stl
G0 F9000 X23.977 Y99.031
G0 X25.857 Y103.019
;TYPE:WALL-INNER
G1 F2400 E47.17078
G1 F1800 X25.158 Y103.241 E47.19517
G1 X24.496 Y103.196 E47.21724
G1 X24.044 Y103.061 E47.23293
G1 X23.853 Y102.964 E47.24005
G1 X23.388 Y102.61 E47.25949
G1 X23.232 Y102.432 E47.26736
G1 X22.947 Y101.938 E47.28633
G1 X22.788 Y101.396 E47.30512
G1 X22.806 Y100.843 E47.32352
G1 X22.949 Y100.306 E47.34201
G1 X23.053 Y100.096 E47.3498
G1 X23.405 Y99.643 E47.36888
G1 X23.84 Y99.302 E47.38726
G1 X24.029 Y99.204 E47.39435
G1 X24.633 Y99.022 E47.41533
G1 X25.288 Y99.064 E47.43716
G1 X25.736 Y99.199 E47.45272
G1 X25.927 Y99.296 E47.45984
G1 X26.392 Y99.65 E47.47928
G1 X26.548 Y99.828 E47.48715
G1 X26.829 Y100.315 E47.50585
G1 X26.994 Y100.854 E47.5246
G1 X26.974 Y101.415 E47.54327
G1 X26.797 Y102.068 E47.56578
G1 X26.375 Y102.621 E47.58891
G1 X25.857 Y103.019 E47.61064
G1 F2400 E46.81064
G0 F9000 X25.888 Y103.119
G0 X25.176 Y103.424
G0 X25.316 Y116.624
G0 X26.379 Y120.36
G1 F2400 E47.61064
G1 F1800 X25.94 Y120.698 E47.62907
G1 X25.751 Y120.796 E47.63615
G1 X25.147 Y120.978 E47.65713
G1 X24.497 Y120.938 E47.67879
G1 X23.938 Y120.769 E47.69821
G1 X23.291 Y120.275 E47.72529
G1 X22.947 Y119.678 E47.7482
G1 X22.788 Y119.136 E47.76699
G1 X22.806 Y118.583 E47.78539
G1 X22.949 Y118.046 E47.80388
G1 X23.053 Y117.836 E47.81167
G1 X23.402 Y117.38 E47.83077
G1 X23.841 Y117.042 E47.8492
G1 X24.029 Y116.944 E47.85625
G1 X24.519 Y116.792 E47.87331
G1 X24.738 Y116.767 E47.88064
G1 X25.287 Y116.804 E47.89895
G1 X25.842 Y116.975 E47.91826
G1 X26.484 Y117.463 E47.94508
G1 X26.822 Y118.048 E47.96755
G1 X26.994 Y118.592 E47.98653
G1 X26.974 Y119.154 E48.00523
G1 X26.83 Y119.694 E48.02382
G1 X26.727 Y119.904 E48.0316
G1 X26.379 Y120.36 E48.05068
G1 F2400 E47.25068
G0 F9000 X26.441 Y120.439
G0 X27.006 Y119.738
G0 X38.81 Y115.448
G0 X39.417 Y115.68
G1 F2400 E48.05068
G1 F1800 X39.085 Y115.515 E48.06301
G1 X38.935 Y115.285 E48.07214
G1 X38.9 Y115.111 E48.07805
G1 X38.9 Y104.826 E48.42013
G1 X38.97 Y104.637 E48.42683
G1 X39.086 Y104.485 E48.43319
G1 X39.269 Y104.366 E48.44045
G1 X39.423 Y104.32 E48.4458
G1 X191.9 Y104.319 E53.5172
G1 X192.145 Y104.372 E53.52554
G1 X192.342 Y104.511 E53.53356
G1 X192.449 Y104.676 E53.5401
G1 X192.5 Y104.883 E53.54719
G1 X192.5 Y115.196 E53.8902
G1 X192.389 Y115.429 E53.89879
G1 X192.144 Y115.629 E53.90931
G1 X191.967 Y115.681 E53.91544
G1 X39.417 Y115.68 E58.98928
G1 F2400 E58.18928
G0 F9000 X39.418 Y115.781
G0 X109.862 Y115.861
G0 X109.816 Y116.585
G0 X110.257 Y120.978
G1 F2400 E58.98928
G1 F1800 X109.582 Y120.936 E59.01177
G1 X109.374 Y120.885 E59.01889
G1 X108.944 Y120.692 E59.03457
G1 X108.498 Y120.352 E59.05322
G1 X108.343 Y120.174 E59.06107
G1 X108.061 Y119.684 E59.07988
G1 X107.896 Y119.147 E59.09856
G1 X107.916 Y118.586 E59.11723
G1 X108.06 Y118.046 E59.13582
G1 X108.163 Y117.836 E59.1436
G1 X108.511 Y117.38 E59.16268
G1 X108.95 Y117.042 E59.18111
G1 X109.139 Y116.944 E59.18819
G1 X109.743 Y116.762 E59.20917
G1 X110.398 Y116.804 E59.231
G1 X110.846 Y116.939 E59.24656
G1 X111.037 Y117.036 E59.25368
G1 X111.502 Y117.39 E59.27312
G1 X111.658 Y117.568 E59.28099
G1 X111.939 Y118.055 E59.2997
G1 X112.104 Y118.594 E59.31844
G1 X112.084 Y119.154 E59.33708
G1 X111.94 Y119.694 E59.35567
G1 X111.837 Y119.904 E59.36345
G1 X111.489 Y120.36 E59.38253
G1 X111.05 Y120.698 E59.40096
G1 X110.861 Y120.796 E59.40804
G1 X110.257 Y120.978 E59.42902
G1 F2400 E58.62902
G0 F9000 X109.86 Y121.055
G0 X111.616 Y120.49
G0 X193.002 Y119.754
G0 X193.608 Y120.35
G1 F2400 E59.42902
G1 F1800 X193.452 Y120.172 E59.43689
G1 X193.171 Y119.685 E59.45559
G1 X193.006 Y119.146 E59.47434
G1 X193.026 Y118.586 E59.49298
G1 X193.196 Y117.948 E59.51494
G1 X193.614 Y117.388 E59.53818
G1 X194.146 Y116.976 E59.56056
G1 X194.846 Y116.76 E59.58492
G1 X195.504 Y116.804 E59.60686
G1 X195.956 Y116.939 E59.62255
G1 X196.147 Y117.036 E59.62967
G1 X196.612 Y117.39 E59.64911
G1 X196.768 Y117.568 E59.65698
G1 X197.051 Y118.059 E59.67583
G1 X197.214 Y118.591 E59.69434
G1 X197.188 Y119.169 E59.71358
G1 X197.05 Y119.693 E59.7316
G1 X196.947 Y119.904 E59.73941
G1 X196.594 Y120.357 E59.75852
G1 X196.16 Y120.698 E59.77687
G1 X195.971 Y120.796 E59.78395
G1 X195.367 Y120.978 E59.80494
G1 X194.717 Y120.938 E59.8266
G1 X194.159 Y120.769 E59.84599
G1 X193.608 Y120.35 E59.86901
G1 F2400 E59.06901
G0 F9000 X193.622 Y120.487
G0 X194.744 Y120.777
G0 X195.237 Y120.809
G0 X196.722 Y120.484
G0 X196.72 Y121.879
G0 X198.3 Y122.06
G1 F2400 E59.86901
G1 F1800 X198.3 Y97.94 E60.67124
G1 X21.701 Y97.941 E66.54495
G1 X21.701 Y122.059 E67.34712
G1 X198.3 Y122.06 E73.22083
G1 F2400 E72.42083
G0 F9000 X198.1 Y103.127
G0 X197.052 Y102.324
G0 X194.159 Y103.03
G1 F2400 E73.22083
G1 F1800 X193.514 Y102.538 E73.24781
G1 X193.171 Y101.945 E73.27059
G1 X193.006 Y101.406 E73.28934
G1 X193.026 Y100.846 E73.30798
G1 X193.17 Y100.306 E73.32657
G1 X193.273 Y100.096 E73.33435
G1 X193.621 Y99.64 E73.35342
G1 X194.06 Y99.302 E73.37185
G1 X194.249 Y99.204 E73.37893
G1 X194.853 Y99.022 E73.39991
G1 X195.508 Y99.064 E73.42174
G1 X195.956 Y99.199 E73.43731
G1 X196.147 Y99.296 E73.44443
G1 X196.711 Y99.729 E73.46808
G1 X197.051 Y100.319 E73.49073
G1 X197.214 Y100.851 E73.50924
G1 X197.188 Y101.429 E73.52848
G1 X197.05 Y101.953 E73.5465
G1 X196.947 Y102.164 E73.55431
G1 X196.598 Y102.62 E73.57341
G1 X196.159 Y102.958 E73.59184
G1 X195.971 Y103.055 E73.59887
G1 X195.382 Y103.238 E73.61939
G1 X194.721 Y103.197 E73.64142
G1 X194.159 Y103.03 E73.66092
G0 F9000 X194.348 Y102.666
;TYPE:WALL-OUTER
G1 F1800 X193.819 Y102.268 E73.68293
G1 X193.533 Y101.763 E73.70224
G1 X193.408 Y101.354 E73.71646
G1 X193.43 Y100.883 E73.73214
G1 X193.566 Y100.372 E73.74973
G1 X193.908 Y99.924 E73.76848
G1 X194.334 Y99.596 E73.78636
G1 X194.882 Y99.428 E73.80542
G1 X195.41 Y99.458 E73.82301
G1 X195.877 Y99.592 E73.83917
G1 X196.403 Y99.995 E73.86121
G1 X196.687 Y100.497 E73.8804
G1 X196.811 Y100.905 E73.89458
G1 X196.794 Y101.36 E73.90972
G1 X196.654 Y101.888 E73.92789
G1 X196.312 Y102.336 E73.94664
G1 X195.887 Y102.662 E73.96445
G1 X195.329 Y102.835 E73.98388
G1 X194.766 Y102.794 E74.00266
G1 X194.348 Y102.666 E74.0172
G1 F2400 E73.2172
G0 F9000 X194.203 Y103.149
G0 X194.692 Y103.377
G0 X194.703 Y116.614
G0 X193.818 Y120.008
G1 F2400 E74.0172
G1 F1800 X193.533 Y119.503 E74.03648
G1 X193.408 Y119.094 E74.05071
G1 X193.43 Y118.623 E74.06639
G1 X193.574 Y118.104 E74.08431
G1 X193.913 Y117.661 E74.10286
G1 X194.336 Y117.339 E74.12054
G1 X194.893 Y117.163 E74.13997
G1 X195.454 Y117.206 E74.15868
G1 X195.877 Y117.333 E74.17337
G1 X196.402 Y117.732 E74.1953
G1 X196.687 Y118.237 E74.21459
G1 X196.811 Y118.645 E74.22877
G1 X196.794 Y119.1 E74.24392
G1 X196.654 Y119.628 E74.26209
G1 X196.311 Y120.075 E74.28083
G1 X195.887 Y120.404 E74.29868
G1 X195.338 Y120.572 E74.31777
G1 X194.81 Y120.542 E74.33536
G1 X194.344 Y120.408 E74.35149
G1 X193.818 Y120.008 E74.37347
G1 F2400 E73.57347
G0 F9000 X193.637 Y120.245
G0 X194.233 Y120.623
G0 X194.744 Y120.777
G0 X195.237 Y120.809
G0 X196.722 Y120.484
G0 X196.72 Y121.879
G0 X198.7 Y122.46
G1 F2400 E74.37347
G1 F1800 X198.7 Y97.54 E75.20231
G1 X21.301 Y97.541 E81.10262
G1 X21.301 Y122.459 E81.9314
G1 X198.7 Y122.46 E87.83172
G1 F2400 E87.03172
G0 F9000 X198.43 Y122.19
G0 X110.275 Y121.88
G0 X110.275 Y121.16
G0 X110.228 Y120.572
G1 F2400 E87.83172
G1 F1800 X109.57 Y120.535 E87.85363
G1 X109.129 Y120.33 E87.86981
G1 X108.709 Y120.01 E87.88737
G1 X108.423 Y119.503 E87.90673
G1 X108.298 Y119.094 E87.92096
G1 X108.32 Y118.623 E87.93664
G1 X108.456 Y118.112 E87.95423
G1 X108.798 Y117.664 E87.97297
G1 X109.224 Y117.336 E87.99086
G1 X109.772 Y117.168 E88.00992
G1 X110.3 Y117.198 E88.02751
G1 X110.766 Y117.332 E88.04364
G1 X111.292 Y117.732 E88.06561
G1 X111.577 Y118.237 E88.0849
G1 X111.702 Y118.646 E88.09913
G1 X111.68 Y119.117 E88.11481
G1 X111.544 Y119.628 E88.1324
G1 X111.202 Y120.076 E88.15114
G1 X110.776 Y120.404 E88.16902
G1 X110.228 Y120.572 E88.18809
G1 F2400 E87.38809
