;FLAVOR:Marlin
;TIME:11063
;Filament used: 20.1243m
;Layer height: 0.28
;MINX:9.5
;MINY:43.5
;MINZ:0.28
;MAXX:210.5
;MAXY:176.5
;MAXZ:3.08
;TARGET_MACHINE.NAME:Creality Ender-3 V3 SE
;Generated with Cura_SteamEngine 5.6.0
M140 S60
M105
M190 S60
M104 S210
M105
M109 S210
M82 ;absolute extrusion mode
M220 S100 ;Reset Feedrate
M221 S100 ;Reset Flowrate

G28 ;Home

M420 S1; Enable mesh leveling

G92 E0 ;Reset Extruder
G1 Z2.0 F3000 ;Move Z Axis up
G1 X10.1 Y20 Z0.28 F5000.0 ;Move to start position
M109 S[material_print_temperature_layer_0]
G1 X10.1 Y145.0 Z0.28 F1500.0 E15 ;Draw the first line
G1 X10.4 Y145.0 Z0.28 F5000.0 ;Move to side a little
G1 X10.4 Y20 Z0.28 F1500.0 E30 ;Draw the second line
G92 E0  ;Reset Extruder
G1 E-1.0000 F1800 ;Retract a bit
G1 Z2.0 F3000 ;Move Z Axis up
G1 E0.0000 F1800 

G92 E0
G92 E0
G1 F2400 E-0.8
;LAYER_COUNT:11
;LAYER:0
M107
G0 F9000 X21.379 Y44.775 Z0.28
;TYPE:SKIRT
G1 F2400 E0
G1 F1800 X22.327 Y44.333 E0.04871
G1 X23.242 Y44.003 E0.094
G1 X24.115 Y43.771 E0.13606
G1 X25.147 Y43.594 E0.18481
G1 X26.15 Y43.515 E0.23166
G1 X26.746 Y43.502 E0.25942
G1 X103.307 Y43.5 E3.82442
G1 X104.465 Y43.519 E3.87835
G1 X106.37 Y43.609 E3.96716
G1 X108.88 Y43.678 E4.08408
G1 X111.369 Y43.675 E4.19997
G1 X113.957 Y43.599 E4.32053
G1 X115.687 Y43.515 E4.40119
G1 X116.205 Y43.503 E4.42531
G1 X192.804 Y43.5 E7.99208
G1 X193.688 Y43.513 E8.03325
G1 X194.66 Y43.572 E8.07859
G1 X195.623 Y43.718 E8.12395
G1 X196.57 Y43.949 E8.16934
G1 X197.426 Y44.237 E8.21139
G1 X198.382 Y44.655 E8.25998
G1 X199.233 Y45.125 E8.30524
G1 X199.984 Y45.627 E8.34731
G1 X200.797 Y46.282 E8.39592
G1 X201.429 Y46.889 E8.43672
G1 X201.933 Y47.414 E8.47061
G1 X202.96 Y48.515 E8.54072
G1 X204.662 Y50.239 E8.65353
G1 X207.089 Y52.551 E8.80961
G1 X207.774 Y53.269 E8.85582
G1 X208.381 Y54.029 E8.90111
G1 X208.901 Y54.81 E8.9448
G1 X209.384 Y55.697 E8.99183
G1 X209.745 Y56.525 E9.03389
G1 X210.075 Y57.516 E9.08252
G1 X210.299 Y58.464 E9.12788
G1 X210.43 Y59.357 E9.16991
G1 X210.484 Y60.147 E9.20678
G1 X210.498 Y60.746 E9.23468
G1 X210.5 Y158.804 E13.80067
G1 X210.487 Y159.688 E13.84184
G1 X210.428 Y160.66 E13.88718
G1 X210.282 Y161.623 E13.93253
G1 X210.051 Y162.57 E13.97792
G1 X209.763 Y163.426 E14.01998
G1 X209.345 Y164.382 E14.06856
G1 X208.875 Y165.233 E14.11383
G1 X208.373 Y165.984 E14.15589
G1 X207.718 Y166.797 E14.20451
G1 X207.112 Y167.428 E14.24524
G1 X206.553 Y167.964 E14.28131
G1 X205.498 Y168.948 E14.34848
G1 X203.747 Y170.676 E14.46303
G1 X201.454 Y173.086 E14.61793
G1 X200.764 Y173.748 E14.66246
G1 X199.976 Y174.379 E14.70947
G1 X199.195 Y174.899 E14.75316
G1 X198.309 Y175.382 E14.80014
G1 X197.481 Y175.743 E14.8422
G1 X196.49 Y176.074 E14.89085
G1 X195.542 Y176.298 E14.93621
G1 X194.649 Y176.429 E14.97824
G1 X193.853 Y176.484 E15.01539
G1 X193.254 Y176.498 E15.04329
G1 X116.693 Y176.5 E18.60829
G1 X115.536 Y176.481 E18.66218
G1 X113.63 Y176.391 E18.75103
G1 X111.12 Y176.322 E18.86795
G1 X108.632 Y176.325 E18.9838
G1 X106.042 Y176.401 E19.10445
G1 X104.313 Y176.485 E19.18506
G1 X103.795 Y176.497 E19.20918
G1 X27.196 Y176.5 E22.77595
G1 X26.312 Y176.487 E22.81712
G1 X25.34 Y176.428 E22.86246
G1 X24.377 Y176.282 E22.90782
G1 X23.43 Y176.051 E22.95321
G1 X22.574 Y175.763 E22.99526
G1 X21.618 Y175.345 E23.04385
G1 X20.767 Y174.875 E23.08911
G1 X20.016 Y174.373 E23.13118
G1 X19.203 Y173.718 E23.17979
G1 X18.58 Y173.12 E23.22
G1 X17.069 Y171.515 E23.32265
G1 X15.32 Y169.743 E23.43858
G1 X12.911 Y167.449 E23.59348
G1 X12.226 Y166.731 E23.63968
G1 X11.619 Y165.971 E23.68497
G1 X11.099 Y165.19 E23.72866
G1 X10.616 Y164.303 E23.77569
G1 X10.255 Y163.475 E23.81775
G1 X9.925 Y162.484 E23.86639
G1 X9.701 Y161.536 E23.91175
G1 X9.57 Y160.643 E23.95378
G1 X9.516 Y159.853 E23.99065
G1 X9.502 Y159.254 E24.01855
G1 X9.5 Y61.196 E28.58454
G1 X9.513 Y60.312 E28.6257
G1 X9.572 Y59.34 E28.67105
G1 X9.718 Y58.377 E28.7164
G1 X9.949 Y57.43 E28.76179
G1 X10.237 Y56.574 E28.80385
G1 X10.655 Y55.618 E28.85243
G1 X11.125 Y54.767 E28.8977
G1 X11.627 Y54.016 E28.93976
G1 X12.282 Y53.203 E28.98838
G1 X12.888 Y52.572 E29.02911
G1 X13.447 Y52.036 E29.06517
G1 X14.502 Y51.052 E29.13235
G1 X16.268 Y49.309 E29.24789
G1 X18.369 Y47.103 E29.38974
G1 X19.056 Y46.413 E29.43508
G1 X19.802 Y45.786 E29.48046
G1 X20.598 Y45.228 E29.52573
G1 X21.379 Y44.775 E29.56777
G0 F9000 X21.58 Y45.121
G1 F1800 X22.463 Y44.709 E29.61314
G1 X23.345 Y44.39 E29.65681
G1 X24.218 Y44.158 E29.69887
G1 X25.179 Y43.993 E29.74428
G1 X26.159 Y43.915 E29.79005
G1 X26.746 Y43.902 E29.81739
G1 X103.3 Y43.9 E33.38207
G1 X104.446 Y43.919 E33.43544
G1 X106.351 Y44.009 E33.52424
G1 X108.869 Y44.078 E33.64153
G1 X111.381 Y44.075 E33.7585
G1 X113.977 Y43.999 E33.87944
G1 X115.696 Y43.915 E33.95958
G1 X116.205 Y43.903 E33.98328
G1 X192.798 Y43.9 E37.54977
G1 X193.664 Y43.912 E37.5901
G1 X194.601 Y43.968 E37.63381
G1 X195.529 Y44.107 E37.6775
G1 X196.442 Y44.328 E37.72125
G1 X197.298 Y44.616 E37.7633
G1 X198.189 Y45.006 E37.80859
G1 X199.011 Y45.458 E37.85227
G1 X199.762 Y45.96 E37.89433
G1 X200.52 Y46.571 E37.93967
G1 X201.14 Y47.166 E37.97968
G1 X201.64 Y47.687 E38.0133
G1 X202.667 Y48.788 E38.08341
G1 X204.386 Y50.529 E38.19734
G1 X206.8 Y52.828 E38.35256
G1 X207.462 Y53.519 E38.39712
G1 X208.048 Y54.251 E38.44079
G1 X208.568 Y55.032 E38.48448
G1 X209.017 Y55.857 E38.52821
G1 X209.378 Y56.685 E38.57027
G1 X209.686 Y57.608 E38.61558
G1 X209.903 Y58.522 E38.65932
G1 X210.034 Y59.415 E38.70135
G1 X210.084 Y60.157 E38.73598
G1 X210.098 Y60.746 E38.76341
G1 X210.1 Y158.798 E43.32913
G1 X210.088 Y159.664 E43.36945
G1 X210.032 Y160.601 E43.41316
G1 X209.893 Y161.529 E43.45686
G1 X209.672 Y162.442 E43.5006
G1 X209.384 Y163.298 E43.54265
G1 X208.994 Y164.189 E43.58794
G1 X208.542 Y165.011 E43.63162
G1 X208.04 Y165.762 E43.67368
G1 X207.429 Y166.52 E43.71902
G1 X206.835 Y167.139 E43.75897
G1 X206.28 Y167.671 E43.79476
G1 X205.225 Y168.655 E43.86194
G1 X203.466 Y170.391 E43.97702
G1 X201.177 Y172.797 E44.13165
G1 X200.487 Y173.459 E44.17618
G1 X199.754 Y174.046 E44.21991
G1 X198.973 Y174.566 E44.2636
G1 X198.149 Y175.015 E44.30729
G1 X197.321 Y175.376 E44.34935
G1 X196.398 Y175.685 E44.39468
G1 X195.484 Y175.902 E44.43842
G1 X194.591 Y176.033 E44.48044
G1 X193.843 Y176.084 E44.51536
G1 X193.254 Y176.098 E44.54279
G1 X116.7 Y176.1 E48.10746
G1 X115.555 Y176.081 E48.16079
G1 X113.649 Y175.991 E48.24964
G1 X111.131 Y175.922 E48.36693
G1 X108.62 Y175.925 E48.48385
G1 X106.022 Y176.001 E48.60488
G1 X104.304 Y176.085 E48.68497
G1 X103.795 Y176.097 E48.70868
G1 X27.202 Y176.1 E52.27517
G1 X26.336 Y176.088 E52.3155
G1 X25.399 Y176.032 E52.35921
G1 X24.471 Y175.893 E52.4029
G1 X23.558 Y175.672 E52.44664
G1 X22.702 Y175.384 E52.4887
G1 X21.811 Y174.994 E52.53399
G1 X20.989 Y174.542 E52.57767
G1 X20.238 Y174.04 E52.61973
G1 X19.48 Y173.429 E52.66506
G1 X18.857 Y172.831 E52.70527
G1 X17.354 Y171.234 E52.80739
G1 X15.605 Y169.462 E52.92333
G1 X13.2 Y167.172 E53.07796
G1 X12.538 Y166.481 E53.12252
G1 X11.952 Y165.749 E53.16618
G1 X11.432 Y164.968 E53.20987
G1 X10.983 Y164.143 E53.25361
G1 X10.622 Y163.315 E53.29567
G1 X10.314 Y162.392 E53.34098
G1 X10.097 Y161.478 E53.38472
G1 X9.966 Y160.585 E53.42674
G1 X9.916 Y159.843 E53.46137
G1 X9.902 Y159.254 E53.48881
G1 X9.9 Y61.202 E58.05452
G1 X9.912 Y60.336 E58.09485
G1 X9.968 Y59.399 E58.13856
G1 X10.107 Y58.471 E58.18225
G1 X10.328 Y57.558 E58.22599
G1 X10.616 Y56.702 E58.26805
G1 X11.006 Y55.811 E58.31333
G1 X11.458 Y54.989 E58.35702
G1 X11.96 Y54.238 E58.39908
G1 X12.571 Y53.48 E58.44441
G1 X13.165 Y52.861 E58.48436
G1 X13.72 Y52.329 E58.52016
G1 X14.775 Y51.345 E58.58734
G1 X16.549 Y49.594 E58.7034
G1 X18.653 Y47.385 E58.84545
G1 X19.314 Y46.719 E58.88915
G1 X20.032 Y46.113 E58.9329
G1 X20.799 Y45.574 E58.97655
G1 X21.58 Y45.121 E59.01859
G0 F9000 X21.781 Y45.467
G1 F1800 X22.599 Y45.085 E59.06063
G1 X23.448 Y44.777 E59.10268
G1 X24.321 Y44.545 E59.14474
G1 X25.211 Y44.392 E59.18679
G1 X26.168 Y44.315 E59.2315
G1 X26.746 Y44.302 E59.25842
G1 X103.293 Y44.3 E62.82277
G1 X104.427 Y44.319 E62.87558
G1 X106.332 Y44.409 E62.96438
G1 X108.858 Y44.478 E63.08205
G1 X111.393 Y44.475 E63.20009
G1 X113.997 Y44.399 E63.32139
G1 X115.706 Y44.315 E63.40107
G1 X116.205 Y44.303 E63.42431
G1 X192.793 Y44.3 E66.99057
G1 X193.641 Y44.311 E67.03006
G1 X194.543 Y44.364 E67.07213
G1 X195.436 Y44.496 E67.11416
G1 X196.314 Y44.707 E67.15621
G1 X197.17 Y44.995 E67.19827
G1 X197.997 Y45.357 E67.2403
G1 X198.789 Y45.791 E67.28235
G1 X199.54 Y46.293 E67.32442
G1 X200.243 Y46.86 E67.36647
G1 X200.851 Y47.443 E67.4057
G1 X201.347 Y47.96 E67.43906
G1 X202.374 Y49.061 E67.50917
G1 X204.11 Y50.819 E67.62421
G1 X206.524 Y53.118 E67.77944
G1 X207.15 Y53.769 E67.82149
G1 X207.715 Y54.473 E67.86352
G1 X208.217 Y55.224 E67.90559
G1 X208.65 Y56.017 E67.94766
G1 X209.011 Y56.845 E67.98972
G1 X209.297 Y57.701 E68.03174
G1 X209.507 Y58.58 E68.07382
G1 X209.638 Y59.473 E68.11585
G1 X209.684 Y60.167 E68.14824
G1 X209.698 Y60.746 E68.17521
G1 X209.7 Y158.793 E72.74069
G1 X209.689 Y159.641 E72.78018
G1 X209.636 Y160.543 E72.82225
G1 X209.504 Y161.436 E72.86428
G1 X209.293 Y162.314 E72.90633
G1 X209.005 Y163.17 E72.94838
G1 X208.643 Y163.997 E72.99042
G1 X208.209 Y164.789 E73.03247
G1 X207.707 Y165.54 E73.07454
G1 X207.14 Y166.243 E73.11659
G1 X206.558 Y166.85 E73.15575
G1 X206.007 Y167.378 E73.19128
G1 X204.952 Y168.362 E73.25846
G1 X203.185 Y170.106 E73.37407
G1 X200.887 Y172.521 E73.52929
G1 X200.236 Y173.147 E73.57135
G1 X199.532 Y173.713 E73.61341
G1 X198.781 Y174.215 E73.65547
G1 X197.989 Y174.648 E73.6975
G1 X197.161 Y175.009 E73.73956
G1 X196.305 Y175.296 E73.7816
G1 X195.426 Y175.506 E73.82368
G1 X194.533 Y175.637 E73.86571
G1 X193.833 Y175.684 E73.89838
G1 X193.254 Y175.698 E73.92535
G1 X116.707 Y175.7 E77.4897
G1 X115.574 Y175.681 E77.54246
G1 X113.668 Y175.591 E77.63131
G1 X111.142 Y175.522 E77.74898
G1 X108.608 Y175.525 E77.86697
G1 X106.002 Y175.601 E77.98837
G1 X104.294 Y175.685 E78.068
G1 X103.795 Y175.697 E78.09124
G1 X27.207 Y175.7 E81.6575
G1 X26.359 Y175.689 E81.69699
G1 X25.457 Y175.636 E81.73906
G1 X24.564 Y175.504 E81.78109
G1 X23.686 Y175.293 E81.82314
G1 X22.83 Y175.005 E81.86519
G1 X22.003 Y174.643 E81.90723
G1 X21.211 Y174.209 E81.94928
G1 X20.46 Y173.707 E81.99135
G1 X19.757 Y173.14 E82.0334
G1 X19.146 Y172.554 E82.07282
G1 X18.612 Y171.996 E82.10879
G1 X17.639 Y170.953 E82.1752
G1 X15.89 Y169.181 E82.29114
G1 X13.476 Y166.882 E82.44637
G1 X12.85 Y166.231 E82.48842
G1 X12.285 Y165.527 E82.53045
G1 X11.783 Y164.776 E82.57252
G1 X11.35 Y163.983 E82.61459
G1 X10.989 Y163.155 E82.65665
G1 X10.703 Y162.299 E82.69867
G1 X10.493 Y161.42 E82.74075
G1 X10.362 Y160.527 E82.78278
G1 X10.316 Y159.833 E82.81517
G1 X10.302 Y159.254 E82.84214
G1 X10.3 Y61.207 E87.40761
G1 X10.311 Y60.359 E87.4471
G1 X10.364 Y59.457 E87.48918
G1 X10.496 Y58.564 E87.53121
G1 X10.707 Y57.686 E87.57326
G1 X10.995 Y56.83 E87.61531
G1 X11.357 Y56.003 E87.65735
G1 X11.791 Y55.211 E87.6994
G1 X12.293 Y54.46 E87.74146
G1 X12.86 Y53.757 E87.78352
G1 X13.442 Y53.15 E87.82268
G1 X13.993 Y52.622 E87.85821
G1 X15.048 Y51.638 E87.92539
G1 X16.83 Y49.879 E88.04198
G1 X18.937 Y47.666 E88.18426
G1 X19.572 Y47.024 E88.22631
G1 X20.262 Y46.44 E88.2684
G1 X21 Y45.92 E88.31044
G1 X21.781 Y45.467 E88.35248
G1 F2400 E87.55248
;MESH:bottom-drill-holes-BodyPad.stl
G0 F9000 X33.298 Y116.686
G0 X34.945 Y121.643
;TYPE:WALL-INNER
G1 F2400 E88.35248
G1 F1800 X34.435 Y121.924 E88.3796
G1 X33.712 Y122.088 E88.41412
G1 X32.928 Y122.036 E88.4507
G1 X32.323 Y121.8 E88.48094
G1 X31.88 Y121.515 E88.50547
G1 X31.516 Y121.163 E88.52905
G1 X31.276 Y120.834 E88.54801
G1 X30.999 Y120.256 E88.57786
G1 X30.884 Y119.51 E88.613
G1 X30.974 Y118.842 E88.64439
G1 X31.197 Y118.251 E88.6738
G1 X31.502 Y117.811 E88.69873
G1 X31.784 Y117.524 E88.71747
G1 X32.194 Y117.231 E88.74093
G1 X32.666 Y117.016 E88.76508
G1 X33.302 Y116.871 E88.79546
G1 X34.083 Y116.924 E88.83191
G1 X34.699 Y117.172 E88.86283
G1 X35.103 Y117.432 E88.8852
G1 X35.485 Y117.801 E88.90993
G1 X35.802 Y118.232 E88.93485
G1 X36.018 Y118.829 E88.96441
G1 X36.101 Y119.344 E88.9887
G1 X36.074 Y119.845 E89.01206
G1 X35.979 Y120.266 E89.03216
G1 X35.803 Y120.716 E89.05466
G1 X35.411 Y121.266 E89.08611
G1 X34.945 Y121.643 E89.11402
G1 F2400 E88.31402
G0 F9000 X34.558 Y121.973
G0 X33.728 Y122.269
G0 X34.144 Y149.774
G0 X35.413 Y154.278
G1 F2400 E89.11402
G1 F1800 X34.921 Y154.683 E89.14369
G1 X34.44 Y154.936 E89.169
G1 X33.699 Y155.112 E89.20446
G1 X32.923 Y155.05 E89.24071
G1 X32.325 Y154.821 E89.27053
G1 X31.874 Y154.535 E89.29539
G1 X31.526 Y154.19 E89.31821
G1 X31.291 Y153.874 E89.33655
G1 X30.998 Y153.273 E89.36768
G1 X30.884 Y152.53 E89.40268
G1 X30.974 Y151.862 E89.43407
G1 X31.197 Y151.271 E89.46348
G1 X31.502 Y150.831 E89.48841
G1 X31.784 Y150.544 E89.50715
G1 X32.194 Y150.251 E89.53061
G1 X32.666 Y150.036 E89.55476
G1 X33.301 Y149.891 E89.58509
G1 X34.069 Y149.942 E89.62093
G1 X34.656 Y150.17 E89.65026
G1 X35.108 Y150.455 E89.67514
G1 X35.494 Y150.832 E89.70026
G1 X35.806 Y151.261 E89.72496
G1 X36.026 Y151.881 E89.7556
G1 X36.098 Y152.36 E89.77815
G1 X36.072 Y152.881 E89.80244
G1 X35.983 Y153.272 E89.82111
G1 X35.803 Y153.737 E89.84433
G1 X35.413 Y154.278 E89.87539
G1 F2400 E89.07539
G0 F9000 X36.155 Y153.325
G0 X36.155 Y164.7
G0 X103.433 Y164.899
G1 F2400 E89.87539
G1 F1800 X103.471 Y164.535 E89.89243
G1 X103.531 Y164.184 E89.90901
G1 X103.609 Y163.85 E89.92498
G1 X103.691 Y163.558 E89.9391
G1 X103.792 Y163.261 E89.95371
G1 X103.922 Y162.927 E89.9704
G1 X104.05 Y162.643 E89.9849
G1 X104.187 Y162.375 E89.99892
G1 X104.375 Y162.045 E90.0166
G1 X104.551 Y161.777 E90.03153
G1 X104.744 Y161.508 E90.04695
G1 X104.949 Y161.251 E90.06226
G1 X105.156 Y161.018 E90.07677
G1 X105.397 Y160.769 E90.09291
G1 X105.638 Y160.546 E90.10819
G1 X105.902 Y160.326 E90.1242
G1 X106.141 Y160.145 E90.13816
G1 X106.44 Y159.941 E90.15501
G1 X106.693 Y159.788 E90.16878
G1 X107.011 Y159.615 E90.18564
G1 X107.278 Y159.488 E90.1994
G1 X107.586 Y159.359 E90.21495
G1 X107.918 Y159.237 E90.23142
G1 X108.204 Y159.148 E90.24537
G1 X108.553 Y159.059 E90.26214
G1 X108.844 Y159 E90.27597
G1 X109.19 Y158.95 E90.29224
G1 X109.513 Y158.917 E90.30736
G1 X109.845 Y158.901 E90.32284
G1 X110.157 Y158.902 E90.33737
G1 X110.519 Y158.919 E90.35424
G1 X110.836 Y158.953 E90.36909
G1 X111.139 Y158.998 E90.38335
G1 X111.472 Y159.066 E90.39918
G1 X111.805 Y159.151 E90.41518
G1 X112.117 Y159.248 E90.4304
G1 X112.404 Y159.353 E90.44463
G1 X112.735 Y159.492 E90.46134
G1 X113.017 Y159.63 E90.47596
G1 X113.323 Y159.796 E90.49217
G1 X113.667 Y160.01 E90.51104
G1 X114.107 Y160.334 E90.53648
G1 X114.369 Y160.552 E90.55235
G1 X114.814 Y160.985 E90.58126
G1 X115.063 Y161.265 E90.59871
G1 X115.269 Y161.523 E90.61408
G1 X115.464 Y161.798 E90.62978
G1 X115.629 Y162.053 E90.64392
G1 X115.799 Y162.349 E90.65982
G1 X115.959 Y162.66 E90.6761
G1 X116.091 Y162.955 E90.69115
G1 X116.2 Y163.233 E90.70506
G1 X116.305 Y163.547 E90.72047
G1 X116.465 Y164.164 E90.75015
G1 X116.527 Y164.522 E90.76707
G1 X116.572 Y164.9 E90.7848
G1 X192.928 Y164.899 E94.34025
G1 X192.974 Y164.512 E94.3584
G1 X193.018 Y164.25 E94.37077
G1 X193.099 Y163.889 E94.388
G1 X193.189 Y163.564 E94.4037
G1 X193.386 Y163.013 E94.43095
G1 X193.682 Y162.383 E94.46336
G1 X193.84 Y162.104 E94.47829
G1 X194.001 Y161.85 E94.49229
G1 X194.203 Y161.562 E94.50867
G1 X194.381 Y161.332 E94.52222
G1 X194.613 Y161.063 E94.53876
G1 X194.832 Y160.832 E94.55358
G1 X195.074 Y160.604 E94.56906
G1 X195.317 Y160.395 E94.58399
G1 X195.535 Y160.223 E94.59692
G1 X195.802 Y160.033 E94.61217
G1 X196.1 Y159.844 E94.62861
G1 X196.41 Y159.668 E94.64521
G1 X196.659 Y159.543 E94.65818
G1 X196.982 Y159.4 E94.67463
G1 X197.249 Y159.296 E94.68797
G1 X197.601 Y159.178 E94.70526
G1 X197.892 Y159.098 E94.71931
G1 X198.249 Y159.019 E94.73634
G1 X198.9 Y158.928 E94.76694
G1 X198.9 Y61.071 E99.32358
G1 X198.512 Y61.025 E99.34177
G1 X198.213 Y60.974 E99.35589
G1 X197.902 Y60.904 E99.37074
G1 X197.563 Y60.81 E99.38712
G1 X196.961 Y60.592 E99.41693
G1 X196.425 Y60.341 E99.44449
G1 X196.098 Y60.157 E99.46196
